photo_tools_v12_1/luts/vintage_film.cube
TITLE "Vintage Film"
LUT_3D_SIZE 33
DOMAIN_MIN 0.0 0.0 0.0
DOMAIN_MAX 1.0 1.0 1.0
0.020000 0.010000 0.020000
0.020000 0.010000 0.047500
0.020000 0.010000 0.075000
0.020000 0.010000 0.102500
0.020000 0.010000 0.130000
0.020000 0.010000 0.157500
0.020000 0.010000 0.185000
0.020000 0.010000 0.212500
0.020000 0.010000 0.240000
0.020000 0.010000 0.267500
0.020000 0.010000 0.295000
0.020000 0.010000 0.322500
0.020000 0.010000 0.350000
0.020000 0.010000 0.377500
0.020000 0.010000 0.405000
0.020000 0.010000 0.432500
0.020000 0.010000 0.460000
0.020000 0.010000 0.487500
0.020000 0.010000 0.515000
0.020000 0.010000 0.542500
0.020000 0.010000 0.570000
0.020000 0.010000 0.597500
0.020000 0.010000 0.625000
0.020000 0.010000 0.652500
0.020000 0.010000 0.680000
0.020000 0.010000 0.707500
0.020000 0.010000 0.735000
0.020000 0.010000 0.762500
0.020000 0.010000 0.790000
0.020000 0.010000 0.817500
0.020000 0.010000 0.845000
0.020000 0.010000 0.872500
0.020000 0.010000 0.900000
0.020000 0.040000 0.020000
0.020000 0.040000 0.047500
0.020000 0.040000 0.075000
0.020000 0.040000 0.102500
0.020000 0.040000 0.130000
0.020000 0.040000 0.157500
0.020000 0.040000 0.185000
0.020000 0.040000 0.212500
0.020000 0.040000 0.240000
0.020000 0.040000 0.267500
0.020000 0.040000 0.295000
0.020000 0.040000 0.322500
0.020000 0.040000 0.350000
0.020000 0.040000 0.377500
0.020000 0.040000 0.405000
0.020000 0.040000 0.432500
0.020000 0.040000 0.460000
0.020000 0.040000 0.487500
0.020000 0.040000 0.515000
0.020000 0.040000 0.542500
0.020000 0.040000 0.570000
0.020000 0.040000 0.597500
0.020000 0.040000 0.625000
0.020000 0.040000 0.652500
0.020000 0.040000 0.680000
0.020000 0.040000 0.707500
0.020000 0.040000 0.735000
0.020000 0.040000 0.762500
0.020000 0.040000 0.790000
0.020000 0.040000 0.817500
0.020000 0.040000 0.845000
0.020000 0.040000 0.872500
0.020000 0.040000 0.900000
0.020000 0.070000 0.020000
0.020000 0.070000 0.047500
0.020000 0.070000 0.075000
0.020000 0.070000 0.102500
0.020000 0.070000 0.130000
0.020000 0.070000 0.157500
0.020000 0.070000 0.185000
0.020000 0.070000 0.212500
0.020000 0.070000 0.240000
0.020000 0.070000 0.267500
0.020000 0.070000 0.295000
0.020000 0.070000 0.322500
0.020000 0.070000 0.350000
0.020000 0.070000 0.377500
0.020000 0.070000 0.405000
0.020000 0.070000 0.432500
0.020000 0.070000 0.460000
0.020000 0.070000 0.487500
0.020000 0.070000 0.515000
0.020000 0.070000 0.542500
0.020000 0.070000 0.570000
0.020000 0.070000 0.597500
0.020000 0.070000 0.625000
0.020000 0.070000 0.652500
0.020000 0.070000 0.680000
0.020000 0.070000 0.707500
0.020000 0.070000 0.735000
0.020000 0.070000 0.762500
0.020000 0.070000 0.790000
0.020000 0.070000 0.817500
0.020000 0.070000 0.845000
0.020000 0.070000 0.872500
0.020000 0.070000 0.900000
0.020000 0.100000 0.020000
0.020000 0.100000 0.047500
0.020000 0.100000 0.075000
0.020000 0.100000 0.102500
0.020000 0.100000 0.130000
0.020000 0.100000 0.157500
0.020000 0.100000 0.185000
0.020000 0.100000 0.212500
0.020000 0.100000 0.240000
0.020000 0.100000 0.267500
0.020000 0.100000 0.295000
0.020000 0.100000 0.322500
0.020000 0.100000 0.350000
0.020000 0.100000 0.377500
0.020000 0.100000 0.405000
0.020000 0.100000 0.432500
0.020000 0.100000 0.460000
0.020000 0.100000 0.487500
0.020000 0.100000 0.515000
0.020000 0.100000 0.542500
0.020000 0.100000 0.570000
0.020000 0.100000 0.597500
0.020000 0.100000 0.625000
0.020000 0.100000 0.652500
0.020000 0.100000 0.680000
0.020000 0.100000 0.707500
0.020000 0.100000 0.735000
0.020000 0.100000 0.762500
0.020000 0.100000 0.790000
0.020000 0.100000 0.817500
0.020000 0.100000 0.845000
0.020000 0.100000 0.872500
0.020000 0.100000 0.900000
0.020000 0.130000 0.020000
0.020000 0.130000 0.047500
0.020000 0.130000 0.075000
0.020000 0.130000 0.102500
0.020000 0.130000 0.130000
0.020000 0.130000 0.157500
0.020000 0.130000 0.185000
0.020000 0.130000 0.212500
0.020000 0.130000 0.240000
0.020000 0.130000 0.267500
0.020000 0.130000 0.295000
0.020000 0.130000 0.322500
0.020000 0.130000 0.350000
0.020000 0.130000 0.377500
0.020000 0.130000 0.405000
0.020000 0.130000 0.432500
0.020000 0.130000 0.460000
0.020000 0.130000 0.487500
0.020000 0.130000 0.515000
0.020000 0.130000 0.542500
0.020000 0.130000 0.570000
0.020000 0.130000 0.597500
0.020000 0.130000 0.625000
0.020000 0.130000 0.652500
0.020000 0.130000 0.680000
0.020000 0.130000 0.707500
0.020000 0.130000 0.735000
0.020000 0.130000 0.762500
0.020000 0.130000 0.790000
0.020000 0.130000 0.817500
0.020000 0.130000 0.845000
0.020000 0.130000 0.872500
0.020000 0.130000 0.900000
0.020000 0.160000 0.020000
0.020000 0.160000 0.047500
0.020000 0.160000 0.075000
0.020000 0.160000 0.102500
0.020000 0.160000 0.130000
0.020000 0.160000 0.157500
0.020000 0.160000 0.185000
0.020000 0.160000 0.212500
0.020000 0.160000 0.240000
0.020000 0.160000 0.267500
0.020000 0.160000 0.295000
0.020000 0.160000 0.322500
0.020000 0.160000 0.350000
0.020000 0.160000 0.377500
0.020000 0.160000 0.405000
0.020000 0.160000 0.432500
0.020000 0.160000 0.460000
0.020000 0.160000 0.487500
0.020000 0.160000 0.515000
0.020000 0.160000 0.542500
0.020000 0.160000 0.570000
0.020000 0.160000 0.597500
0.020000 0.160000 0.625000
0.020000 0.160000 0.652500
0.020000 0.160000 0.680000
0.020000 0.160000 0.707500
0.020000 0.160000 0.735000
0.020000 0.160000 0.762500
0.020000 0.160000 0.790000
0.020000 0.160000 0.817500
0.020000 0.160000 0.845000
0.020000 0.160000 0.872500
0.020000 0.160000 0.900000
0.020000 0.190000 0.020000
0.020000 0.190000 0.047500
0.020000 0.190000 0.075000
0.020000 0.190000 0.102500
0.020000 0.190000 0.130000
0.020000 0.190000 0.157500
0.020000 0.190000 0.185000
0.020000 0.190000 0.212500
0.020000 0.190000 0.240000
0.020000 0.190000 0.267500
0.020000 0.190000 0.295000
0.020000 0.190000 0.322500
0.020000 0.190000 0.350000
0.020000 0.190000 0.377500
0.020000 0.190000 0.405000
0.020000 0.190000 0.432500
0.020000 0.190000 0.460000
0.020000 0.190000 0.487500
0.020000 0.190000 0.515000
0.020000 0.190000 0.542500
0.020000 0.190000 0.570000
0.020000 0.190000 0.597500
0.020000 0.190000 0.625000
0.020000 0.190000 0.652500
0.020000 0.190000 0.680000
0.020000 0.190000 0.707500
0.020000 0.190000 0.735000
0.020000 0.190000 0.762500
0.020000 0.190000 0.790000
0.020000 0.190000 0.817500
0.020000 0.190000 0.845000
0.020000 0.190000 0.872500
0.020000 0.190000 0.900000
0.020000 0.220000 0.020000
0.020000 0.220000 0.047500
0.020000 0.220000 0.075000
0.020000 0.220000 0.102500
0.020000 0.220000 0.130000
0.020000 0.220000 0.157500
0.020000 0.220000 0.185000
0.020000 0.220000 0.212500
0.020000 0.220000 0.240000
0.020000 0.220000 0.267500
0.020000 0.220000 0.295000
0.020000 0.220000 0.322500
0.020000 0.220000 0.350000
0.020000 0.220000 0.377500
0.020000 0.220000 0.405000
0.020000 0.220000 0.432500
0.020000 0.220000 0.460000
0.020000 0.220000 0.487500
0.020000 0.220000 0.515000
0.020000 0.220000 0.542500
0.020000 0.220000 0.570000
0.020000 0.220000 0.597500
0.020000 0.220000 0.625000
0.020000 0.220000 0.652500
0.020000 0.220000 0.680000
0.020000 0.220000 0.707500
0.020000 0.220000 0.735000
0.020000 0.220000 0.762500
0.020000 0.220000 0.790000
0.020000 0.220000 0.817500
0.020000 0.220000 0.845000
0.020000 0.220000 0.872500
0.020000 0.220000 0.900000
0.020000 0.250000 0.020000
0.020000 0.250000 0.047500
0.020000 0.250000 0.075000
0.020000 0.250000 0.102500
0.020000 0.250000 0.130000
0.020000 0.250000 0.157500
0.020000 0.250000 0.185000
0.020000 0.250000 0.212500
0.020000 0.250000 0.240000
0.020000 0.250000 0.267500
0.020000 0.250000 0.295000
0.020000 0.250000 0.322500
0.020000 0.250000 0.350000
0.020000 0.250000 0.377500
0.020000 0.250000 0.405000
0.020000 0.250000 0.432500
0.020000 0.250000 0.460000
0.020000 0.250000 0.487500
0.020000 0.250000 0.515000
0.020000 0.250000 0.542500
0.020000 0.250000 0.570000
0.020000 0.250000 0.597500
0.020000 0.250000 0.625000
0.020000 0.250000 0.652500
0.020000 0.250000 0.680000
0.020000 0.250000 0.707500
0.020000 0.250000 0.735000
0.020000 0.250000 0.762500
0.020000 0.250000 0.790000
0.020000 0.250000 0.817500
0.020000 0.250000 0.845000
0.020000 0.250000 0.872500
0.020000 0.250000 0.900000
0.020000 0.280000 0.020000
0.020000 0.280000 0.047500
0.020000 0.280000 0.075000
0.020000 0.280000 0.102500
0.020000 0.280000 0.130000
0.020000 0.280000 0.157500
0.020000 0.280000 0.185000
0.020000 0.280000 0.212500
0.020000 0.280000 0.240000
0.020000 0.280000 0.267500
0.020000 0.280000 0.295000
0.020000 0.280000 0.322500
0.020000 0.280000 0.350000
0.020000 0.280000 0.377500
0.020000 0.280000 0.405000
0.020000 0.280000 0.432500
0.020000 0.280000 0.460000
0.020000 0.280000 0.487500
0.020000 0.280000 0.515000
0.020000 0.280000 0.542500
0.020000 0.280000 0.570000
0.020000 0.280000 0.597500
0.020000 0.280000 0.625000
0.020000 0.280000 0.652500
0.020000 0.280000 0.680000
0.020000 0.280000 0.707500
0.020000 0.280000 0.735000
0.020000 0.280000 0.762500
0.020000 0.280000 0.790000
0.020000 0.280000 0.817500
0.020000 0.280000 0.845000
0.020000 0.280000 0.872500
0.020000 0.280000 0.900000
0.020000 0.310000 0.020000
0.020000 0.310000 0.047500
0.020000 0.310000 0.075000
0.020000 0.310000 0.102500
0.020000 0.310000 0.130000
0.020000 0.310000 0.157500
0.020000 0.310000 0.185000
0.020000 0.310000 0.212500
0.020000 0.310000 0.240000
0.020000 0.310000 0.267500
0.020000 0.310000 0.295000
0.020000 0.310000 0.322500
0.020000 0.310000 0.350000
0.020000 0.310000 0.377500
0.020000 0.310000 0.405000
0.020000 0.310000 0.432500
0.020000 0.310000 0.460000
0.020000 0.310000 0.487500
0.020000 0.310000 0.515000
0.020000 0.310000 0.542500
0.020000 0.310000 0.570000
0.020000 0.310000 0.597500
0.020000 0.310000 0.625000
0.020000 0.310000 0.652500
0.020000 0.310000 0.680000
0.020000 0.310000 0.707500
0.020000 0.310000 0.735000
0.020000 0.310000 0.762500
0.020000 0.310000 0.790000
0.020000 0.310000 0.817500
0.020000 0.310000 0.845000
0.020000 0.310000 0.872500
0.020000 0.310000 0.900000
0.020000 0.340000 0.020000
0.020000 0.340000 0.047500
0.020000 0.340000 0.075000
0.020000 0.340000 0.102500
0.020000 0.340000 0.130000
0.020000 0.340000 0.157500
0.020000 0.340000 0.185000
0.020000 0.340000 0.212500
0.020000 0.340000 0.240000
0.020000 0.340000 0.267500
0.020000 0.340000 0.295000
0.020000 0.340000 0.322500
0.020000 0.340000 0.350000
0.020000 0.340000 0.377500
0.020000 0.340000 0.405000
0.020000 0.340000 0.432500
0.020000 0.340000 0.460000
0.020000 0.340000 0.487500
0.020000 0.340000 0.515000
0.020000 0.340000 0.542500
0.020000 0.340000 0.570000
0.020000 0.340000 0.597500
0.020000 0.340000 0.625000
0.020000 0.340000 0.652500
0.020000 0.340000 0.680000
0.020000 0.340000 0.707500
0.020000 0.340000 0.735000
0.020000 0.340000 0.762500
0.020000 0.340000 0.790000
0.020000 0.340000 0.817500
0.020000 0.340000 0.845000
0.020000 0.340000 0.872500
0.020000 0.340000 0.900000
0.020000 0.370000 0.020000
0.020000 0.370000 0.047500
0.020000 0.370000 0.075000
0.020000 0.370000 0.102500
0.020000 0.370000 0.130000
0.020000 0.370000 0.157500
0.020000 0.370000 0.185000
0.020000 0.370000 0.212500
0.020000 0.370000 0.240000
0.020000 0.370000 0.267500
0.020000 0.370000 0.295000
0.020000 0.370000 0.322500
0.020000 0.370000 0.350000
0.020000 0.370000 0.377500
0.020000 0.370000 0.405000
0.020000 0.370000 0.432500
0.020000 0.370000 0.460000
0.020000 0.370000 0.487500
0.020000 0.370000 0.515000
0.020000 0.370000 0.542500
0.020000 0.370000 0.570000
0.020000 0.370000 0.597500
0.020000 0.370000 0.625000
0.020000 0.370000 0.652500
0.020000 0.370000 0.680000
0.020000 0.370000 0.707500
0.020000 0.370000 0.735000
0.020000 0.370000 0.762500
0.020000 0.370000 0.790000
0.020000 0.370000 0.817500
0.020000 0.370000 0.845000
0.020000 0.370000 0.872500
0.020000 0.370000 0.900000
0.020000 0.400000 0.020000
0.020000 0.400000 0.047500
0.020000 0.400000 0.075000
0.020000 0.400000 0.102500
0.020000 0.400000 0.130000
0.020000 0.400000 0.157500
0.020000 0.400000 0.185000
0.020000 0.400000 0.212500
0.020000 0.400000 0.240000
0.020000 0.400000 0.267500
0.020000 0.400000 0.295000
0.020000 0.400000 0.322500
0.020000 0.400000 0.350000
0.020000 0.400000 0.377500
0.020000 0.400000 0.405000
0.020000 0.400000 0.432500
0.020000 0.400000 0.460000
0.020000 0.400000 0.487500
0.020000 0.400000 0.515000
0.020000 0.400000 0.542500
0.020000 0.400000 0.570000
0.020000 0.400000 0.597500
0.020000 0.400000 0.625000
0.020000 0.400000 0.652500
0.020000 0.400000 0.680000
0.020000 0.400000 0.707500
0.020000 0.400000 0.735000
0.020000 0.400000 0.762500
0.020000 0.400000 0.790000
0.020000 0.400000 0.817500
0.020000 0.400000 0.845000
0.020000 0.400000 0.872500
0.020000 0.400000 0.900000
0.020000 0.430000 0.020000
0.020000 0.430000 0.047500
0.020000 0.430000 0.075000
0.020000 0.430000 0.102500
0.020000 0.430000 0.130000
0.020000 0.430000 0.157500
0.020000 0.430000 0.185000
0.020000 0.430000 0.212500
0.020000 0.430000 0.240000
0.020000 0.430000 0.267500
0.020000 0.430000 0.295000
0.020000 0.430000 0.322500
0.020000 0.430000 0.350000
0.020000 0.430000 0.377500
0.020000 0.430000 0.405000
0.020000 0.430000 0.432500
0.020000 0.430000 0.460000
0.020000 0.430000 0.487500
0.020000 0.430000 0.515000
0.020000 0.430000 0.542500
0.020000 0.430000 0.570000
0.020000 0.430000 0.597500
0.020000 0.430000 0.625000
0.020000 0.430000 0.652500
0.020000 0.430000 0.680000
0.020000 0.430000 0.707500
0.020000 0.430000 0.735000
0.020000 0.430000 0.762500
0.020000 0.430000 0.790000
0.020000 0.430000 0.817500
0.020000 0.430000 0.845000
0.020000 0.430000 0.872500
0.020000 0.430000 0.900000
0.020000 0.460000 0.020000
0.020000 0.460000 0.047500
0.020000 0.460000 0.075000
0.020000 0.460000 0.102500
0.020000 0.460000 0.130000
0.020000 0.460000 0.157500
0.020000 0.460000 0.185000
0.020000 0.460000 0.212500
0.020000 0.460000 0.240000
0.020000 0.460000 0.267500
0.020000 0.460000 0.295000
0.020000 0.460000 0.322500
0.020000 0.460000 0.350000
0.020000 0.460000 0.377500
0.020000 0.460000 0.405000
0.020000 0.460000 0.432500
0.020000 0.460000 0.460000
0.020000 0.460000 0.487500
0.020000 0.460000 0.515000
0.020000 0.460000 0.542500
0.020000 0.460000 0.570000
0.020000 0.460000 0.597500
0.020000 0.460000 0.625000
0.020000 0.460000 0.652500
0.020000 0.460000 0.680000
0.020000 0.460000 0.707500
0.020000 0.460000 0.735000
0.020000 0.460000 0.762500
0.020000 0.460000 0.790000
0.020000 0.460000 0.817500
0.020000 0.460000 0.845000
0.020000 0.460000 0.872500
0.020000 0.460000 0.900000
0.020000 0.490000 0.020000
0.020000 0.490000 0.047500
0.020000 0.490000 0.075000
0.020000 0.490000 0.102500
0.020000 0.490000 0.130000
0.020000 0.490000 0.157500
0.020000 0.490000 0.185000
0.020000 0.490000 0.212500
0.020000 0.490000 0.240000
0.020000 0.490000 0.267500
0.020000 0.490000 0.295000
0.020000 0.490000 0.322500
0.020000 0.490000 0.350000
0.020000 0.490000 0.377500
0.020000 0.490000 0.405000
0.020000 0.490000 0.432500
0.020000 0.490000 0.460000
0.020000 0.490000 0.487500
0.020000 0.490000 0.515000
0.020000 0.490000 0.542500
0.020000 0.490000 0.570000
0.020000 0.490000 0.597500
0.020000 0.490000 0.625000
0.020000 0.490000 0.652500
0.020000 0.490000 0.680000
0.020000 0.490000 0.707500
0.020000 0.490000 0.735000
0.020000 0.490000 0.762500
0.020000 0.490000 0.790000
0.020000 0.490000 0.817500
0.020000 0.490000 0.845000
0.020000 0.490000 0.872500
0.020000 0.490000 0.900000
0.020000 0.520000 0.020000
0.020000 0.520000 0.047500
0.020000 0.520000 0.075000
0.020000 0.520000 0.102500
0.020000 0.520000 0.130000
0.020000 0.520000 0.157500
0.020000 0.520000 0.185000
0.020000 0.520000 0.212500
0.020000 0.520000 0.240000
0.020000 0.520000 0.267500
0.020000 0.520000 0.295000
0.020000 0.520000 0.322500
0.020000 0.520000 0.350000
0.020000 0.520000 0.377500
0.020000 0.520000 0.405000
0.020000 0.520000 0.432500
0.020000 0.520000 0.460000
0.020000 0.520000 0.487500
0.020000 0.520000 0.515000
0.020000 0.520000 0.542500
0.020000 0.520000 0.570000
0.020000 0.520000 0.597500
0.020000 0.520000 0.625000
0.020000 0.520000 0.652500
0.020000 0.520000 0.680000
0.020000 0.520000 0.707500
0.020000 0.520000 0.735000
0.020000 0.520000 0.762500
0.020000 0.520000 0.790000
0.020000 0.520000 0.817500
0.020000 0.520000 0.845000
0.020000 0.520000 0.872500
0.020000 0.520000 0.900000
0.020000 0.550000 0.020000
0.020000 0.550000 0.047500
0.020000 0.550000 0.075000
0.020000 0.550000 0.102500
0.020000 0.550000 0.130000
0.020000 0.550000 0.157500
0.020000 0.550000 0.185000
0.020000 0.550000 0.212500
0.020000 0.550000 0.240000
0.020000 0.550000 0.267500
0.020000 0.550000 0.295000
0.020000 0.550000 0.322500
0.020000 0.550000 0.350000
0.020000 0.550000 0.377500
0.020000 0.550000 0.405000
0.020000 0.550000 0.432500
0.020000 0.550000 0.460000
0.020000 0.550000 0.487500
0.020000 0.550000 0.515000
0.020000 0.550000 0.542500
0.020000 0.550000 0.570000
0.020000 0.550000 0.597500
0.020000 0.550000 0.625000
0.020000 0.550000 0.652500
0.020000 0.550000 0.680000
0.020000 0.550000 0.707500
0.020000 0.550000 0.735000
0.020000 0.550000 0.762500
0.020000 0.550000 0.790000
0.020000 0.550000 0.817500
0.020000 0.550000 0.845000
0.020000 0.550000 0.872500
0.020000 0.550000 0.900000
0.020000 0.580000 0.020000
0.020000 0.580000 0.047500
0.020000 0.580000 0.075000
0.020000 0.580000 0.102500
0.020000 0.580000 0.130000
0.020000 0.580000 0.157500
0.020000 0.580000 0.185000
0.020000 0.580000 0.212500
0.020000 0.580000 0.240000
0.020000 0.580000 0.267500
0.020000 0.580000 0.295000
0.020000 0.580000 0.322500
0.020000 0.580000 0.350000
0.020000 0.580000 0.377500
0.020000 0.580000 0.405000
0.020000 0.580000 0.432500
0.020000 0.580000 0.460000
0.020000 0.580000 0.487500
0.020000 0.580000 0.515000
0.020000 0.580000 0.542500
0.020000 0.580000 0.570000
0.020000 0.580000 0.597500
0.020000 0.580000 0.625000
0.020000 0.580000 0.652500
0.020000 0.580000 0.680000
0.020000 0.580000 0.707500
0.020000 0.580000 0.735000
0.020000 0.580000 0.762500
0.020000 0.580000 0.790000
0.020000 0.580000 0.817500
0.020000 0.580000 0.845000
0.020000 0.580000 0.872500
0.020000 0.580000 0.900000
0.020000 0.610000 0.020000
0.020000 0.610000 0.047500
0.020000 0.610000 0.075000
0.020000 0.610000 0.102500
0.020000 0.610000 0.130000
0.020000 0.610000 0.157500
0.020000 0.610000 0.185000
0.020000 0.610000 0.212500
0.020000 0.610000 0.240000
0.020000 0.610000 0.267500
0.020000 0.610000 0.295000
0.020000 0.610000 0.322500
0.020000 0.610000 0.350000
0.020000 0.610000 0.377500
0.020000 0.610000 0.405000
0.020000 0.610000 0.432500
0.020000 0.610000 0.460000
0.020000 0.610000 0.487500
0.020000 0.610000 0.515000
0.020000 0.610000 0.542500
0.020000 0.610000 0.570000
0.020000 0.610000 0.597500
0.020000 0.610000 0.625000
0.020000 0.610000 0.652500
0.020000 0.610000 0.680000
0.020000 0.610000 0.707500
0.020000 0.610000 0.735000
0.020000 0.610000 0.762500
0.020000 0.610000 0.790000
0.020000 0.610000 0.817500
0.020000 0.610000 0.845000
0.020000 0.610000 0.872500
0.020000 0.610000 0.900000
0.020000 0.640000 0.020000
0.020000 0.640000 0.047500
0.020000 0.640000 0.075000
0.020000 0.640000 0.102500
0.020000 0.640000 0.130000
0.020000 0.640000 0.157500
0.020000 0.640000 0.185000
0.020000 0.640000 0.212500
0.020000 0.640000 0.240000
0.020000 0.640000 0.267500
0.020000 0.640000 0.295000
0.020000 0.640000 0.322500
0.020000 0.640000 0.350000
0.020000 0.640000 0.377500
0.020000 0.640000 0.405000
0.020000 0.640000 0.432500
0.020000 0.640000 0.460000
0.020000 0.640000 0.487500
0.020000 0.640000 0.515000
0.020000 0.640000 0.542500
0.020000 0.640000 0.570000
0.020000 0.640000 0.597500
0.020000 0.640000 0.625000
0.020000 0.640000 0.652500
0.020000 0.640000 0.680000
0.020000 0.640000 0.707500
0.020000 0.640000 0.735000
0.020000 0.640000 0.762500
0.020000 0.640000 0.790000
0.020000 0.640000 0.817500
0.020000 0.640000 0.845000
0.020000 0.640000 0.872500
0.020000 0.640000 0.900000
0.020000 0.670000 0.020000
0.020000 0.670000 0.047500
0.020000 0.670000 0.075000
0.020000 0.670000 0.102500
0.020000 0.670000 0.130000
0.020000 0.670000 0.157500
0.020000 0.670000 0.185000
0.020000 0.670000 0.212500
0.020000 0.670000 0.240000
0.020000 0.670000 0.267500
0.020000 0.670000 0.295000
0.020000 0.670000 0.322500
0.020000 0.670000 0.350000
0.020000 0.670000 0.377500
0.020000 0.670000 0.405000
0.020000 0.670000 0.432500
0.020000 0.670000 0.460000
0.020000 0.670000 0.487500
0.020000 0.670000 0.515000
0.020000 0.670000 0.542500
0.020000 0.670000 0.570000
0.020000 0.670000 0.597500
0.020000 0.670000 0.625000
0.020000 0.670000 0.652500
0.020000 0.670000 0.680000
0.020000 0.670000 0.707500
0.020000 0.670000 0.735000
0.020000 0.670000 0.762500
0.020000 0.670000 0.790000
0.020000 0.670000 0.817500
0.020000 0.670000 0.845000
0.020000 0.670000 0.872500
0.020000 0.670000 0.900000
0.020000 0.700000 0.020000
0.020000 0.700000 0.047500
0.020000 0.700000 0.075000
0.020000 0.700000 0.102500
0.020000 0.700000 0.130000
0.020000 0.700000 0.157500
0.020000 0.700000 0.185000
0.020000 0.700000 0.212500
0.020000 0.700000 0.240000
0.020000 0.700000 0.267500
0.020000 0.700000 0.295000
0.020000 0.700000 0.322500
0.020000 0.700000 0.350000
0.020000 0.700000 0.377500
0.020000 0.700000 0.405000
0.020000 0.700000 0.432500
0.020000 0.700000 0.460000
0.020000 0.700000 0.487500
0.020000 0.700000 0.515000
0.020000 0.700000 0.542500
0.020000 0.700000 0.570000
0.020000 0.700000 0.597500
0.020000 0.700000 0.625000
0.020000 0.700000 0.652500
0.020000 0.700000 0.680000
0.020000 0.700000 0.707500
0.020000 0.700000 0.735000
0.020000 0.700000 0.762500
0.020000 0.700000 0.790000
0.020000 0.700000 0.817500
0.020000 0.700000 0.845000
0.020000 0.700000 0.872500
0.020000 0.700000 0.900000
0.020000 0.730000 0.020000
0.020000 0.730000 0.047500
0.020000 0.730000 0.075000
0.020000 0.730000 0.102500
0.020000 0.730000 0.130000
0.020000 0.730000 0.157500
0.020000 0.730000 0.185000
0.020000 0.730000 0.212500
0.020000 0.730000 0.240000
0.020000 0.730000 0.267500
0.020000 0.730000 0.295000
0.020000 0.730000 0.322500
0.020000 0.730000 0.350000
0.020000 0.730000 0.377500
0.020000 0.730000 0.405000
0.020000 0.730000 0.432500
0.020000 0.730000 0.460000
0.020000 0.730000 0.487500
0.020000 0.730000 0.515000
0.020000 0.730000 0.542500
0.020000 0.730000 0.570000
0.020000 0.730000 0.597500
0.020000 0.730000 0.625000
0.020000 0.730000 0.652500
0.020000 0.730000 0.680000
0.020000 0.730000 0.707500
0.020000 0.730000 0.735000
0.020000 0.730000 0.762500
0.020000 0.730000 0.790000
0.020000 0.730000 0.817500
0.020000 0.730000 0.845000
0.020000 0.730000 0.872500
0.020000 0.730000 0.900000
0.020000 0.760000 0.020000
0.020000 0.760000 0.047500
0.020000 0.760000 0.075000
0.020000 0.760000 0.102500
0.020000 0.760000 0.130000
0.020000 0.760000 0.157500
0.020000 0.760000 0.185000
0.020000 0.760000 0.212500
0.020000 0.760000 0.240000
0.020000 0.760000 0.267500
0.020000 0.760000 0.295000
0.020000 0.760000 0.322500
0.020000 0.760000 0.350000
0.020000 0.760000 0.377500
0.020000 0.760000 0.405000
0.020000 0.760000 0.432500
0.020000 0.760000 0.460000
0.020000 0.760000 0.487500
0.020000 0.760000 0.515000
0.020000 0.760000 0.542500
0.020000 0.760000 0.570000
0.020000 0.760000 0.597500
0.020000 0.760000 0.625000
0.020000 0.760000 0.652500
0.020000 0.760000 0.680000
0.020000 0.760000 0.707500
0.020000 0.760000 0.735000
0.020000 0.760000 0.762500
0.020000 0.760000 0.790000
0.020000 0.760000 0.817500
0.020000 0.760000 0.845000
0.020000 0.760000 0.872500
0.020000 0.760000 0.900000
0.020000 0.790000 0.020000
0.020000 0.790000 0.047500
0.020000 0.790000 0.075000
0.020000 0.790000 0.102500
0.020000 0.790000 0.130000
0.020000 0.790000 0.157500
0.020000 0.790000 0.185000
0.020000 0.790000 0.212500
0.020000 0.790000 0.240000
0.020000 0.790000 0.267500
0.020000 0.790000 0.295000
0.020000 0.790000 0.322500
0.020000 0.790000 0.350000
0.020000 0.790000 0.377500
0.020000 0.790000 0.405000
0.020000 0.790000 0.432500
0.020000 0.790000 0.460000
0.020000 0.790000 0.487500
0.020000 0.790000 0.515000
0.020000 0.790000 0.542500
0.020000 0.790000 0.570000
0.020000 0.790000 0.597500
0.020000 0.790000 0.625000
0.020000 0.790000 0.652500
0.020000 0.790000 0.680000
0.020000 0.790000 0.707500
0.020000 0.790000 0.735000
