photo_tools_v12_1/luts/vintage_film.cube
TITLE "Vintage Film"
LUT_3D_SIZE 9
DOMAIN_MIN 0.0 0.0 0.0
DOMAIN_MAX 1.0 1.0 1.0
0.020000 0.010000 0.020000
0.020000 0.010000 0.130000
0.020000 0.010000 0.240000
0.020000 0.010000 0.350000
0.020000 0.010000 0.460000
0.020000 0.010000 0.570000
0.020000 0.010000 0.680000
0.020000 0.010000 0.790000
0.020000 0.010000 0.900000
0.020000 0.130000 0.020000
0.020000 0.130000 0.130000
0.020000 0.130000 0.240000
0.020000 0.130000 0.350000
0.020000 0.130000 0.460000
0.020000 0.130000 0.570000
0.020000 0.130000 0.680000
0.020000 0.130000 0.790000
0.020000 0.130000 0.900000
0.020000 0.250000 0.020000
0.020000 0.250000 0.130000
0.020000 0.250000 0.240000
0.020000 0.250000 0.350000
0.020000 0.250000 0.460000
0.020000 0.250000 0.570000
0.020000 0.250000 0.680000
0.020000 0.250000 0.790000
0.020000 0.250000 0.900000
0.020000 0.370000 0.020000
0.020000 0.370000 0.130000
0.020000 0.370000 0.240000
0.020000 0.370000 0.350000
0.020000 0.370000 0.460000
0.020000 0.370000 0.570000
0.020000 0.370000 0.680000
0.020000 0.370000 0.790000
0.020000 0.370000 0.900000
0.020000 0.490000 0.020000
0.020000 0.490000 0.130000
0.020000 0.490000 0.240000
0.020000 0.490000 0.350000
0.020000 0.490000 0.460000
0.020000 0.490000 0.570000
0.020000 0.490000 0.680000
0.020000 0.490000 0.790000
0.020000 0.490000 0.900000
0.020000 0.610000 0.020000
0.020000 0.610000 0.130000
0.020000 0.610000 0.240000
0.020000 0.610000 0.350000
0.020000 0.610000 0.460000
0.020000 0.610000 0.570000
0.020000 0.610000 0.680000
0.020000 0.610000 0.790000
0.020000 0.610000 0.900000
0.020000 0.730000 0.020000
0.020000 0.730000 0.130000
0.020000 0.730000 0.240000
0.020000 0.730000 0.350000
0.020000 0.730000 0.460000
0.020000 0.730000 0.570000
0.020000 0.730000 0.680000
0.020000 0.730000 0.790000
0.020000 0.730000 0.900000
0.020000 0.850000 0.020000
0.020000 0.850000 0.130000
0.020000 0.850000 0.240000
0.020000 0.850000 0.350000
0.020000 0.850000 0.460000
0.020000 0.850000 0.570000
0.020000 0.850000 0.680000
0.020000 0.850000 0.790000
0.020000 0.850000 0.900000
0.020000 0.970000 0.020000
0.020000 0.970000 0.130000
0.020000 0.970000 0.240000
0.020000 0.970000 0.350000
0.020000 0.970000 0.460000
0.020000 0.970000 0.570000
0.020000 0.970000 0.680000
0.020000 0.970000 0.790000
0.020000 0.970000 0.900000
0.155000 0.010000 0.020000
0.155000 0.010000 0.130000
0.155000 0.010000 0.240000
0.155000 0.010000 0.350000
0.155000 0.010000 0.460000
0.155000 0.010000 0.570000
0.155000 0.010000 0.680000
0.155000 0.010000 0.790000
0.155000 0.010000 0.900000
0.155000 0.130000 0.020000
0.155000 0.130000 0.130000
0.155000 0.130000 0.240000
0.155000 0.130000 0.350000
0.155000 0.130000 0.460000
0.155000 0.130000 0.570000
0.155000 0.130000 0.680000
0.155000 0.130000 0.790000
0.155000 0.130000 0.900000
0.155000 0.250000 0.020000
0.155000 0.250000 0.130000
0.155000 0.250000 0.240000
0.155000 0.250000 0.350000
0.155000 0.250000 0.460000
0.155000 0.250000 0.570000
0.155000 0.250000 0.680000
0.155000 0.250000 0.790000
0.155000 0.250000 0.900000
0.155000 0.370000 0.020000
0.155000 0.370000 0.130000
0.155000 0.370000 0.240000
0.155000 0.370000 0.350000
0.155000 0.370000 0.460000
0.155000 0.370000 0.570000
0.155000 0.370000 0.680000
0.155000 0.370000 0.790000
0.155000 0.370000 0.900000
0.155000 0.490000 0.020000
0.155000 0.490000 0.130000
0.155000 0.490000 0.240000
0.155000 0.490000 0.350000
0.155000 0.490000 0.460000
0.155000 0.490000 0.570000
0.155000 0.490000 0.680000
0.155000 0.490000 0.790000
0.155000 0.490000 0.900000
0.155000 0.610000 0.020000
0.155000 0.610000 0.130000
0.155000 0.610000 0.240000
0.155000 0.610000 0.350000
0.155000 0.610000 0.460000
0.155000 0.610000 0.570000
0.155000 0.610000 0.680000
0.155000 0.610000 0.790000
0.155000 0.610000 0.900000
0.155000 0.730000 0.020000
0.155000 0.730000 0.130000
0.155000 0.730000 0.240000
0.155000 0.730000 0.350000
0.155000 0.730000 0.460000
0.155000 0.730000 0.570000
0.155000 0.730000 0.680000
0.155000 0.730000 0.790000
0.155000 0.730000 0.900000
0.155000 0.850000 0.020000
0.155000 0.850000 0.130000
0.155000 0.850000 0.240000
0.155000 0.850000 0.350000
0.155000 0.850000 0.460000
0.155000 0.850000 0.570000
0.155000 0.850000 0.680000
0.155000 0.850000 0.790000
0.155000 0.850000 0.900000
0.155000 0.970000 0.020000
0.155000 0.970000 0.130000
0.155000 0.970000 0.240000
0.155000 0.970000 0.350000
0.155000 0.970000 0.460000
0.155000 0.970000 0.570000
0.155000 0.970000 0.680000
0.155000 0.970000 0.790000
0.155000 0.970000 0.900000
0.290000 0.010000 0.020000
0.290000 0.010000 0.130000
0.290000 0.010000 0.240000
0.290000 0.010000 0.350000
0.290000 0.010000 0.460000
0.290000 0.010000 0.570000
0.290000 0.010000 0.680000
0.290000 0.010000 0.790000
0.290000 0.010000 0.900000
0.290000 0.130000 0.020000
0.290000 0.130000 0.130000
0.290000 0.130000 0.240000
0.290000 0.130000 0.350000
0.290000 0.130000 0.460000
0.290000 0.130000 0.570000
0.290000 0.130000 0.680000
0.290000 0.130000 0.790000
0.290000 0.130000 0.900000
0.290000 0.250000 0.020000
0.290000 0.250000 0.130000
0.290000 0.250000 0.240000
0.290000 0.250000 0.350000
0.290000 0.250000 0.460000
0.290000 0.250000 0.570000
0.290000 0.250000 0.680000
0.290000 0.250000 0.790000
0.290000 0.250000 0.900000
0.290000 0.370000 0.020000
0.290000 0.370000 0.130000
0.290000 0.370000 0.240000
0.290000 0.370000 0.350000
0.290000 0.370000 0.460000
0.290000 0.370000 0.570000
0.290000 0.370000 0.680000
0.290000 0.370000 0.790000
0.290000 0.370000 0.900000
0.290000 0.490000 0.020000
0.290000 0.490000 0.130000
0.290000 0.490000 0.240000
0.290000 0.490000 0.350000
0.290000 0.490000 0.460000
0.290000 0.490000 0.570000
0.290000 0.490000 0.680000
0.290000 0.490000 0.790000
0.290000 0.490000 0.900000
0.290000 0.610000 0.020000
0.290000 0.610000 0.130000
0.290000 0.610000 0.240000
0.290000 0.610000 0.350000
0.290000 0.610000 0.460000
0.290000 0.610000 0.570000
0.290000 0.610000 0.680000
0.290000 0.610000 0.790000
0.290000 0.610000 0.900000
0.290000 0.730000 0.020000
0.290000 0.730000 0.130000
0.290000 0.730000 0.240000
0.290000 0.730000 0.350000
0.290000 0.730000 0.460000
0.290000 0.730000 0.570000
0.290000 0.730000 0.680000
0.290000 0.730000 0.790000
0.290000 0.730000 0.900000
0.290000 0.850000 0.020000
0.290000 0.850000 0.130000
0.290000 0.850000 0.240000
0.290000 0.850000 0.350000
0.290000 0.850000 0.460000
0.290000 0.850000 0.570000
0.290000 0.850000 0.680000
0.290000 0.850000 0.790000
0.290000 0.850000 0.900000
0.290000 0.970000 0.020000
0.290000 0.970000 0.130000
0.290000 0.970000 0.240000
0.290000 0.970000 0.350000
0.290000 0.970000 0.460000
0.290000 0.970000 0.570000
0.290000 0.970000 0.680000
0.290000 0.970000 0.790000
0.290000 0.970000 0.900000
0.425000 0.010000 0.020000
0.425000 0.010000 0.130000
0.425000 0.010000 0.240000
0.425000 0.010000 0.350000
0.425000 0.010000 0.460000
0.425000 0.010000 0.570000
0.425000 0.010000 0.680000
0.425000 0.010000 0.790000
0.425000 0.010000 0.900000
0.425000 0.130000 0.020000
0.425000 0.130000 0.130000
0.425000 0.130000 0.240000
0.425000 0.130000 0.350000
0.425000 0.130000 0.460000
0.425000 0.130000 0.570000
0.425000 0.130000 0.680000
0.425000 0.130000 0.790000
0.425000 0.130000 0.900000
0.425000 0.250000 0.020000
0.425000 0.250000 0.130000
0.425000 0.250000 0.240000
0.425000 0.250000 0.350000
0.425000 0.250000 0.460000
0.425000 0.250000 0.570000
0.425000 0.250000 0.680000
0.425000 0.250000 0.790000
0.425000 0.250000 0.900000
0.425000 0.370000 0.020000
0.425000 0.370000 0.130000
0.425000 0.370000 0.240000
0.425000 0.370000 0.350000
0.425000 0.370000 0.460000
0.425000 0.370000 0.570000
0.425000 0.370000 0.680000
0.425000 0.370000 0.790000
0.425000 0.370000 0.900000
0.425000 0.490000 0.020000
0.425000 0.490000 0.130000
0.425000 0.490000 0.240000
0.425000 0.490000 0.350000
0.425000 0.490000 0.460000
0.425000 0.490000 0.570000
0.425000 0.490000 0.680000
0.425000 0.490000 0.790000
0.425000 0.490000 0.900000
0.425000 0.610000 0.020000
0.425000 0.610000 0.130000
0.425000 0.610000 0.240000
0.425000 0.610000 0.350000
0.425000 0.610000 0.460000
0.425000 0.610000 0.570000
0.425000 0.610000 0.680000
0.425000 0.610000 0.790000
0.425000 0.610000 0.900000
0.425000 0.730000 0.020000
0.425000 0.730000 0.130000
0.425000 0.730000 0.240000
0.425000 0.730000 0.350000
0.425000 0.730000 0.460000
0.425000 0.730000 0.570000
0.425000 0.730000 0.680000
0.425000 0.730000 0.790000
0.425000 0.730000 0.900000
0.425000 0.850000 0.020000
0.425000 0.850000 0.130000
0.425000 0.850000 0.240000
0.425000 0.850000 0.350000
0.425000 0.850000 0.460000
0.425000 0.850000 0.570000
0.425000 0.850000 0.680000
0.425000 0.850000 0.790000
0.425000 0.850000 0.900000
0.425000 0.970000 0.020000
0.425000 0.970000 0.130000
0.425000 0.970000 0.240000
0.425000 0.970000 0.350000
0.425000 0.970000 0.460000
0.425000 0.970000 0.570000
0.425000 0.970000 0.680000
0.425000 0.970000 0.790000
0.425000 0.970000 0.900000
0.560000 0.010000 0.020000
0.560000 0.010000 0.130000
0.560000 0.010000 0.240000
0.560000 0.010000 0.350000
0.560000 0.010000 0.460000
0.560000 0.010000 0.570000
0.560000 0.010000 0.680000
0.560000 0.010000 0.790000
0.560000 0.010000 0.900000
0.560000 0.130000 0.020000
0.560000 0.130000 0.130000
0.560000 0.130000 0.240000
0.560000 0.130000 0.350000
0.560000 0.130000 0.460000
0.560000 0.130000 0.570000
0.560000 0.130000 0.680000
0.560000 0.130000 0.790000
0.560000 0.130000 0.900000
0.560000 0.250000 0.020000
0.560000 0.250000 0.130000
0.560000 0.250000 0.240000
0.560000 0.250000 0.350000
0.560000 0.250000 0.460000
0.560000 0.250000 0.570000
0.560000 0.250000 0.680000
0.560000 0.250000 0.790000
0.560000 0.250000 0.900000
0.560000 0.370000 0.020000
0.560000 0.370000 0.130000
0.560000 0.370000 0.240000
0.560000 0.370000 0.350000
0.560000 0.370000 0.460000
0.560000 0.370000 0.570000
0.560000 0.370000 0.680000
0.560000 0.370000 0.790000
0.560000 0.370000 0.900000
0.560000 0.490000 0.020000
0.560000 0.490000 0.130000
0.560000 0.490000 0.240000
0.560000 0.490000 0.350000
0.560000 0.490000 0.460000
0.560000 0.490000 0.570000
0.560000 0.490000 0.680000
0.560000 0.490000 0.790000
0.560000 0.490000 0.900000
0.560000 0.610000 0.020000
0.560000 0.610000 0.130000
0.560000 0.610000 0.240000
0.560000 0.610000 0.350000
0.560000 0.610000 0.460000
0.560000 0.610000 0.570000
0.560000 0.610000 0.680000
0.560000 0.610000 0.790000
0.560000 0.610000 0.900000
0.560000 0.730000 0.020000
0.560000 0.730000 0.130000
0.560000 0.730000 0.240000
0.560000 0.730000 0.350000
0.560000 0.730000 0.460000
0.560000 0.730000 0.570000
0.560000 0.730000 0.680000
0.560000 0.730000 0.790000
0.560000 0.730000 0.900000
0.560000 0.850000 0.020000
0.560000 0.850000 0.130000
0.560000 0.850000 0.240000
0.560000 0.850000 0.350000
0.560000 0.850000 0.460000
0.560000 0.850000 0.570000
0.560000 0.850000 0.680000
0.560000 0.850000 0.790000
0.560000 0.850000 0.900000
0.560000 0.970000 0.020000
0.560000 0.970000 0.130000
0.560000 0.970000 0.240000
0.560000 0.970000 0.350000
0.560000 0.970000 0.460000
0.560000 0.970000 0.570000
0.560000 0.970000 0.680000
0.560000 0.970000 0.790000
0.560000 0.970000 0.900000
0.695000 0.010000 0.020000
0.695000 0.010000 0.130000
0.695000 0.010000 0.240000
0.695000 0.010000 0.350000
0.695000 0.010000 0.460000
0.695000 0.010000 0.570000
0.695000 0.010000 0.680000
0.695000 0.010000 0.790000
0.695000 0.010000 0.900000
0.695000 0.130000 0.020000
0.695000 0.130000 0.130000
0.695000 0.130000 0.240000
0.695000 0.130000 0.350000
0.695000 0.130000 0.460000
0.695000 0.130000 0.570000
0.695000 0.130000 0.680000
0.695000 0.130000 0.790000
0.695000 0.130000 0.900000
0.695000 0.250000 0.020000
0.695000 0.250000 0.130000
0.695000 0.250000 0.240000
0.695000 0.250000 0.350000
0.695000 0.250000 0.460000
0.695000 0.250000 0.570000
0.695000 0.250000 0.680000
0.695000 0.250000 0.790000
0.695000 0.250000 0.900000
0.695000 0.370000 0.020000
0.695000 0.370000 0.130000
0.695000 0.370000 0.240000
0.695000 0.370000 0.350000
0.695000 0.370000 0.460000
0.695000 0.370000 0.570000
0.695000 0.370000 0.680000
0.695000 0.370000 0.790000
0.695000 0.370000 0.900000
0.695000 0.490000 0.020000
0.695000 0.490000 0.130000
0.695000 0.490000 0.240000
0.695000 0.490000 0.350000
0.695000 0.490000 0.460000
0.695000 0.490000 0.570000
0.695000 0.490000 0.680000
0.695000 0.490000 0.790000
0.695000 0.490000 0.900000
0.695000 0.610000 0.020000
0.695000 0.610000 0.130000
0.695000 0.610000 0.240000
0.695000 0.610000 0.350000
0.695000 0.610000 0.460000
0.695000 0.610000 0.570000
0.695000 0.610000 0.680000
0.695000 0.610000 0.790000
0.695000 0.610000 0.900000
0.695000 0.730000 0.020000
0.695000 0.730000 0.130000
0.695000 0.730000 0.240000
0.695000 0.730000 0.350000
0.695000 0.730000 0.460000
0.695000 0.730000 0.570000
0.695000 0.730000 0.680000
0.695000 0.730000 0.790000
0.695000 0.730000 0.900000
0.695000 0.850000 0.020000
0.695000 0.850000 0.130000
0.695000 0.850000 0.240000
0.695000 0.850000 0.350000
0.695000 0.850000 0.460000
0.695000 0.850000 0.570000
0.695000 0.850000 0.680000
0.695000 0.850000 0.790000
0.695000 0.850000 0.900000
0.695000 0.970000 0.020000
0.695000 0.970000 0.130000
0.695000 0.970000 0.240000
0.695000 0.970000 0.350000
0.695000 0.970000 0.460000
0.695000 0.970000 0.570000
0.695000 0.970000 0.680000
0.695000 0.970000 0.790000
0.695000 0.970000 0.900000
0.830000 0.010000 0.020000
0.830000 0.010000 0.130000
0.830000 0.010000 0.240000
0.830000 0.010000 0.350000
0.830000 0.010000 0.460000
0.830000 0.010000 0.570000
0.830000 0.010000 0.680000
0.830000 0.010000 0.790000
0.830000 0.010000 0.900000
0.830000 0.130000 0.020000
0.830000 0.130000 0.130000
0.830000 0.130000 0.240000
0.830000 0.130000 0.350000
0.830000 0.130000 0.460000
0.830000 0.130000 0.570000
0.830000 0.130000 0.680000
0.830000 0.130000 0.790000
0.830000 0.130000 0.900000
0.830000 0.250000 0.020000
0.830000 0.250000 0.130000
0.830000 0.250000 0.240000
0.830000 0.250000 0.350000
0.830000 0.250000 0.460000
0.830000 0.250000 0.570000
0.830000 0.250000 0.680000
0.830000 0.250000 0.790000
0.830000 0.250000 0.900000
0.830000 0.370000 0.020000
0.830000 0.370000 0.130000
0.830000 0.370000 0.240000
0.830000 0.370000 0.350000
0.830000 0.370000 0.460000
0.830000 0.370000 0.570000
0.830000 0.370000 0.680000
0.830000 0.370000 0.790000
0.830000 0.370000 0.900000
0.830000 0.490000 0.020000
0.830000 0.490000 0.130000
0.830000 0.490000 0.240000
0.830000 0.490000 0.350000
0.830000 0.490000 0.460000
0.830000 0.490000 0.570000
0.830000 0.490000 0.680000
0.830000 0.490000 0.790000
0.830000 0.490000 0.900000
0.830000 0.610000 0.020000
0.830000 0.610000 0.130000
0.830000 0.610000 0.240000
0.830000 0.610000 0.350000
0.830000 0.610000 0.460000
0.830000 0.610000 0.570000
0.830000 0.610000 0.680000
0.830000 0.610000 0.790000
0.830000 0.610000 0.900000
0.830000 0.730000 0.020000
0.830000 0.730000 0.130000
0.830000 0.730000 0.240000
0.830000 0.730000 0.350000
0.830000 0.730000 0.460000
0.830000 0.730000 0.570000
0.830000 0.730000 0.680000
0.830000 0.730000 0.790000
0.830000 0.730000 0.900000
0.830000 0.850000 0.020000
0.830000 0.850000 0.130000
0.830000 0.850000 0.240000
0.830000 0.850000 0.350000
0.830000 0.850000 0.460000
0.830000 0.850000 0.570000
0.830000 0.850000 0.680000
0.830000 0.850000 0.790000
0.830000 0.850000 0.900000
0.830000 0.970000 0.020000
0.830000 0.970000 0.130000
0.830000 0.970000 0.240000
0.830000 0.970000 0.350000
0.830000 0.970000 0.460000
0.830000 0.970000 0.570000
0.830000 0.970000 0.680000
0.830000 0.970000 0.790000
0.830000 0.970000 0.900000
0.965000 0.010000 0.020000
0.965000 0.010000 0.130000
0.965000 0.010000 0.240000
0.965000 0.010000 0.350000
0.965000 0.010000 0.460000
0.965000 0.010000 0.570000
0.965000 0.010000 0.680000
0.965000 0.010000 0.790000
0.965000 0.010000 0.900000
0.965000 0.130000 0.020000
0.965000 0.130000 0.130000
0.965000 0.130000 0.240000
0.965000 0.130000 0.350000
0.965000 0.130000 0.460000
0.965000 0.130000 0.570000
0.965000 0.130000 0.680000
0.965000 0.130000 0.790000
0.965000 0.130000 0.900000
0.965000 0.250000 0.020000
0.965000 0.250000 0.130000
0.965000 0.250000 0.240000
0.965000 0.250000 0.350000
0.965000 0.250000 0.460000
0.965000 0.250000 0.570000
0.965000 0.250000 0.680000
0.965000 0.250000 0.790000
0.965000 0.250000 0.900000
0.965000 0.370000 0.020000
0.965000 0.370000 0.130000
0.965000 0.370000 0.240000
0.965000 0.370000 0.350000
0.965000 0.370000 0.460000
0.965000 0.370000 0.570000
0.965000 0.370000 0.680000
0.965000 0.370000 0.790000
0.965000 0.370000 0.900000
0.965000 0.490000 0.020000
0.965000 0.490000 0.130000
0.965000 0.490000 0.240000
0.965000 0.490000 0.350000
0.965000 0.490000 0.460000
0.965000 0.490000 0.570000
0.965000 0.490000 0.680000
0.965000 0.490000 0.790000
0.965000 0.490000 0.900000
0.965000 0.610000 0.020000
0.965000 0.610000 0.130000
0.965000 0.610000 0.240000
0.965000 0.610000 0.350000
0.965000 0.610000 0.460000
0.965000 0.610000 0.570000
0.965000 0.610000 0.680000
0.965000 0.610000 0.790000
0.965000 0.610000 0.900000
0.965000 0.730000 0.020000
0.965000 0.730000 0.130000
0.965000 0.730000 0.240000
0.965000 0.730000 0.350000
0.965000 0.730000 0.460000
0.965000 0.730000 0.570000
0.965000 0.730000 0.680000
0.965000 0.730000 0.790000
0.965000 0.730000 0.900000
0.965000 0.850000 0.020000
0.965000 0.850000 0.130000
0.965000 0.850000 0.240000
0.965000 0.850000 0.350000
0.965000 0.850000 0.460000
0.965000 0.850000 0.570000
0.965000 0.850000 0.680000
0.965000 0.850000 0.790000
0.965000 0.850000 0.900000
0.965000 0.970000 0.020000
0.965000 0.970000 0.130000
0.965000 0.970000 0.240000
0.965000 0.970000 0.350000
0.965000 0.970000 0.460000
0.965000 0.970000 0.570000
0.965000 0.970000 0.680000
0.965000 0.970000 0.790000
0.965000 0.970000 0.900000
1.000000 0.010000 0.020000
1.000000 0.010000 0.130000
1.000000 0.010000 0.240000
1.000000 0.010000 0.350000
1.000000 0.010000 0.460000
1.000000 0.010000 0.570000
1.000000 0.010000 0.680000
1.000000 0.010000 0.790000
1.000000 0.010000 0.900000
1.000000 0.130000 0.020000
1.000000 0.130000 0.130000
1.000000 0.130000 0.240000
1.000000 0.130000 0.350000
1.000000 0.130000 0.460000
1.000000 0.130000 0.570000
1.000000 0.130000 0.680000
1.000000 0.130000 0.790000
1.000000 0.130000 0.900000
1.000000 0.250000 0.020000
1.000000 0.250000 0.130000
1.000000 0.250000 0.240000
1.000000 0.250000 0.350000
1.000000 0.250000 0.460000
1.000000 0.250000 0.570000
1.000000 0.250000 0.680000
1.000000 0.250000 0.790000
1.000000 0.250000 0.900000
1.000000 0.370000 0.020000
1.000000 0.370000 0.130000
1.000000 0.370000 0.240000
1.000000 0.370000 0.350000
1.000000 0.370000 0.460000
1.000000 0.370000 0.570000
1.000000 0.370000 0.680000
1.000000 0.370000 0.790000
1.000000 0.370000 0.900000
1.000000 0.490000 0.020000
1.000000 0.490000 0.130000
1.000000 0.490000 0.240000
1.000000 0.490000 0.350000
1.000000 0.490000 0.460000
1.000000 0.490000 0.570000
1.000000 0.490000 0.680000
1.000000 0.490000 0.790000
1.000000 0.490000 0.900000
1.000000 0.610000 0.020000
1.000000 0.610000 0.130000
1.000000 0.610000 0.240000
1.000000 0.610000 0.350000
1.000000 0.610000 0.460000
1.000000 0.610000 0.570000
1.000000 0.610000 0.680000
1.000000 0.610000 0.790000
1.000000 0.610000 0.900000
1.000000 0.730000 0.020000
1.000000 0.730000 0.130000
1.000000 0.730000 0.240000
1.000000 0.730000 0.350000
1.000000 0.730000 0.460000
1.000000 0.730000 0.570000
1.000000 0.730000 0.680000
1.000000 0.730000 0.790000
1.000000 0.730000 0.900000
1.000000 0.850000 0.020000
1.000000 0.850000 0.130000
1.000000 0.850000 0.240000
1.000000 0.850000 0.350000
1.000000 0.850000 0.460000
1.000000 0.850000 0.570000
1.000000 0.850000 0.680000
1.000000 0.850000 0.790000
1.000000 0.850000 0.900000
1.000000 0.970000 0.020000
1.000000 0.970000 0.130000
1.000000 0.970000 0.240000
1.000000 0.970000 0.350000
1.000000 0.970000 0.460000
1.000000 0.970000 0.570000
1.000000 0.970000 0.680000
1.000000 0.970000 0.790000
1.000000 0.970000 0.900000
