src/phototools/luts/bleach_bypass.cube
TITLE "Bleach Bypass"
LUT_3D_SIZE 33
DOMAIN_MIN 0.0 0.0 0.0
DOMAIN_MAX 1.0 1.0 1.0
0.000000 0.000000 0.000000
0.006250 0.006250 0.028125
0.012500 0.012500 0.056250
0.018750 0.018750 0.084375
0.025000 0.025000 0.112500
0.031250 0.031250 0.140625
0.037500 0.037500 0.168750
0.043750 0.043750 0.196875
0.050000 0.050000 0.225000
0.056250 0.056250 0.253125
0.062500 0.062500 0.281250
0.068750 0.068750 0.309375
0.075000 0.075000 0.337500
0.081250 0.081250 0.365625
0.087500 0.087500 0.393750
0.093750 0.093750 0.421875
0.100000 0.100000 0.450000
0.106250 0.106250 0.478125
0.112500 0.112500 0.506250
0.118750 0.118750 0.534375
0.125000 0.125000 0.562500
0.131250 0.131250 0.590625
0.137500 0.137500 0.618750
0.143750 0.143750 0.646875
0.150000 0.150000 0.675000
0.156250 0.156250 0.703125
0.162500 0.162500 0.731250
0.168750 0.168750 0.759375
0.175000 0.175000 0.787500
0.181250 0.181250 0.815625
0.187500 0.187500 0.843750
0.193750 0.193750 0.871875
0.200000 0.200000 0.900000
0.006250 0.028125 0.006250
0.012500 0.034375 0.034375
0.018750 0.040625 0.062500
0.025000 0.046875 0.090625
0.031250 0.053125 0.118750
0.037500 0.059375 0.146875
0.043750 0.065625 0.175000
0.050000 0.071875 0.203125
0.056250 0.078125 0.231250
0.062500 0.084375 0.259375
0.068750 0.090625 0.287500
0.075000 0.096875 0.315625
0.081250 0.103125 0.343750
0.087500 0.109375 0.371875
0.093750 0.115625 0.400000
0.100000 0.121875 0.428125
0.106250 0.128125 0.456250
0.112500 0.134375 0.484375
0.118750 0.140625 0.512500
0.125000 0.146875 0.540625
0.131250 0.153125 0.568750
0.137500 0.159375 0.596875
0.143750 0.165625 0.625000
0.150000 0.171875 0.653125
0.156250 0.178125 0.681250
0.162500 0.184375 0.709375
0.168750 0.190625 0.737500
0.175000 0.196875 0.765625
0.181250 0.203125 0.793750
0.187500 0.209375 0.821875
0.193750 0.215625 0.850000
0.200000 0.221875 0.878125
0.206250 0.228125 0.906250
0.012500 0.056250 0.012500
0.018750 0.062500 0.040625
0.025000 0.068750 0.068750
0.031250 0.075000 0.096875
0.037500 0.081250 0.125000
0.043750 0.087500 0.153125
0.050000 0.093750 0.181250
0.056250 0.100000 0.209375
0.062500 0.106250 0.237500
0.068750 0.112500 0.265625
0.075000 0.118750 0.293750
0.081250 0.125000 0.321875
0.087500 0.131250 0.350000
0.093750 0.137500 0.378125
0.100000 0.143750 0.406250
0.106250 0.150000 0.434375
0.112500 0.156250 0.462500
0.118750 0.162500 0.490625
0.125000 0.168750 0.518750
0.131250 0.175000 0.546875
0.137500 0.181250 0.575000
0.143750 0.187500 0.603125
0.150000 0.193750 0.631250
0.156250 0.200000 0.659375
0.162500 0.206250 0.687500
0.168750 0.212500 0.715625
0.175000 0.218750 0.743750
0.181250 0.225000 0.771875
0.187500 0.231250 0.800000
0.193750 0.237500 0.828125
0.200000 0.243750 0.856250
0.206250 0.250000 0.884375
0.212500 0.256250 0.912500
0.018750 0.084375 0.018750
0.025000 0.090625 0.046875
0.031250 0.096875 0.075000
0.037500 0.103125 0.103125
0.043750 0.109375 0.131250
0.050000 0.115625 0.159375
0.056250 0.121875 0.187500
0.062500 0.128125 0.215625
0.068750 0.134375 0.243750
0.075000 0.140625 0.271875
0.081250 0.146875 0.300000
0.087500 0.153125 0.328125
0.093750 0.159375 0.356250
0.100000 0.165625 0.384375
0.106250 0.171875 0.412500
0.112500 0.178125 0.440625
0.118750 0.184375 0.468750
0.125000 0.190625 0.496875
0.131250 0.196875 0.525000
0.137500 0.203125 0.553125
0.143750 0.209375 0.581250
0.150000 0.215625 0.609375
0.156250 0.221875 0.637500
0.162500 0.228125 0.665625
0.168750 0.234375 0.693750
0.175000 0.240625 0.721875
0.181250 0.246875 0.750000
0.187500 0.253125 0.778125
0.193750 0.259375 0.806250
0.200000 0.265625 0.834375
0.206250 0.271875 0.862500
0.212500 0.278125 0.890625
0.218750 0.284375 0.918750
0.025000 0.112500 0.025000
0.031250 0.118750 0.053125
0.037500 0.125000 0.081250
0.043750 0.131250 0.109375
0.050000 0.137500 0.137500
0.056250 0.143750 0.165625
0.062500 0.150000 0.193750
0.068750 0.156250 0.221875
0.075000 0.162500 0.250000
0.081250 0.168750 0.278125
0.087500 0.175000 0.306250
0.093750 0.181250 0.334375
0.100000 0.187500 0.362500
0.106250 0.193750 0.390625
0.112500 0.200000 0.418750
0.118750 0.206250 0.446875
0.125000 0.212500 0.475000
0.131250 0.218750 0.503125
0.137500 0.225000 0.531250
0.143750 0.231250 0.559375
0.150000 0.237500 0.587500
0.156250 0.243750 0.615625
0.162500 0.250000 0.643750
0.168750 0.256250 0.671875
0.175000 0.262500 0.700000
0.181250 0.268750 0.728125
0.187500 0.275000 0.756250
0.193750 0.281250 0.784375
0.200000 0.287500 0.812500
0.206250 0.293750 0.840625
0.212500 0.300000 0.868750
0.218750 0.306250 0.896875
0.225000 0.312500 0.925000
0.031250 0.140625 0.031250
0.037500 0.146875 0.059375
0.043750 0.153125 0.087500
0.050000 0.159375 0.115625
0.056250 0.165625 0.143750
0.062500 0.171875 0.171875
0.068750 0.178125 0.200000
0.075000 0.184375 0.228125
0.081250 0.190625 0.256250
0.087500 0.196875 0.284375
0.093750 0.203125 0.312500
0.100000 0.209375 0.340625
0.106250 0.215625 0.368750
0.112500 0.221875 0.396875
0.118750 0.228125 0.425000
0.125000 0.234375 0.453125
0.131250 0.240625 0.481250
0.137500 0.246875 0.509375
0.143750 0.253125 0.537500
0.150000 0.259375 0.565625
0.156250 0.265625 0.593750
0.162500 0.271875 0.621875
0.168750 0.278125 0.650000
0.175000 0.284375 0.678125
0.181250 0.290625 0.706250
0.187500 0.296875 0.734375
0.193750 0.303125 0.762500
0.200000 0.309375 0.790625
0.206250 0.315625 0.818750
0.212500 0.321875 0.846875
0.218750 0.328125 0.875000
0.225000 0.334375 0.903125
0.231250 0.340625 0.931250
0.037500 0.168750 0.037500
0.043750 0.175000 0.065625
0.050000 0.181250 0.093750
0.056250 0.187500 0.121875
0.062500 0.193750 0.150000
0.068750 0.200000 0.178125
0.075000 0.206250 0.206250
0.081250 0.212500 0.234375
0.087500 0.218750 0.262500
0.093750 0.225000 0.290625
0.100000 0.231250 0.318750
0.106250 0.237500 0.346875
0.112500 0.243750 0.375000
0.118750 0.250000 0.403125
0.125000 0.256250 0.431250
0.131250 0.262500 0.459375
0.137500 0.268750 0.487500
0.143750 0.275000 0.515625
0.150000 0.281250 0.543750
0.156250 0.287500 0.571875
0.162500 0.293750 0.600000
0.168750 0.300000 0.628125
0.175000 0.306250 0.656250
0.181250 0.312500 0.684375
0.187500 0.318750 0.712500
0.193750 0.325000 0.740625
0.200000 0.331250 0.768750
0.206250 0.337500 0.796875
0.212500 0.343750 0.825000
0.218750 0.350000 0.853125
0.225000 0.356250 0.881250
0.231250 0.362500 0.909375
0.237500 0.368750 0.937500
0.043750 0.196875 0.043750
0.050000 0.203125 0.071875
0.056250 0.209375 0.100000
0.062500 0.215625 0.128125
0.068750 0.221875 0.156250
0.075000 0.228125 0.184375
0.081250 0.234375 0.212500
0.087500 0.240625 0.240625
0.093750 0.246875 0.268750
0.100000 0.253125 0.296875
0.106250 0.259375 0.325000
0.112500 0.265625 0.353125
0.118750 0.271875 0.381250
0.125000 0.278125 0.409375
0.131250 0.284375 0.437500
0.137500 0.290625 0.465625
0.143750 0.296875 0.493750
0.150000 0.303125 0.521875
0.156250 0.309375 0.550000
0.162500 0.315625 0.578125
0.168750 0.321875 0.606250
0.175000 0.328125 0.634375
0.181250 0.334375 0.662500
0.187500 0.340625 0.690625
0.193750 0.346875 0.718750
0.200000 0.353125 0.746875
0.206250 0.359375 0.775000
0.212500 0.365625 0.803125
0.218750 0.371875 0.831250
0.225000 0.378125 0.859375
0.231250 0.384375 0.887500
0.237500 0.390625 0.915625
0.243750 0.396875 0.943750
0.050000 0.225000 0.050000
0.056250 0.231250 0.078125
0.062500 0.237500 0.106250
0.068750 0.243750 0.134375
0.075000 0.250000 0.162500
0.081250 0.256250 0.190625
0.087500 0.262500 0.218750
0.093750 0.268750 0.246875
0.100000 0.275000 0.275000
0.106250 0.281250 0.303125
0.112500 0.287500 0.331250
0.118750 0.293750 0.359375
0.125000 0.300000 0.387500
0.131250 0.306250 0.415625
0.137500 0.312500 0.443750
0.143750 0.318750 0.471875
0.150000 0.325000 0.500000
0.156250 0.331250 0.528125
0.162500 0.337500 0.556250
0.168750 0.343750 0.584375
0.175000 0.350000 0.612500
0.181250 0.356250 0.640625
0.187500 0.362500 0.668750
0.193750 0.368750 0.696875
0.200000 0.375000 0.725000
0.206250 0.381250 0.753125
0.212500 0.387500 0.781250
0.218750 0.393750 0.809375
0.225000 0.400000 0.837500
0.231250 0.406250 0.865625
0.237500 0.412500 0.893750
0.243750 0.418750 0.921875
0.250000 0.425000 0.950000
0.056250 0.253125 0.056250
0.062500 0.259375 0.084375
0.068750 0.265625 0.112500
0.075000 0.271875 0.140625
0.081250 0.278125 0.168750
0.087500 0.284375 0.196875
0.093750 0.290625 0.225000
0.100000 0.296875 0.253125
0.106250 0.303125 0.281250
0.112500 0.309375 0.309375
0.118750 0.315625 0.337500
0.125000 0.321875 0.365625
0.131250 0.328125 0.393750
0.137500 0.334375 0.421875
0.143750 0.340625 0.450000
0.150000 0.346875 0.478125
0.156250 0.353125 0.506250
0.162500 0.359375 0.534375
0.168750 0.365625 0.562500
0.175000 0.371875 0.590625
0.181250 0.378125 0.618750
0.187500 0.384375 0.646875
0.193750 0.390625 0.675000
0.200000 0.396875 0.703125
0.206250 0.403125 0.731250
0.212500 0.409375 0.759375
0.218750 0.415625 0.787500
0.225000 0.421875 0.815625
0.231250 0.428125 0.843750
0.237500 0.434375 0.871875
0.243750 0.440625 0.900000
0.250000 0.446875 0.928125
0.256250 0.453125 0.956250
0.062500 0.281250 0.062500
0.068750 0.287500 0.090625
0.075000 0.293750 0.118750
0.081250 0.300000 0.146875
0.087500 0.306250 0.175000
0.093750 0.312500 0.203125
0.100000 0.318750 0.231250
0.106250 0.325000 0.259375
0.112500 0.331250 0.287500
0.118750 0.337500 0.315625
0.125000 0.343750 0.343750
0.131250 0.350000 0.371875
0.137500 0.356250 0.400000
0.143750 0.362500 0.428125
0.150000 0.368750 0.456250
0.156250 0.375000 0.484375
0.162500 0.381250 0.512500
0.168750 0.387500 0.540625
0.175000 0.393750 0.568750
0.181250 0.400000 0.596875
0.187500 0.406250 0.625000
0.193750 0.412500 0.653125
0.200000 0.418750 0.681250
0.206250 0.425000 0.709375
0.212500 0.431250 0.737500
0.218750 0.437500 0.765625
0.225000 0.443750 0.793750
0.231250 0.450000 0.821875
0.237500 0.456250 0.850000
0.243750 0.462500 0.878125
0.250000 0.468750 0.906250
0.256250 0.475000 0.934375
0.262500 0.481250 0.962500
0.068750 0.309375 0.068750
0.075000 0.315625 0.096875
0.081250 0.321875 0.125000
0.087500 0.328125 0.153125
0.093750 0.334375 0.181250
0.100000 0.340625 0.209375
0.106250 0.346875 0.237500
0.112500 0.353125 0.265625
0.118750 0.359375 0.293750
0.125000 0.365625 0.321875
0.131250 0.371875 0.350000
0.137500 0.378125 0.378125
0.143750 0.384375 0.406250
0.150000 0.390625 0.434375
0.156250 0.396875 0.462500
0.162500 0.403125 0.490625
0.168750 0.409375 0.518750
0.175000 0.415625 0.546875
0.181250 0.421875 0.575000
0.187500 0.428125 0.603125
0.193750 0.434375 0.631250
0.200000 0.440625 0.659375
0.206250 0.446875 0.687500
0.212500 0.453125 0.715625
0.218750 0.459375 0.743750
0.225000 0.465625 0.771875
0.231250 0.471875 0.800000
0.237500 0.478125 0.828125
0.243750 0.484375 0.856250
0.250000 0.490625 0.884375
0.256250 0.496875 0.912500
0.262500 0.503125 0.940625
0.268750 0.509375 0.968750
0.075000 0.337500 0.075000
0.081250 0.343750 0.103125
0.087500 0.350000 0.131250
0.093750 0.356250 0.159375
0.100000 0.362500 0.187500
0.106250 0.368750 0.215625
0.112500 0.375000 0.243750
0.118750 0.381250 0.271875
0.125000 0.387500 0.300000
0.131250 0.393750 0.328125
0.137500 0.400000 0.356250
0.143750 0.406250 0.384375
0.150000 0.412500 0.412500
0.156250 0.418750 0.440625
0.162500 0.425000 0.468750
0.168750 0.431250 0.496875
0.175000 0.437500 0.525000
0.181250 0.443750 0.553125
0.187500 0.450000 0.581250
0.193750 0.456250 0.609375
0.200000 0.462500 0.637500
0.206250 0.468750 0.665625
0.212500 0.475000 0.693750
0.218750 0.481250 0.721875
0.225000 0.487500 0.750000
0.231250 0.493750 0.778125
0.237500 0.500000 0.806250
0.243750 0.506250 0.834375
0.250000 0.512500 0.862500
0.256250 0.518750 0.890625
0.262500 0.525000 0.918750
0.268750 0.531250 0.946875
0.275000 0.537500 0.975000
0.081250 0.365625 0.081250
0.087500 0.371875 0.109375
0.093750 0.378125 0.137500
0.100000 0.384375 0.165625
0.106250 0.390625 0.193750
0.112500 0.396875 0.221875
0.118750 0.403125 0.250000
0.125000 0.409375 0.278125
0.131250 0.415625 0.306250
0.137500 0.421875 0.334375
0.143750 0.428125 0.362500
0.150000 0.434375 0.390625
0.156250 0.440625 0.418750
0.162500 0.446875 0.446875
0.168750 0.453125 0.475000
0.175000 0.459375 0.503125
0.181250 0.465625 0.531250
0.187500 0.471875 0.559375
0.193750 0.478125 0.587500
0.200000 0.484375 0.615625
0.206250 0.490625 0.643750
0.212500 0.496875 0.671875
0.218750 0.503125 0.700000
0.225000 0.509375 0.728125
0.231250 0.515625 0.756250
0.237500 0.521875 0.784375
0.243750 0.528125 0.812500
0.250000 0.534375 0.840625
0.256250 0.540625 0.868750
0.262500 0.546875 0.896875
0.268750 0.553125 0.925000
0.275000 0.559375 0.953125
0.281250 0.565625 0.981250
0.087500 0.393750 0.087500
0.093750 0.400000 0.115625
0.100000 0.406250 0.143750
0.106250 0.412500 0.171875
0.112500 0.418750 0.200000
0.118750 0.425000 0.228125
0.125000 0.431250 0.256250
0.131250 0.437500 0.284375
0.137500 0.443750 0.312500
0.143750 0.450000 0.340625
0.150000 0.456250 0.368750
0.156250 0.462500 0.396875
0.162500 0.468750 0.425000
0.168750 0.475000 0.453125
0.175000 0.481250 0.481250
0.181250 0.487500 0.509375
0.187500 0.493750 0.537500
0.193750 0.500000 0.565625
0.200000 0.506250 0.593750
0.206250 0.512500 0.621875
0.212500 0.518750 0.650000
0.218750 0.525000 0.678125
0.225000 0.531250 0.706250
0.231250 0.537500 0.734375
0.237500 0.543750 0.762500
0.243750 0.550000 0.790625
0.250000 0.556250 0.818750
0.256250 0.562500 0.846875
0.262500 0.568750 0.875000
0.268750 0.575000 0.903125
0.275000 0.581250 0.931250
0.281250 0.587500 0.959375
0.287500 0.593750 0.987500
0.093750 0.421875 0.093750
0.100000 0.428125 0.121875
0.106250 0.434375 0.150000
0.112500 0.440625 0.178125
0.118750 0.446875 0.206250
0.125000 0.453125 0.234375
0.131250 0.459375 0.262500
0.137500 0.465625 0.290625
0.143750 0.471875 0.318750
0.150000 0.478125 0.346875
0.156250 0.484375 0.375000
0.162500 0.490625 0.403125
0.168750 0.496875 0.431250
0.175000 0.503125 0.459375
0.181250 0.509375 0.487500
0.187500 0.515625 0.515625
0.193750 0.521875 0.543750
0.200000 0.528125 0.571875
0.206250 0.534375 0.600000
0.212500 0.540625 0.628125
0.218750 0.546875 0.656250
0.225000 0.553125 0.684375
0.231250 0.559375 0.712500
0.237500 0.565625 0.740625
0.243750 0.571875 0.768750
0.250000 0.578125 0.796875
0.256250 0.584375 0.825000
0.262500 0.590625 0.853125
0.268750 0.596875 0.881250
0.275000 0.603125 0.909375
0.281250 0.609375 0.937500
0.287500 0.615625 0.965625
0.293750 0.621875 0.993750
0.100000 0.450000 0.100000
0.106250 0.456250 0.128125
0.112500 0.462500 0.156250
0.118750 0.468750 0.184375
0.125000 0.475000 0.212500
0.131250 0.481250 0.240625
0.137500 0.487500 0.268750
0.143750 0.493750 0.296875
0.150000 0.500000 0.325000
0.156250 0.506250 0.353125
0.162500 0.512500 0.381250
0.168750 0.518750 0.409375
0.175000 0.525000 0.437500
0.181250 0.531250 0.465625
0.187500 0.537500 0.493750
0.193750 0.543750 0.521875
0.200000 0.550000 0.550000
0.206250 0.556250 0.578125
0.212500 0.562500 0.606250
0.218750 0.568750 0.634375
0.225000 0.575000 0.662500
0.231250 0.581250 0.690625
0.237500 0.587500 0.718750
0.243750 0.593750 0.746875
0.250000 0.600000 0.775000
0.256250 0.606250 0.803125
0.262500 0.612500 0.831250
0.268750 0.618750 0.859375
0.275000 0.625000 0.887500
0.281250 0.631250 0.915625
0.287500 0.637500 0.943750
0.293750 0.643750 0.971875
0.300000 0.650000 1.000000
0.106250 0.478125 0.106250
0.112500 0.484375 0.134375
0.118750 0.490625 0.162500
0.125000 0.496875 0.190625
0.131250 0.503125 0.218750
0.137500 0.509375 0.246875
0.143750 0.515625 0.275000
0.150000 0.521875 0.303125
0.156250 0.528125 0.331250
0.162500 0.534375 0.359375
0.168750 0.540625 0.387500
0.175000 0.546875 0.415625
0.181250 0.553125 0.443750
0.187500 0.559375 0.471875
0.193750 0.565625 0.500000
0.200000 0.571875 0.528125
0.206250 0.578125 0.556250
0.212500 0.584375 0.584375
0.218750 0.590625 0.612500
0.225000 0.596875 0.640625
0.231250 0.603125 0.668750
0.237500 0.609375 0.696875
0.243750 0.615625 0.725000
0.250000 0.621875 0.753125
0.256250 0.628125 0.781250
0.262500 0.634375 0.809375
0.268750 0.640625 0.837500
0.275000 0.646875 0.865625
0.281250 0.653125 0.893750
0.287500 0.659375 0.921875
0.293750 0.665625 0.950000
0.300000 0.671875 0.978125
0.306250 0.678125 1.000000
0.112500 0.506250 0.112500
0.118750 0.512500 0.140625
0.125000 0.518750 0.168750
0.131250 0.525000 0.196875
0.137500 0.531250 0.225000
0.143750 0.537500 0.253125
0.150000 0.543750 0.281250
0.156250 0.550000 0.309375
0.162500 0.556250 0.337500
0.168750 0.562500 0.365625
0.175000 0.568750 0.393750
0.181250 0.575000 0.421875
0.187500 0.581250 0.450000
0.193750 0.587500 0.478125
0.200000 0.593750 0.506250
0.206250 0.600000 0.534375
0.212500 0.606250 0.562500
0.218750 0.612500 0.590625
0.225000 0.618750 0.618750
0.231250 0.625000 0.646875
0.237500 0.631250 0.675000
0.243750 0.637500 0.703125
0.250000 0.643750 0.731250
0.256250 0.650000 0.759375
0.262500 0.656250 0.787500
0.268750 0.662500 0.815625
0.275000 0.668750 0.843750
0.281250 0.675000 0.871875
0.287500 0.681250 0.900000
0.293750 0.687500 0.928125
0.300000 0.693750 0.956250
0.306250 0.700000 0.984375
0.312500 0.706250 1.000000
0.118750 0.534375 0.118750
0.125000 0.540625 0.146875
0.131250 0.546875 0.175000
0.137500 0.553125 0.203125
0.143750 0.559375 0.231250
0.150000 0.565625 0.259375
0.156250 0.571875 0.287500
0.162500 0.578125 0.315625
0.168750 0.584375 0.343750
0.175000 0.590625 0.371875
0.181250 0.596875 0.400000
0.187500 0.603125 0.428125
0.193750 0.609375 0.456250
0.200000 0.615625 0.484375
0.206250 0.621875 0.512500
0.212500 0.628125 0.540625
0.218750 0.634375 0.568750
0.225000 0.640625 0.596875
0.231250 0.646875 0.625000
0.237500 0.653125 0.653125
0.243750 0.659375 0.681250
0.250000 0.665625 0.709375
0.256250 0.671875 0.737500
0.262500 0.678125 0.765625
0.268750 0.684375 0.793750
0.275000 0.690625 0.821875
0.281250 0.696875 0.850000
0.287500 0.703125 0.878125
0.293750 0.709375 0.906250
0.300000 0.715625 0.934375
0.306250 0.721875 0.962500
0.312500 0.728125 0.990625
0.318750 0.734375 1.000000
0.125000 0.562500 0.125000
0.131250 0.568750 0.153125
0.137500 0.575000 0.181250
0.143750 0.581250 0.209375
0.150000 0.587500 0.237500
0.156250 0.593750 0.265625
0.162500 0.600000 0.293750
0.168750 0.606250 0.321875
0.175000 0.612500 0.350000
0.181250 0.618750 0.378125
0.187500 0.625000 0.406250
0.193750 0.631250 0.434375
0.200000 0.637500 0.462500
0.206250 0.643750 0.490625
0.212500 0.650000 0.518750
0.218750 0.656250 0.546875
0.225000 0.662500 0.575000
0.231250 0.668750 0.603125
0.237500 0.675000 0.631250
0.243750 0.681250 0.659375
0.250000 0.687500 0.687500
0.256250 0.693750 0.715625
0.262500 0.700000 0.743750
0.268750 0.706250 0.771875
0.275000 0.712500 0.800000
0.281250 0.718750 0.828125
0.287500 0.725000 0.856250
0.293750 0.731250 0.884375
0.300000 0.737500 0.912500
0.306250 0.743750 0.940625
0.312500 0.750000 0.968750
0.318750 0.756250 0.996875
0.325000 0.762500 1.000000
0.131250 0.590625 0.131250
0.137500 0.596875 0.159375
0.143750 0.603125 0.187500
0.150000 0.609375 0.215625
0.156250 0.615625 0.243750
0.162500 0.621875 0.271875
0.168750 0.628125 0.300000
0.175000 0.634375 0.328125
0.181250 0.640625 0.356250
0.187500 0.646875 0.384375
0.193750 0.653125 0.412500
0.200000 0.659375 0.440625
0.206250 0.665625 0.468750
0.212500 0.671875 0.496875
0.218750 0.678125 0.525000
0.225000 0.684375 0.553125
0.231250 0.690625 0.581250
0.237500 0.696875 0.609375
0.243750 0.703125 0.637500
0.250000 0.709375 0.665625
0.256250 0.715625 0.693750
0.262500 0.721875 0.721875
0.268750 0.728125 0.750000
0.275000 0.734375 0.778125
0.281250 0.740625 0.806250
0.287500 0.746875 0.834375
0.293750 0.753125 0.862500
0.300000 0.759375 0.890625
0.306250 0.765625 0.918750
0.312500 0.771875 0.946875
0.318750 0.778125 0.975000
0.325000 0.784375 1.000000
0.331250 0.790625 1.000000
0.137500 0.618750 0.137500
0.143750 0.625000 0.165625
0.150000 0.631250 0.193750
0.156250 0.637500 0.221875
0.162500 0.643750 0.250000
0.168750 0.650000 0.278125
0.175000 0.656250 0.306250
0.181250 0.662500 0.334375
0.187500 0.668750 0.362500
0.193750 0.675000 0.390625
0.200000 0.681250 0.418750
0.206250 0.687500 0.446875
0.212500 0.693750 0.475000
0.218750 0.700000 0.503125
0.225000 0.706250 0.531250
0.231250 0.712500 0.559375
0.237500 0.718750 0.587500
0.243750 0.725000 0.615625
0.250000 0.731250 0.643750
0.256250 0.737500 0.671875
0.262500 0.743750 0.700000
0.268750 0.750000 0.728125
0.275000 0.756250 0.756250
0.281250 0.762500 0.784375
0.287500 0.768750 0.812500
0.293750 0.775000 0.840625
0.300000 0.781250 0.868750
0.306250 0.787500 0.896875
0.312500 0.793750 0.925000
0.318750 0.800000 0.953125
0.325000 0.806250 0.981250
0.331250 0.812500 1.000000
0.337500 0.818750 1.000000
0.143750 0.646875 0.143750
0.150000 0.653125 0.171875
0.156250 0.659375 0.200000
0.162500 0.665625 0.228125
0.168750 0.671875 0.256250
0.175000 0.678125 0.284375
0.181250 0.684375 0.312500
0.187500 0.690625 0.340625
0.193750 0.696875 0.368750
0.200000 0.703125 0.396875
0.206250 0.709375 0.425000
0.212500 0.715625 0.453125
0.218750 0.721875 0.481250
0.225000 0.728125 0.509375
0.231250 0.734375 0.537500
0.237500 0.740625 0.565625
0.243750 0.746875 0.593750
0.250000 0.753125 0.621875
0.256250 0.759375 0.650000
0.262500 0.765625 0.678125
0.268750 0.771875 0.706250
0.275000 0.778125 0.734375
0.281250 0.784375 0.762500
0.287500 0.790625 0.790625
0.293750 0.796875 0.818750
0.300000 0.803125 0.846875
0.306250 0.809375 0.875000
0.312500 0.815625 0.903125
0.318750 0.821875 0.931250
0.325000 0.828125 0.959375
0.331250 0.834375 0.987500
0.337500 0.840625 1.000000
0.343750 0.846875 1.000000
0.150000 0.675000 0.150000
0.156250 0.681250 0.178125
0.162500 0.687500 0.206250
0.168750 0.693750 0.234375
0.175000 0.700000 0.262500
0.181250 0.706250 0.290625
0.187500 0.712500 0.318750
0.193750 0.718750 0.346875
0.200000 0.725000 0.375000
0.206250 0.731250 0.403125
0.212500 0.737500 0.431250
0.218750 0.743750 0.459375
0.225000 0.750000 0.487500
0.231250 0.756250 0.515625
0.237500 0.762500 0.543750
0.243750 0.768750 0.571875
0.250000 0.775000 0.600000
0.256250 0.781250 0.628125
0.262500 0.787500 0.656250
0.268750 0.793750 0.684375
0.275000 0.800000 0.712500
0.281250 0.806250 0.740625
0.287500 0.812500 0.768750
0.293750 0.818750 0.796875
0.300000 0.825000 0.825000
0.306250 0.831250 0.853125
0.312500 0.837500 0.881250
0.318750 0.843750 0.909375
0.325000 0.850000 0.937500
0.331250 0.856250 0.965625
0.337500 0.862500 0.993750
0.343750 0.868750 1.000000
0.350000 0.875000 1.000000
0.156250 0.703125 0.156250
0.162500 0.709375 0.184375
0.168750 0.715625 0.212500
0.175000 0.721875 0.240625
0.181250 0.728125 0.268750
0.187500 0.734375 0.296875
0.193750 0.740625 0.325000
0.200000 0.746875 0.353125
0.206250 0.753125 0.381250
0.212500 0.759375 0.409375
0.218750 0.765625 0.437500
0.225000 0.771875 0.465625
0.231250 0.778125 0.493750
0.237500 0.784375 0.521875
0.243750 0.790625 0.550000
0.250000 0.796875 0.578125
0.256250 0.803125 0.606250
0.262500 0.809375 0.634375
0.268750 0.815625 0.662500
0.275000 0.821875 0.690625
0.281250 0.828125 0.718750
0.287500 0.834375 0.746875
0.293750 0.840625 0.775000
0.300000 0.846875 0.803125
0.306250 0.853125 0.831250
0.312500 0.859375 0.859375
0.318750 0.865625 0.887500
0.325000 0.871875 0.915625
0.331250 0.878125 0.943750
0.337500 0.884375 0.971875
0.343750 0.890625 1.000000
0.350000 0.896875 1.000000
0.356250 0.903125 1.000000
0.162500 0.731250 0.162500
0.168750 0.737500 0.190625
0.175000 0.743750 0.218750
0.181250 0.750000 0.246875
0.187500 0.756250 0.275000
0.193750 0.762500 0.303125
0.200000 0.768750 0.331250
0.206250 0.775000 0.359375
0.212500 0.781250 0.387500
0.218750 0.787500 0.415625
0.225000 0.793750 0.443750
0.231250 0.800000 0.471875
0.237500 0.806250 0.500000
0.243750 0.812500 0.528125
0.250000 0.818750 0.556250
0.256250 0.825000 0.584375
0.262500 0.831250 0.612500
0.268750 0.837500 0.640625
0.275000 0.843750 0.668750
0.281250 0.850000 0.696875
0.287500 0.856250 0.725000
0.293750 0.862500 0.753125
0.300000 0.868750 0.781250
0.306250 0.875000 0.809375
0.312500 0.881250 0.837500
0.318750 0.887500 0.865625
0.325000 0.893750 0.893750
