src/phototools/luts/fuji_velvia.cube
TITLE "Fuji Velvia"
LUT_3D_SIZE 33
DOMAIN_MIN 0.0 0.0 0.0
DOMAIN_MAX 1.0 1.0 1.0
0.000000 0.000000 0.000000
0.000000 0.000000 0.000000
0.000000 0.000000 0.000000
0.000000 0.000000 0.020625
0.000000 0.000000 0.057500
0.000000 0.000000 0.094375
0.000000 0.000000 0.131250
0.000000 0.000000 0.168125
0.000000 0.000000 0.205000
0.000000 0.000000 0.241875
0.000000 0.000000 0.278750
0.000000 0.000000 0.315625
0.000000 0.000000 0.352500
0.000000 0.000000 0.389375
0.000000 0.000000 0.426250
0.000000 0.000000 0.463125
0.000000 0.000000 0.500000
0.000000 0.000000 0.536875
0.000000 0.000000 0.573750
0.000000 0.000000 0.610625
0.000000 0.000000 0.647500
0.000000 0.000000 0.684375
0.000000 0.000000 0.721250
0.000000 0.000000 0.758125
0.000000 0.000000 0.795000
0.000000 0.000000 0.831875
0.000000 0.000000 0.868750
0.000000 0.000000 0.905625
0.000000 0.000000 0.942500
0.000000 0.000000 0.979375
0.000000 0.000000 1.000000
0.000000 0.000000 1.000000
0.000000 0.000000 1.000000
0.000000 0.000000 0.000000
0.000000 0.000000 0.000000
0.000000 0.000000 0.000000
0.000000 0.000000 0.020625
0.000000 0.000000 0.057500
0.000000 0.000000 0.094375
0.000000 0.000000 0.131250
0.000000 0.000000 0.168125
0.000000 0.000000 0.205000
0.000000 0.000000 0.241875
0.000000 0.000000 0.278750
0.000000 0.000000 0.315625
0.000000 0.000000 0.352500
0.000000 0.000000 0.389375
0.000000 0.000000 0.426250
0.000000 0.000000 0.463125
0.000000 0.000000 0.500000
0.000000 0.000000 0.536875
0.000000 0.000000 0.573750
0.000000 0.000000 0.610625
0.000000 0.000000 0.647500
0.000000 0.000000 0.684375
0.000000 0.000000 0.721250
0.000000 0.000000 0.758125
0.000000 0.000000 0.795000
0.000000 0.000000 0.831875
0.000000 0.000000 0.868750
0.000000 0.000000 0.905625
0.000000 0.000000 0.942500
0.000000 0.000000 0.979375
0.000000 0.000000 1.000000
0.000000 0.000000 1.000000
0.000000 0.000000 1.000000
0.000000 0.000000 0.000000
0.000000 0.000000 0.000000
0.000000 0.000000 0.000000
0.000000 0.000000 0.020625
0.000000 0.000000 0.057500
0.000000 0.000000 0.094375
0.000000 0.000000 0.131250
0.000000 0.000000 0.168125
0.000000 0.000000 0.205000
0.000000 0.000000 0.241875
0.000000 0.000000 0.278750
0.000000 0.000000 0.315625
0.000000 0.000000 0.352500
0.000000 0.000000 0.389375
0.000000 0.000000 0.426250
0.000000 0.000000 0.463125
0.000000 0.000000 0.500000
0.000000 0.000000 0.536875
0.000000 0.000000 0.573750
0.000000 0.000000 0.610625
0.000000 0.000000 0.647500
0.000000 0.000000 0.684375
0.000000 0.000000 0.721250
0.000000 0.000000 0.758125
0.000000 0.000000 0.795000
0.000000 0.000000 0.831875
0.000000 0.000000 0.868750
0.000000 0.000000 0.905625
0.000000 0.000000 0.942500
0.000000 0.000000 0.979375
0.000000 0.000000 1.000000
0.000000 0.000000 1.000000
0.000000 0.000000 1.000000
0.000000 0.020625 0.000000
0.000000 0.020625 0.000000
0.000000 0.020625 0.000000
0.000000 0.020625 0.020625
0.000000 0.020625 0.057500
0.000000 0.020625 0.094375
0.000000 0.020625 0.131250
0.000000 0.020625 0.168125
0.000000 0.020625 0.205000
0.000000 0.020625 0.241875
0.000000 0.020625 0.278750
0.000000 0.020625 0.315625
0.000000 0.020625 0.352500
0.000000 0.020625 0.389375
0.000000 0.020625 0.426250
0.000000 0.020625 0.463125
0.000000 0.020625 0.500000
0.000000 0.020625 0.536875
0.000000 0.020625 0.573750
0.000000 0.020625 0.610625
0.000000 0.020625 0.647500
0.000000 0.020625 0.684375
0.000000 0.020625 0.721250
0.000000 0.020625 0.758125
0.000000 0.020625 0.795000
0.000000 0.020625 0.831875
0.000000 0.020625 0.868750
0.000000 0.020625 0.905625
0.000000 0.020625 0.942500
0.000000 0.020625 0.979375
0.000000 0.020625 1.000000
0.000000 0.020625 1.000000
0.000000 0.020625 1.000000
0.000000 0.057500 0.000000
0.000000 0.057500 0.000000
0.000000 0.057500 0.000000
0.000000 0.057500 0.020625
0.000000 0.057500 0.057500
0.000000 0.057500 0.094375
0.000000 0.057500 0.131250
0.000000 0.057500 0.168125
0.000000 0.057500 0.205000
0.000000 0.057500 0.241875
0.000000 0.057500 0.278750
0.000000 0.057500 0.315625
0.000000 0.057500 0.352500
0.000000 0.057500 0.389375
0.000000 0.057500 0.426250
0.000000 0.057500 0.463125
0.000000 0.057500 0.500000
0.000000 0.057500 0.536875
0.000000 0.057500 0.573750
0.000000 0.057500 0.610625
0.000000 0.057500 0.647500
0.000000 0.057500 0.684375
0.000000 0.057500 0.721250
0.000000 0.057500 0.758125
0.000000 0.057500 0.795000
0.000000 0.057500 0.831875
0.000000 0.057500 0.868750
0.000000 0.057500 0.905625
0.000000 0.057500 0.942500
0.000000 0.057500 0.979375
0.000000 0.057500 1.000000
0.000000 0.057500 1.000000
0.000000 0.057500 1.000000
0.000000 0.094375 0.000000
0.000000 0.094375 0.000000
0.000000 0.094375 0.000000
0.000000 0.094375 0.020625
0.000000 0.094375 0.057500
0.000000 0.094375 0.094375
0.000000 0.094375 0.131250
0.000000 0.094375 0.168125
0.000000 0.094375 0.205000
0.000000 0.094375 0.241875
0.000000 0.094375 0.278750
0.000000 0.094375 0.315625
0.000000 0.094375 0.352500
0.000000 0.094375 0.389375
0.000000 0.094375 0.426250
0.000000 0.094375 0.463125
0.000000 0.094375 0.500000
0.000000 0.094375 0.536875
0.000000 0.094375 0.573750
0.000000 0.094375 0.610625
0.000000 0.094375 0.647500
0.000000 0.094375 0.684375
0.000000 0.094375 0.721250
0.000000 0.094375 0.758125
0.000000 0.094375 0.795000
0.000000 0.094375 0.831875
0.000000 0.094375 0.868750
0.000000 0.094375 0.905625
0.000000 0.094375 0.942500
0.000000 0.094375 0.979375
0.000000 0.094375 1.000000
0.000000 0.094375 1.000000
0.000000 0.094375 1.000000
0.000000 0.131250 0.000000
0.000000 0.131250 0.000000
0.000000 0.131250 0.000000
0.000000 0.131250 0.020625
0.000000 0.131250 0.057500
0.000000 0.131250 0.094375
0.000000 0.131250 0.131250
0.000000 0.131250 0.168125
0.000000 0.131250 0.205000
0.000000 0.131250 0.241875
0.000000 0.131250 0.278750
0.000000 0.131250 0.315625
0.000000 0.131250 0.352500
0.000000 0.131250 0.389375
0.000000 0.131250 0.426250
0.000000 0.131250 0.463125
0.000000 0.131250 0.500000
0.000000 0.131250 0.536875
0.000000 0.131250 0.573750
0.000000 0.131250 0.610625
0.000000 0.131250 0.647500
0.000000 0.131250 0.684375
0.000000 0.131250 0.721250
0.000000 0.131250 0.758125
0.000000 0.131250 0.795000
0.000000 0.131250 0.831875
0.000000 0.131250 0.868750
0.000000 0.131250 0.905625
0.000000 0.131250 0.942500
0.000000 0.131250 0.979375
0.000000 0.131250 1.000000
0.000000 0.131250 1.000000
0.000000 0.131250 1.000000
0.000000 0.168125 0.000000
0.000000 0.168125 0.000000
0.000000 0.168125 0.000000
0.000000 0.168125 0.020625
0.000000 0.168125 0.057500
0.000000 0.168125 0.094375
0.000000 0.168125 0.131250
0.000000 0.168125 0.168125
0.000000 0.168125 0.205000
0.000000 0.168125 0.241875
0.000000 0.168125 0.278750
0.000000 0.168125 0.315625
0.000000 0.168125 0.352500
0.000000 0.168125 0.389375
0.000000 0.168125 0.426250
0.000000 0.168125 0.463125
0.000000 0.168125 0.500000
0.000000 0.168125 0.536875
0.000000 0.168125 0.573750
0.000000 0.168125 0.610625
0.000000 0.168125 0.647500
0.000000 0.168125 0.684375
0.000000 0.168125 0.721250
0.000000 0.168125 0.758125
0.000000 0.168125 0.795000
0.000000 0.168125 0.831875
0.000000 0.168125 0.868750
0.000000 0.168125 0.905625
0.000000 0.168125 0.942500
0.000000 0.168125 0.979375
0.000000 0.168125 1.000000
0.000000 0.168125 1.000000
0.000000 0.168125 1.000000
0.000000 0.205000 0.000000
0.000000 0.205000 0.000000
0.000000 0.205000 0.000000
0.000000 0.205000 0.020625
0.000000 0.205000 0.057500
0.000000 0.205000 0.094375
0.000000 0.205000 0.131250
0.000000 0.205000 0.168125
0.000000 0.205000 0.205000
0.000000 0.205000 0.241875
0.000000 0.205000 0.278750
0.000000 0.205000 0.315625
0.000000 0.205000 0.352500
0.000000 0.205000 0.389375
0.000000 0.205000 0.426250
0.000000 0.205000 0.463125
0.000000 0.205000 0.500000
0.000000 0.205000 0.536875
0.000000 0.205000 0.573750
0.000000 0.205000 0.610625
0.000000 0.205000 0.647500
0.000000 0.205000 0.684375
0.000000 0.205000 0.721250
0.000000 0.205000 0.758125
0.000000 0.205000 0.795000
0.000000 0.205000 0.831875
0.000000 0.205000 0.868750
0.000000 0.205000 0.905625
0.000000 0.205000 0.942500
0.000000 0.205000 0.979375
0.000000 0.205000 1.000000
0.000000 0.205000 1.000000
0.000000 0.205000 1.000000
0.000000 0.241875 0.000000
0.000000 0.241875 0.000000
0.000000 0.241875 0.000000
0.000000 0.241875 0.020625
0.000000 0.241875 0.057500
0.000000 0.241875 0.094375
0.000000 0.241875 0.131250
0.000000 0.241875 0.168125
0.000000 0.241875 0.205000
0.000000 0.241875 0.241875
0.000000 0.241875 0.278750
0.000000 0.241875 0.315625
0.000000 0.241875 0.352500
0.000000 0.241875 0.389375
0.000000 0.241875 0.426250
0.000000 0.241875 0.463125
0.000000 0.241875 0.500000
0.000000 0.241875 0.536875
0.000000 0.241875 0.573750
0.000000 0.241875 0.610625
0.000000 0.241875 0.647500
0.000000 0.241875 0.684375
0.000000 0.241875 0.721250
0.000000 0.241875 0.758125
0.000000 0.241875 0.795000
0.000000 0.241875 0.831875
0.000000 0.241875 0.868750
0.000000 0.241875 0.905625
0.000000 0.241875 0.942500
0.000000 0.241875 0.979375
0.000000 0.241875 1.000000
0.000000 0.241875 1.000000
0.000000 0.241875 1.000000
0.000000 0.278750 0.000000
0.000000 0.278750 0.000000
0.000000 0.278750 0.000000
0.000000 0.278750 0.020625
0.000000 0.278750 0.057500
0.000000 0.278750 0.094375
0.000000 0.278750 0.131250
0.000000 0.278750 0.168125
0.000000 0.278750 0.205000
0.000000 0.278750 0.241875
0.000000 0.278750 0.278750
0.000000 0.278750 0.315625
0.000000 0.278750 0.352500
0.000000 0.278750 0.389375
0.000000 0.278750 0.426250
0.000000 0.278750 0.463125
0.000000 0.278750 0.500000
0.000000 0.278750 0.536875
0.000000 0.278750 0.573750
0.000000 0.278750 0.610625
0.000000 0.278750 0.647500
0.000000 0.278750 0.684375
0.000000 0.278750 0.721250
0.000000 0.278750 0.758125
0.000000 0.278750 0.795000
0.000000 0.278750 0.831875
0.000000 0.278750 0.868750
0.000000 0.278750 0.905625
0.000000 0.278750 0.942500
0.000000 0.278750 0.979375
0.000000 0.278750 1.000000
0.000000 0.278750 1.000000
0.000000 0.278750 1.000000
0.000000 0.315625 0.000000
0.000000 0.315625 0.000000
0.000000 0.315625 0.000000
0.000000 0.315625 0.020625
0.000000 0.315625 0.057500
0.000000 0.315625 0.094375
0.000000 0.315625 0.131250
0.000000 0.315625 0.168125
0.000000 0.315625 0.205000
0.000000 0.315625 0.241875
0.000000 0.315625 0.278750
0.000000 0.315625 0.315625
0.000000 0.315625 0.352500
0.000000 0.315625 0.389375
0.000000 0.315625 0.426250
0.000000 0.315625 0.463125
0.000000 0.315625 0.500000
0.000000 0.315625 0.536875
0.000000 0.315625 0.573750
0.000000 0.315625 0.610625
0.000000 0.315625 0.647500
0.000000 0.315625 0.684375
0.000000 0.315625 0.721250
0.000000 0.315625 0.758125
0.000000 0.315625 0.795000
0.000000 0.315625 0.831875
0.000000 0.315625 0.868750
0.000000 0.315625 0.905625
0.000000 0.315625 0.942500
0.000000 0.315625 0.979375
0.000000 0.315625 1.000000
0.000000 0.315625 1.000000
0.000000 0.315625 1.000000
0.000000 0.352500 0.000000
0.000000 0.352500 0.000000
0.000000 0.352500 0.000000
0.000000 0.352500 0.020625
0.000000 0.352500 0.057500
0.000000 0.352500 0.094375
0.000000 0.352500 0.131250
0.000000 0.352500 0.168125
0.000000 0.352500 0.205000
0.000000 0.352500 0.241875
0.000000 0.352500 0.278750
0.000000 0.352500 0.315625
0.000000 0.352500 0.352500
0.000000 0.352500 0.389375
0.000000 0.352500 0.426250
0.000000 0.352500 0.463125
0.000000 0.352500 0.500000
0.000000 0.352500 0.536875
0.000000 0.352500 0.573750
0.000000 0.352500 0.610625
0.000000 0.352500 0.647500
0.000000 0.352500 0.684375
0.000000 0.352500 0.721250
0.000000 0.352500 0.758125
0.000000 0.352500 0.795000
0.000000 0.352500 0.831875
0.000000 0.352500 0.868750
0.000000 0.352500 0.905625
0.000000 0.352500 0.942500
0.000000 0.352500 0.979375
0.000000 0.352500 1.000000
0.000000 0.352500 1.000000
0.000000 0.352500 1.000000
0.000000 0.389375 0.000000
0.000000 0.389375 0.000000
0.000000 0.389375 0.000000
0.000000 0.389375 0.020625
0.000000 0.389375 0.057500
0.000000 0.389375 0.094375
0.000000 0.389375 0.131250
0.000000 0.389375 0.168125
0.000000 0.389375 0.205000
0.000000 0.389375 0.241875
0.000000 0.389375 0.278750
0.000000 0.389375 0.315625
0.000000 0.389375 0.352500
0.000000 0.389375 0.389375
0.000000 0.389375 0.426250
0.000000 0.389375 0.463125
0.000000 0.389375 0.500000
0.000000 0.389375 0.536875
0.000000 0.389375 0.573750
0.000000 0.389375 0.610625
0.000000 0.389375 0.647500
0.000000 0.389375 0.684375
0.000000 0.389375 0.721250
0.000000 0.389375 0.758125
0.000000 0.389375 0.795000
0.000000 0.389375 0.831875
0.000000 0.389375 0.868750
0.000000 0.389375 0.905625
0.000000 0.389375 0.942500
0.000000 0.389375 0.979375
0.000000 0.389375 1.000000
0.000000 0.389375 1.000000
0.000000 0.389375 1.000000
0.000000 0.426250 0.000000
0.000000 0.426250 0.000000
0.000000 0.426250 0.000000
0.000000 0.426250 0.020625
0.000000 0.426250 0.057500
0.000000 0.426250 0.094375
0.000000 0.426250 0.131250
0.000000 0.426250 0.168125
0.000000 0.426250 0.205000
0.000000 0.426250 0.241875
0.000000 0.426250 0.278750
0.000000 0.426250 0.315625
0.000000 0.426250 0.352500
0.000000 0.426250 0.389375
0.000000 0.426250 0.426250
0.000000 0.426250 0.463125
0.000000 0.426250 0.500000
0.000000 0.426250 0.536875
0.000000 0.426250 0.573750
0.000000 0.426250 0.610625
0.000000 0.426250 0.647500
0.000000 0.426250 0.684375
0.000000 0.426250 0.721250
0.000000 0.426250 0.758125
0.000000 0.426250 0.795000
0.000000 0.426250 0.831875
0.000000 0.426250 0.868750
0.000000 0.426250 0.905625
0.000000 0.426250 0.942500
0.000000 0.426250 0.979375
0.000000 0.426250 1.000000
0.000000 0.426250 1.000000
0.000000 0.426250 1.000000
0.000000 0.463125 0.000000
0.000000 0.463125 0.000000
0.000000 0.463125 0.000000
0.000000 0.463125 0.020625
0.000000 0.463125 0.057500
0.000000 0.463125 0.094375
0.000000 0.463125 0.131250
0.000000 0.463125 0.168125
0.000000 0.463125 0.205000
0.000000 0.463125 0.241875
0.000000 0.463125 0.278750
0.000000 0.463125 0.315625
0.000000 0.463125 0.352500
0.000000 0.463125 0.389375
0.000000 0.463125 0.426250
0.000000 0.463125 0.463125
0.000000 0.463125 0.500000
0.000000 0.463125 0.536875
0.000000 0.463125 0.573750
0.000000 0.463125 0.610625
0.000000 0.463125 0.647500
0.000000 0.463125 0.684375
0.000000 0.463125 0.721250
0.000000 0.463125 0.758125
0.000000 0.463125 0.795000
0.000000 0.463125 0.831875
0.000000 0.463125 0.868750
0.000000 0.463125 0.905625
0.000000 0.463125 0.942500
0.000000 0.463125 0.979375
0.000000 0.463125 1.000000
0.000000 0.463125 1.000000
0.000000 0.463125 1.000000
0.000000 0.500000 0.000000
0.000000 0.500000 0.000000
0.000000 0.500000 0.000000
0.000000 0.500000 0.020625
0.000000 0.500000 0.057500
0.000000 0.500000 0.094375
0.000000 0.500000 0.131250
0.000000 0.500000 0.168125
0.000000 0.500000 0.205000
0.000000 0.500000 0.241875
0.000000 0.500000 0.278750
0.000000 0.500000 0.315625
0.000000 0.500000 0.352500
0.000000 0.500000 0.389375
0.000000 0.500000 0.426250
0.000000 0.500000 0.463125
0.000000 0.500000 0.500000
0.000000 0.500000 0.536875
0.000000 0.500000 0.573750
0.000000 0.500000 0.610625
0.000000 0.500000 0.647500
0.000000 0.500000 0.684375
0.000000 0.500000 0.721250
0.000000 0.500000 0.758125
0.000000 0.500000 0.795000
0.000000 0.500000 0.831875
0.000000 0.500000 0.868750
0.000000 0.500000 0.905625
0.000000 0.500000 0.942500
0.000000 0.500000 0.979375
0.000000 0.500000 1.000000
0.000000 0.500000 1.000000
0.000000 0.500000 1.000000
0.000000 0.536875 0.000000
0.000000 0.536875 0.000000
0.000000 0.536875 0.000000
0.000000 0.536875 0.020625
0.000000 0.536875 0.057500
0.000000 0.536875 0.094375
0.000000 0.536875 0.131250
0.000000 0.536875 0.168125
0.000000 0.536875 0.205000
0.000000 0.536875 0.241875
0.000000 0.536875 0.278750
0.000000 0.536875 0.315625
0.000000 0.536875 0.352500
0.000000 0.536875 0.389375
0.000000 0.536875 0.426250
0.000000 0.536875 0.463125
0.000000 0.536875 0.500000
0.000000 0.536875 0.536875
0.000000 0.536875 0.573750
0.000000 0.536875 0.610625
0.000000 0.536875 0.647500
0.000000 0.536875 0.684375
0.000000 0.536875 0.721250
0.000000 0.536875 0.758125
0.000000 0.536875 0.795000
0.000000 0.536875 0.831875
0.000000 0.536875 0.868750
0.000000 0.536875 0.905625
0.000000 0.536875 0.942500
0.000000 0.536875 0.979375
0.000000 0.536875 1.000000
0.000000 0.536875 1.000000
0.000000 0.536875 1.000000
0.000000 0.573750 0.000000
0.000000 0.573750 0.000000
0.000000 0.573750 0.000000
0.000000 0.573750 0.020625
0.000000 0.573750 0.057500
0.000000 0.573750 0.094375
0.000000 0.573750 0.131250
0.000000 0.573750 0.168125
0.000000 0.573750 0.205000
0.000000 0.573750 0.241875
0.000000 0.573750 0.278750
0.000000 0.573750 0.315625
0.000000 0.573750 0.352500
0.000000 0.573750 0.389375
0.000000 0.573750 0.426250
0.000000 0.573750 0.463125
0.000000 0.573750 0.500000
0.000000 0.573750 0.536875
0.000000 0.573750 0.573750
0.000000 0.573750 0.610625
0.000000 0.573750 0.647500
0.000000 0.573750 0.684375
0.000000 0.573750 0.721250
0.000000 0.573750 0.758125
0.000000 0.573750 0.795000
0.000000 0.573750 0.831875
0.000000 0.573750 0.868750
0.000000 0.573750 0.905625
0.000000 0.573750 0.942500
0.000000 0.573750 0.979375
0.000000 0.573750 1.000000
0.000000 0.573750 1.000000
0.000000 0.573750 1.000000
0.000000 0.610625 0.000000
0.000000 0.610625 0.000000
0.000000 0.610625 0.000000
0.000000 0.610625 0.020625
0.000000 0.610625 0.057500
0.000000 0.610625 0.094375
0.000000 0.610625 0.131250
0.000000 0.610625 0.168125
0.000000 0.610625 0.205000
0.000000 0.610625 0.241875
0.000000 0.610625 0.278750
0.000000 0.610625 0.315625
0.000000 0.610625 0.352500
0.000000 0.610625 0.389375
0.000000 0.610625 0.426250
0.000000 0.610625 0.463125
0.000000 0.610625 0.500000
0.000000 0.610625 0.536875
0.000000 0.610625 0.573750
0.000000 0.610625 0.610625
0.000000 0.610625 0.647500
0.000000 0.610625 0.684375
0.000000 0.610625 0.721250
0.000000 0.610625 0.758125
0.000000 0.610625 0.795000
0.000000 0.610625 0.831875
0.000000 0.610625 0.868750
0.000000 0.610625 0.905625
0.000000 0.610625 0.942500
0.000000 0.610625 0.979375
0.000000 0.610625 1.000000
0.000000 0.610625 1.000000
0.000000 0.610625 1.000000
0.000000 0.647500 0.000000
0.000000 0.647500 0.000000
0.000000 0.647500 0.000000
0.000000 0.647500 0.020625
0.000000 0.647500 0.057500
0.000000 0.647500 0.094375
0.000000 0.647500 0.131250
0.000000 0.647500 0.168125
0.000000 0.647500 0.205000
0.000000 0.647500 0.241875
0.000000 0.647500 0.278750
0.000000 0.647500 0.315625
0.000000 0.647500 0.352500
0.000000 0.647500 0.389375
0.000000 0.647500 0.426250
0.000000 0.647500 0.463125
0.000000 0.647500 0.500000
0.000000 0.647500 0.536875
0.000000 0.647500 0.573750
0.000000 0.647500 0.610625
0.000000 0.647500 0.647500
0.000000 0.647500 0.684375
0.000000 0.647500 0.721250
0.000000 0.647500 0.758125
0.000000 0.647500 0.795000
0.000000 0.647500 0.831875
0.000000 0.647500 0.868750
0.000000 0.647500 0.905625
0.000000 0.647500 0.942500
0.000000 0.647500 0.979375
0.000000 0.647500 1.000000
0.000000 0.647500 1.000000
0.000000 0.647500 1.000000
0.000000 0.684375 0.000000
0.000000 0.684375 0.000000
0.000000 0.684375 0.000000
0.000000 0.684375 0.020625
0.000000 0.684375 0.057500
0.000000 0.684375 0.094375
0.000000 0.684375 0.131250
0.000000 0.684375 0.168125
0.000000 0.684375 0.205000
0.000000 0.684375 0.241875
0.000000 0.684375 0.278750
0.000000 0.684375 0.315625
0.000000 0.684375 0.352500
0.000000 0.684375 0.389375
0.000000 0.684375 0.426250
0.000000 0.684375 0.463125
0.000000 0.684375 0.500000
0.000000 0.684375 0.536875
0.000000 0.684375 0.573750
0.000000 0.684375 0.610625
0.000000 0.684375 0.647500
0.000000 0.684375 0.684375
0.000000 0.684375 0.721250
0.000000 0.684375 0.758125
0.000000 0.684375 0.795000
0.000000 0.684375 0.831875
0.000000 0.684375 0.868750
0.000000 0.684375 0.905625
0.000000 0.684375 0.942500
0.000000 0.684375 0.979375
0.000000 0.684375 1.000000
0.000000 0.684375 1.000000
0.000000 0.684375 1.000000
0.000000 0.721250 0.000000
0.000000 0.721250 0.000000
0.000000 0.721250 0.000000
0.000000 0.721250 0.020625
0.000000 0.721250 0.057500
0.000000 0.721250 0.094375
0.000000 0.721250 0.131250
0.000000 0.721250 0.168125
0.000000 0.721250 0.205000
0.000000 0.721250 0.241875
0.000000 0.721250 0.278750
0.000000 0.721250 0.315625
0.000000 0.721250 0.352500
0.000000 0.721250 0.389375
0.000000 0.721250 0.426250
0.000000 0.721250 0.463125
0.000000 0.721250 0.500000
0.000000 0.721250 0.536875
0.000000 0.721250 0.573750
0.000000 0.721250 0.610625
0.000000 0.721250 0.647500
0.000000 0.721250 0.684375
0.000000 0.721250 0.721250
0.000000 0.721250 0.758125
0.000000 0.721250 0.795000
0.000000 0.721250 0.831875
0.000000 0.721250 0.868750
0.000000 0.721250 0.905625
0.000000 0.721250 0.942500
0.000000 0.721250 0.979375
0.000000 0.721250 1.000000
0.000000 0.721250 1.000000
0.000000 0.721250 1.000000
0.000000 0.758125 0.000000
0.000000 0.758125 0.000000
0.000000 0.758125 0.000000
0.000000 0.758125 0.020625
0.000000 0.758125 0.057500
0.000000 0.758125 0.094375
0.000000 0.758125 0.131250
0.000000 0.758125 0.168125
0.000000 0.758125 0.205000
0.000000 0.758125 0.241875
0.000000 0.758125 0.278750
0.000000 0.758125 0.315625
0.000000 0.758125 0.352500
0.000000 0.758125 0.389375
0.000000 0.758125 0.426250
0.000000 0.758125 0.463125
0.000000 0.758125 0.500000
0.000000 0.758125 0.536875
0.000000 0.758125 0.573750
0.000000 0.758125 0.610625
0.000000 0.758125 0.647500
0.000000 0.758125 0.684375
0.000000 0.758125 0.721250
0.000000 0.758125 0.758125
0.000000 0.758125 0.795000
0.000000 0.758125 0.831875
0.000000 0.758125 0.868750
0.000000 0.758125 0.905625
0.000000 0.758125 0.942500
0.000000 0.758125 0.979375
0.000000 0.758125 1.000000
0.000000 0.758125 1.000000
0.000000 0.758125 1.000000
0.000000 0.795000 0.000000
0.000000 0.795000 0.000000
0.000000 0.795000 0.000000
0.000000 0.795000 0.020625
0.000000 0.795000 0.057500
0.000000 0.795000 0.094375
0.000000 0.795000 0.131250
0.000000 0.795000 0.168125
0.000000 0.795000 0.205000
0.000000 0.795000 0.241875
0.000000 0.795000 0.278750
0.000000 0.795000 0.315625
0.000000 0.795000 0.352500
0.000000 0.795000 0.389375
0.000000 0.795000 0.426250
0.000000 0.795000 0.463125
0.000000 0.795000 0.500000
0.000000 0.795000 0.536875
0.000000 0.795000 0.573750
0.000000 0.795000 0.610625
0.000000 0.795000 0.647500
0.000000 0.795000 0.684375
0.000000 0.795000 0.721250
0.000000 0.795000 0.758125
0.000000 0.795000 0.795000
0.000000 0.795000 0.831875
0.000000 0.795000 0.868750
0.000000 0.795000 0.905625
0.000000 0.795000 0.942500
0.000000 0.795000 0.979375
0.000000 0.795000 1.000000
0.000000 0.795000 1.000000
0.000000 0.795000 1.000000
0.000000 0.831875 0.000000
0.000000 0.831875 0.000000
0.000000 0.831875 0.000000
0.000000 0.831875 0.020625
0.000000 0.831875 0.057500
0.000000 0.831875 0.094375
0.000000 0.831875 0.131250
0.000000 0.831875 0.168125
0.000000 0.831875 0.205000
0.000000 0.831875 0.241875
0.000000 0.831875 0.278750
0.000000 0.831875 0.315625
0.000000 0.831875 0.352500
0.000000 0.831875 0.389375
0.000000 0.831875 0.426250
0.000000 0.831875 0.463125
0.000000 0.831875 0.500000
0.000000 0.831875 0.536875
0.000000 0.831875 0.573750
0.000000 0.831875 0.610625
0.000000 0.831875 0.647500
0.000000 0.831875 0.684375
0.000000 0.831875 0.721250
0.000000 0.831875 0.758125
0.000000 0.831875 0.795000
0.000000 0.831875 0.831875
0.000000 0.831875 0.868750
0.000000 0.831875 0.905625
0.000000 0.831875 0.942500
0.000000 0.831875 0.979375
0.000000 0.831875 1.000000
0.000000 0.831875 1.000000
0.000000 0.831875 1.000000
0.000000 0.868750 0.000000
0.000000 0.868750 0.000000
0.000000 0.868750 0.000000
0.000000 0.868750 0.020625
0.000000 0.868750 0.057500
0.000000 0.868750 0.094375
0.000000 0.868750 0.131250
0.000000 0.868750 0.168125
0.000000 0.868750 0.205000
0.000000 0.868750 0.241875
0.000000 0.868750 0.278750
0.000000 0.868750 0.315625
0.000000 0.868750 0.352500
0.000000 0.868750 0.389375
0.000000 0.868750 0.426250
0.000000 0.868750 0.463125
0.000000 0.868750 0.500000
0.000000 0.868750 0.536875
0.000000 0.868750 0.573750
0.000000 0.868750 0.610625
0.000000 0.868750 0.647500
0.000000 0.868750 0.684375
0.000000 0.868750 0.721250
0.000000 0.868750 0.758125
0.000000 0.868750 0.795000
0.000000 0.868750 0.831875
0.000000 0.868750 0.868750
