src/phototools/luts/fuji_velvia.cube
TITLE "Fuji Velvia"
LUT_3D_SIZE 5
DOMAIN_MIN 0.0 0.0 0.0
DOMAIN_MAX 1.0 1.0 1.0
0.000000 0.000000 0.000000
0.000000 0.000000 0.205000
0.000000 0.000000 0.500000
0.000000 0.000000 0.795000
0.000000 0.000000 1.000000
0.000000 0.205000 0.000000
0.000000 0.205000 0.205000
0.000000 0.205000 0.500000
0.000000 0.205000 0.795000
0.000000 0.205000 1.000000
0.000000 0.500000 0.000000
0.000000 0.500000 0.205000
0.000000 0.500000 0.500000
0.000000 0.500000 0.795000
0.000000 0.500000 1.000000
0.000000 0.795000 0.000000
0.000000 0.795000 0.205000
0.000000 0.795000 0.500000
0.000000 0.795000 0.795000
0.000000 0.795000 1.000000
0.000000 1.000000 0.000000
0.000000 1.000000 0.205000
0.000000 1.000000 0.500000
0.000000 1.000000 0.795000
0.000000 1.000000 1.000000
0.205000 0.000000 0.000000
0.205000 0.000000 0.205000
0.205000 0.000000 0.500000
0.205000 0.000000 0.795000
0.205000 0.000000 1.000000
0.205000 0.205000 0.000000
0.205000 0.205000 0.205000
0.205000 0.205000 0.500000
0.205000 0.205000 0.795000
0.205000 0.205000 1.000000
0.205000 0.500000 0.000000
0.205000 0.500000 0.205000
0.205000 0.500000 0.500000
0.205000 0.500000 0.795000
0.205000 0.500000 1.000000
0.205000 0.795000 0.000000
0.205000 0.795000 0.205000
0.205000 0.795000 0.500000
0.205000 0.795000 0.795000
0.205000 0.795000 1.000000
0.205000 1.000000 0.000000
0.205000 1.000000 0.205000
0.205000 1.000000 0.500000
0.205000 1.000000 0.795000
0.205000 1.000000 1.000000
0.500000 0.000000 0.000000
0.500000 0.000000 0.205000
0.500000 0.000000 0.500000
0.500000 0.000000 0.795000
0.500000 0.000000 1.000000
0.500000 0.205000 0.000000
0.500000 0.205000 0.205000
0.500000 0.205000 0.500000
0.500000 0.205000 0.795000
0.500000 0.205000 1.000000
0.500000 0.500000 0.000000
0.500000 0.500000 0.205000
0.500000 0.500000 0.500000
0.500000 0.500000 0.795000
0.500000 0.500000 1.000000
0.500000 0.795000 0.000000
0.500000 0.795000 0.205000
0.500000 0.795000 0.500000
0.500000 0.795000 0.795000
0.500000 0.795000 1.000000
0.500000 1.000000 0.000000
0.500000 1.000000 0.205000
0.500000 1.000000 0.500000
0.500000 1.000000 0.795000
0.500000 1.000000 1.000000
0.795000 0.000000 0.000000
0.795000 0.000000 0.205000
0.795000 0.000000 0.500000
0.795000 0.000000 0.795000
0.795000 0.000000 1.000000
0.795000 0.205000 0.000000
0.795000 0.205000 0.205000
0.795000 0.205000 0.500000
0.795000 0.205000 0.795000
0.795000 0.205000 1.000000
0.795000 0.500000 0.000000
0.795000 0.500000 0.205000
0.795000 0.500000 0.500000
0.795000 0.500000 0.795000
0.795000 0.500000 1.000000
0.795000 0.795000 0.000000
0.795000 0.795000 0.205000
0.795000 0.795000 0.500000
0.795000 0.795000 0.795000
0.795000 0.795000 1.000000
0.795000 1.000000 0.000000
0.795000 1.000000 0.205000
0.795000 1.000000 0.500000
0.795000 1.000000 0.795000
0.795000 1.000000 1.000000
1.000000 0.000000 0.000000
1.000000 0.000000 0.205000
1.000000 0.000000 0.500000
1.000000 0.000000 0.795000
1.000000 0.000000 1.000000
1.000000 0.205000 0.000000
1.000000 0.205000 0.205000
1.000000 0.205000 0.500000
1.000000 0.205000 0.795000
1.000000 0.205000 1.000000
1.000000 0.500000 0.000000
1.000000 0.500000 0.205000
1.000000 0.500000 0.500000
1.000000 0.500000 0.795000
1.000000 0.500000 1.000000
1.000000 0.795000 0.000000
1.000000 0.795000 0.205000
1.000000 0.795000 0.500000
1.000000 0.795000 0.795000
1.000000 0.795000 1.000000
1.000000 1.000000 0.000000
1.000000 1.000000 0.205000
1.000000 1.000000 0.500000
1.000000 1.000000 0.795000
1.000000 1.000000 1.000000
