src/phototools/luts/portra_400.cube
TITLE "Kodak Portra 400"
LUT_3D_SIZE 5
DOMAIN_MIN 0.0 0.0 0.0
DOMAIN_MAX 1.0 1.0 1.0
0.015000 0.000000 0.010000
0.015000 0.000000 0.247500
0.015000 0.000000 0.485000
0.015000 0.000000 0.722500
0.015000 0.000000 0.960000
0.015000 0.247500 0.010000
0.015000 0.247500 0.247500
0.015000 0.247500 0.485000
0.015000 0.247500 0.722500
0.015000 0.247500 0.960000
0.015000 0.495000 0.010000
0.015000 0.495000 0.247500
0.015000 0.495000 0.485000
0.015000 0.495000 0.722500
0.015000 0.495000 0.960000
0.015000 0.742500 0.010000
0.015000 0.742500 0.247500
0.015000 0.742500 0.485000
0.015000 0.742500 0.722500
0.015000 0.742500 0.960000
0.015000 0.990000 0.010000
0.015000 0.990000 0.247500
0.015000 0.990000 0.485000
0.015000 0.990000 0.722500
0.015000 0.990000 0.960000
0.277500 0.000000 0.010000
0.277500 0.000000 0.247500
0.277500 0.000000 0.485000
0.277500 0.000000 0.722500
0.277500 0.000000 0.960000
0.277500 0.247500 0.010000
0.277500 0.247500 0.247500
0.277500 0.247500 0.485000
0.277500 0.247500 0.722500
0.277500 0.247500 0.960000
0.277500 0.495000 0.010000
0.277500 0.495000 0.247500
0.277500 0.495000 0.485000
0.277500 0.495000 0.722500
0.277500 0.495000 0.960000
0.277500 0.742500 0.010000
0.277500 0.742500 0.247500
0.277500 0.742500 0.485000
0.277500 0.742500 0.722500
0.277500 0.742500 0.960000
0.277500 0.990000 0.010000
0.277500 0.990000 0.247500
0.277500 0.990000 0.485000
0.277500 0.990000 0.722500
0.277500 0.990000 0.960000
0.540000 0.000000 0.010000
0.540000 0.000000 0.247500
0.540000 0.000000 0.485000
0.540000 0.000000 0.722500
0.540000 0.000000 0.960000
0.540000 0.247500 0.010000
0.540000 0.247500 0.247500
0.540000 0.247500 0.485000
0.540000 0.247500 0.722500
0.540000 0.247500 0.960000
0.540000 0.495000 0.010000
0.540000 0.495000 0.247500
0.540000 0.495000 0.485000
0.540000 0.495000 0.722500
0.540000 0.495000 0.960000
0.540000 0.742500 0.010000
0.540000 0.742500 0.247500
0.540000 0.742500 0.485000
0.540000 0.742500 0.722500
0.540000 0.742500 0.960000
0.540000 0.990000 0.010000
0.540000 0.990000 0.247500
0.540000 0.990000 0.485000
0.540000 0.990000 0.722500
0.540000 0.990000 0.960000
0.802500 0.000000 0.010000
0.802500 0.000000 0.247500
0.802500 0.000000 0.485000
0.802500 0.000000 0.722500
0.802500 0.000000 0.960000
0.802500 0.247500 0.010000
0.802500 0.247500 0.247500
0.802500 0.247500 0.485000
0.802500 0.247500 0.722500
0.802500 0.247500 0.960000
0.802500 0.495000 0.010000
0.802500 0.495000 0.247500
0.802500 0.495000 0.485000
0.802500 0.495000 0.722500
0.802500 0.495000 0.960000
0.802500 0.742500 0.010000
0.802500 0.742500 0.247500
0.802500 0.742500 0.485000
0.802500 0.742500 0.722500
0.802500 0.742500 0.960000
0.802500 0.990000 0.010000
0.802500 0.990000 0.247500
0.802500 0.990000 0.485000
0.802500 0.990000 0.722500
0.802500 0.990000 0.960000
1.000000 0.000000 0.010000
1.000000 0.000000 0.247500
1.000000 0.000000 0.485000
1.000000 0.000000 0.722500
1.000000 0.000000 0.960000
1.000000 0.247500 0.010000
1.000000 0.247500 0.247500
1.000000 0.247500 0.485000
1.000000 0.247500 0.722500
1.000000 0.247500 0.960000
1.000000 0.495000 0.010000
1.000000 0.495000 0.247500
1.000000 0.495000 0.485000
1.000000 0.495000 0.722500
1.000000 0.495000 0.960000
1.000000 0.742500 0.010000
1.000000 0.742500 0.247500
1.000000 0.742500 0.485000
1.000000 0.742500 0.722500
1.000000 0.742500 0.960000
1.000000 0.990000 0.010000
1.000000 0.990000 0.247500
1.000000 0.990000 0.485000
1.000000 0.990000 0.722500
1.000000 0.990000 0.960000
