src/phototools/luts/portra_400.cube
TITLE "Kodak Portra 400"
LUT_3D_SIZE 33
DOMAIN_MIN 0.0 0.0 0.0
DOMAIN_MAX 1.0 1.0 1.0
0.015000 0.000000 0.010000
0.015000 0.000000 0.039687
0.015000 0.000000 0.069375
0.015000 0.000000 0.099062
0.015000 0.000000 0.128750
0.015000 0.000000 0.158438
0.015000 0.000000 0.188125
0.015000 0.000000 0.217813
0.015000 0.000000 0.247500
0.015000 0.000000 0.277187
0.015000 0.000000 0.306875
0.015000 0.000000 0.336562
0.015000 0.000000 0.366250
0.015000 0.000000 0.395937
0.015000 0.000000 0.425625
0.015000 0.000000 0.455312
0.015000 0.000000 0.485000
0.015000 0.000000 0.514687
0.015000 0.000000 0.544375
0.015000 0.000000 0.574062
0.015000 0.000000 0.603750
0.015000 0.000000 0.633437
0.015000 0.000000 0.663125
0.015000 0.000000 0.692813
0.015000 0.000000 0.722500
0.015000 0.000000 0.752187
0.015000 0.000000 0.781875
0.015000 0.000000 0.811562
0.015000 0.000000 0.841250
0.015000 0.000000 0.870937
0.015000 0.000000 0.900625
0.015000 0.000000 0.930312
0.015000 0.000000 0.960000
0.015000 0.030938 0.010000
0.015000 0.030938 0.039687
0.015000 0.030938 0.069375
0.015000 0.030938 0.099062
0.015000 0.030938 0.128750
0.015000 0.030938 0.158438
0.015000 0.030938 0.188125
0.015000 0.030938 0.217813
0.015000 0.030938 0.247500
0.015000 0.030938 0.277187
0.015000 0.030938 0.306875
0.015000 0.030938 0.336562
0.015000 0.030938 0.366250
0.015000 0.030938 0.395937
0.015000 0.030938 0.425625
0.015000 0.030938 0.455312
0.015000 0.030938 0.485000
0.015000 0.030938 0.514687
0.015000 0.030938 0.544375
0.015000 0.030938 0.574062
0.015000 0.030938 0.603750
0.015000 0.030938 0.633437
0.015000 0.030938 0.663125
0.015000 0.030938 0.692813
0.015000 0.030938 0.722500
0.015000 0.030938 0.752187
0.015000 0.030938 0.781875
0.015000 0.030938 0.811562
0.015000 0.030938 0.841250
0.015000 0.030938 0.870937
0.015000 0.030938 0.900625
0.015000 0.030938 0.930312
0.015000 0.030938 0.960000
0.015000 0.061875 0.010000
0.015000 0.061875 0.039687
0.015000 0.061875 0.069375
0.015000 0.061875 0.099062
0.015000 0.061875 0.128750
0.015000 0.061875 0.158438
0.015000 0.061875 0.188125
0.015000 0.061875 0.217813
0.015000 0.061875 0.247500
0.015000 0.061875 0.277187
0.015000 0.061875 0.306875
0.015000 0.061875 0.336562
0.015000 0.061875 0.366250
0.015000 0.061875 0.395937
0.015000 0.061875 0.425625
0.015000 0.061875 0.455312
0.015000 0.061875 0.485000
0.015000 0.061875 0.514687
0.015000 0.061875 0.544375
0.015000 0.061875 0.574062
0.015000 0.061875 0.603750
0.015000 0.061875 0.633437
0.015000 0.061875 0.663125
0.015000 0.061875 0.692813
0.015000 0.061875 0.722500
0.015000 0.061875 0.752187
0.015000 0.061875 0.781875
0.015000 0.061875 0.811562
0.015000 0.061875 0.841250
0.015000 0.061875 0.870937
0.015000 0.061875 0.900625
0.015000 0.061875 0.930312
0.015000 0.061875 0.960000
0.015000 0.092813 0.010000
0.015000 0.092813 0.039687
0.015000 0.092813 0.069375
0.015000 0.092813 0.099062
0.015000 0.092813 0.128750
0.015000 0.092813 0.158438
0.015000 0.092813 0.188125
0.015000 0.092813 0.217813
0.015000 0.092813 0.247500
0.015000 0.092813 0.277187
0.015000 0.092813 0.306875
0.015000 0.092813 0.336562
0.015000 0.092813 0.366250
0.015000 0.092813 0.395937
0.015000 0.092813 0.425625
0.015000 0.092813 0.455312
0.015000 0.092813 0.485000
0.015000 0.092813 0.514687
0.015000 0.092813 0.544375
0.015000 0.092813 0.574062
0.015000 0.092813 0.603750
0.015000 0.092813 0.633437
0.015000 0.092813 0.663125
0.015000 0.092813 0.692813
0.015000 0.092813 0.722500
0.015000 0.092813 0.752187
0.015000 0.092813 0.781875
0.015000 0.092813 0.811562
0.015000 0.092813 0.841250
0.015000 0.092813 0.870937
0.015000 0.092813 0.900625
0.015000 0.092813 0.930312
0.015000 0.092813 0.960000
0.015000 0.123750 0.010000
0.015000 0.123750 0.039687
0.015000 0.123750 0.069375
0.015000 0.123750 0.099062
0.015000 0.123750 0.128750
0.015000 0.123750 0.158438
0.015000 0.123750 0.188125
0.015000 0.123750 0.217813
0.015000 0.123750 0.247500
0.015000 0.123750 0.277187
0.015000 0.123750 0.306875
0.015000 0.123750 0.336562
0.015000 0.123750 0.366250
0.015000 0.123750 0.395937
0.015000 0.123750 0.425625
0.015000 0.123750 0.455312
0.015000 0.123750 0.485000
0.015000 0.123750 0.514687
0.015000 0.123750 0.544375
0.015000 0.123750 0.574062
0.015000 0.123750 0.603750
0.015000 0.123750 0.633437
0.015000 0.123750 0.663125
0.015000 0.123750 0.692813
0.015000 0.123750 0.722500
0.015000 0.123750 0.752187
0.015000 0.123750 0.781875
0.015000 0.123750 0.811562
0.015000 0.123750 0.841250
0.015000 0.123750 0.870937
0.015000 0.123750 0.900625
0.015000 0.123750 0.930312
0.015000 0.123750 0.960000
0.015000 0.154687 0.010000
0.015000 0.154687 0.039687
0.015000 0.154687 0.069375
0.015000 0.154687 0.099062
0.015000 0.154687 0.128750
0.015000 0.154687 0.158438
0.015000 0.154687 0.188125
0.015000 0.154687 0.217813
0.015000 0.154687 0.247500
0.015000 0.154687 0.277187
0.015000 0.154687 0.306875
0.015000 0.154687 0.336562
0.015000 0.154687 0.366250
0.015000 0.154687 0.395937
0.015000 0.154687 0.425625
0.015000 0.154687 0.455312
0.015000 0.154687 0.485000
0.015000 0.154687 0.514687
0.015000 0.154687 0.544375
0.015000 0.154687 0.574062
0.015000 0.154687 0.603750
0.015000 0.154687 0.633437
0.015000 0.154687 0.663125
0.015000 0.154687 0.692813
0.015000 0.154687 0.722500
0.015000 0.154687 0.752187
0.015000 0.154687 0.781875
0.015000 0.154687 0.811562
0.015000 0.154687 0.841250
0.015000 0.154687 0.870937
0.015000 0.154687 0.900625
0.015000 0.154687 0.930312
0.015000 0.154687 0.960000
0.015000 0.185625 0.010000
0.015000 0.185625 0.039687
0.015000 0.185625 0.069375
0.015000 0.185625 0.099062
0.015000 0.185625 0.128750
0.015000 0.185625 0.158438
0.015000 0.185625 0.188125
0.015000 0.185625 0.217813
0.015000 0.185625 0.247500
0.015000 0.185625 0.277187
0.015000 0.185625 0.306875
0.015000 0.185625 0.336562
0.015000 0.185625 0.366250
0.015000 0.185625 0.395937
0.015000 0.185625 0.425625
0.015000 0.185625 0.455312
0.015000 0.185625 0.485000
0.015000 0.185625 0.514687
0.015000 0.185625 0.544375
0.015000 0.185625 0.574062
0.015000 0.185625 0.603750
0.015000 0.185625 0.633437
0.015000 0.185625 0.663125
0.015000 0.185625 0.692813
0.015000 0.185625 0.722500
0.015000 0.185625 0.752187
0.015000 0.185625 0.781875
0.015000 0.185625 0.811562
0.015000 0.185625 0.841250
0.015000 0.185625 0.870937
0.015000 0.185625 0.900625
0.015000 0.185625 0.930312
0.015000 0.185625 0.960000
0.015000 0.216563 0.010000
0.015000 0.216563 0.039687
0.015000 0.216563 0.069375
0.015000 0.216563 0.099062
0.015000 0.216563 0.128750
0.015000 0.216563 0.158438
0.015000 0.216563 0.188125
0.015000 0.216563 0.217813
0.015000 0.216563 0.247500
0.015000 0.216563 0.277187
0.015000 0.216563 0.306875
0.015000 0.216563 0.336562
0.015000 0.216563 0.366250
0.015000 0.216563 0.395937
0.015000 0.216563 0.425625
0.015000 0.216563 0.455312
0.015000 0.216563 0.485000
0.015000 0.216563 0.514687
0.015000 0.216563 0.544375
0.015000 0.216563 0.574062
0.015000 0.216563 0.603750
0.015000 0.216563 0.633437
0.015000 0.216563 0.663125
0.015000 0.216563 0.692813
0.015000 0.216563 0.722500
0.015000 0.216563 0.752187
0.015000 0.216563 0.781875
0.015000 0.216563 0.811562
0.015000 0.216563 0.841250
0.015000 0.216563 0.870937
0.015000 0.216563 0.900625
0.015000 0.216563 0.930312
0.015000 0.216563 0.960000
0.015000 0.247500 0.010000
0.015000 0.247500 0.039687
0.015000 0.247500 0.069375
0.015000 0.247500 0.099062
0.015000 0.247500 0.128750
0.015000 0.247500 0.158438
0.015000 0.247500 0.188125
0.015000 0.247500 0.217813
0.015000 0.247500 0.247500
0.015000 0.247500 0.277187
0.015000 0.247500 0.306875
0.015000 0.247500 0.336562
0.015000 0.247500 0.366250
0.015000 0.247500 0.395937
0.015000 0.247500 0.425625
0.015000 0.247500 0.455312
0.015000 0.247500 0.485000
0.015000 0.247500 0.514687
0.015000 0.247500 0.544375
0.015000 0.247500 0.574062
0.015000 0.247500 0.603750
0.015000 0.247500 0.633437
0.015000 0.247500 0.663125
0.015000 0.247500 0.692813
0.015000 0.247500 0.722500
0.015000 0.247500 0.752187
0.015000 0.247500 0.781875
0.015000 0.247500 0.811562
0.015000 0.247500 0.841250
0.015000 0.247500 0.870937
0.015000 0.247500 0.900625
0.015000 0.247500 0.930312
0.015000 0.247500 0.960000
0.015000 0.278437 0.010000
0.015000 0.278437 0.039687
0.015000 0.278437 0.069375
0.015000 0.278437 0.099062
0.015000 0.278437 0.128750
0.015000 0.278437 0.158438
0.015000 0.278437 0.188125
0.015000 0.278437 0.217813
0.015000 0.278437 0.247500
0.015000 0.278437 0.277187
0.015000 0.278437 0.306875
0.015000 0.278437 0.336562
0.015000 0.278437 0.366250
0.015000 0.278437 0.395937
0.015000 0.278437 0.425625
0.015000 0.278437 0.455312
0.015000 0.278437 0.485000
0.015000 0.278437 0.514687
0.015000 0.278437 0.544375
0.015000 0.278437 0.574062
0.015000 0.278437 0.603750
0.015000 0.278437 0.633437
0.015000 0.278437 0.663125
0.015000 0.278437 0.692813
0.015000 0.278437 0.722500
0.015000 0.278437 0.752187
0.015000 0.278437 0.781875
0.015000 0.278437 0.811562
0.015000 0.278437 0.841250
0.015000 0.278437 0.870937
0.015000 0.278437 0.900625
0.015000 0.278437 0.930312
0.015000 0.278437 0.960000
0.015000 0.309375 0.010000
0.015000 0.309375 0.039687
0.015000 0.309375 0.069375
0.015000 0.309375 0.099062
0.015000 0.309375 0.128750
0.015000 0.309375 0.158438
0.015000 0.309375 0.188125
0.015000 0.309375 0.217813
0.015000 0.309375 0.247500
0.015000 0.309375 0.277187
0.015000 0.309375 0.306875
0.015000 0.309375 0.336562
0.015000 0.309375 0.366250
0.015000 0.309375 0.395937
0.015000 0.309375 0.425625
0.015000 0.309375 0.455312
0.015000 0.309375 0.485000
0.015000 0.309375 0.514687
0.015000 0.309375 0.544375
0.015000 0.309375 0.574062
0.015000 0.309375 0.603750
0.015000 0.309375 0.633437
0.015000 0.309375 0.663125
0.015000 0.309375 0.692813
0.015000 0.309375 0.722500
0.015000 0.309375 0.752187
0.015000 0.309375 0.781875
0.015000 0.309375 0.811562
0.015000 0.309375 0.841250
0.015000 0.309375 0.870937
0.015000 0.309375 0.900625
0.015000 0.309375 0.930312
0.015000 0.309375 0.960000
0.015000 0.340313 0.010000
0.015000 0.340313 0.039687
0.015000 0.340313 0.069375
0.015000 0.340313 0.099062
0.015000 0.340313 0.128750
0.015000 0.340313 0.158438
0.015000 0.340313 0.188125
0.015000 0.340313 0.217813
0.015000 0.340313 0.247500
0.015000 0.340313 0.277187
0.015000 0.340313 0.306875
0.015000 0.340313 0.336562
0.015000 0.340313 0.366250
0.015000 0.340313 0.395937
0.015000 0.340313 0.425625
0.015000 0.340313 0.455312
0.015000 0.340313 0.485000
0.015000 0.340313 0.514687
0.015000 0.340313 0.544375
0.015000 0.340313 0.574062
0.015000 0.340313 0.603750
0.015000 0.340313 0.633437
0.015000 0.340313 0.663125
0.015000 0.340313 0.692813
0.015000 0.340313 0.722500
0.015000 0.340313 0.752187
0.015000 0.340313 0.781875
0.015000 0.340313 0.811562
0.015000 0.340313 0.841250
0.015000 0.340313 0.870937
0.015000 0.340313 0.900625
0.015000 0.340313 0.930312
0.015000 0.340313 0.960000
0.015000 0.371250 0.010000
0.015000 0.371250 0.039687
0.015000 0.371250 0.069375
0.015000 0.371250 0.099062
0.015000 0.371250 0.128750
0.015000 0.371250 0.158438
0.015000 0.371250 0.188125
0.015000 0.371250 0.217813
0.015000 0.371250 0.247500
0.015000 0.371250 0.277187
0.015000 0.371250 0.306875
0.015000 0.371250 0.336562
0.015000 0.371250 0.366250
0.015000 0.371250 0.395937
0.015000 0.371250 0.425625
0.015000 0.371250 0.455312
0.015000 0.371250 0.485000
0.015000 0.371250 0.514687
0.015000 0.371250 0.544375
0.015000 0.371250 0.574062
0.015000 0.371250 0.603750
0.015000 0.371250 0.633437
0.015000 0.371250 0.663125
0.015000 0.371250 0.692813
0.015000 0.371250 0.722500
0.015000 0.371250 0.752187
0.015000 0.371250 0.781875
0.015000 0.371250 0.811562
0.015000 0.371250 0.841250
0.015000 0.371250 0.870937
0.015000 0.371250 0.900625
0.015000 0.371250 0.930312
0.015000 0.371250 0.960000
0.015000 0.402187 0.010000
0.015000 0.402187 0.039687
0.015000 0.402187 0.069375
0.015000 0.402187 0.099062
0.015000 0.402187 0.128750
0.015000 0.402187 0.158438
0.015000 0.402187 0.188125
0.015000 0.402187 0.217813
0.015000 0.402187 0.247500
0.015000 0.402187 0.277187
0.015000 0.402187 0.306875
0.015000 0.402187 0.336562
0.015000 0.402187 0.366250
0.015000 0.402187 0.395937
0.015000 0.402187 0.425625
0.015000 0.402187 0.455312
0.015000 0.402187 0.485000
0.015000 0.402187 0.514687
0.015000 0.402187 0.544375
0.015000 0.402187 0.574062
0.015000 0.402187 0.603750
0.015000 0.402187 0.633437
0.015000 0.402187 0.663125
0.015000 0.402187 0.692813
0.015000 0.402187 0.722500
0.015000 0.402187 0.752187
0.015000 0.402187 0.781875
0.015000 0.402187 0.811562
0.015000 0.402187 0.841250
0.015000 0.402187 0.870937
0.015000 0.402187 0.900625
0.015000 0.402187 0.930312
0.015000 0.402187 0.960000
0.015000 0.433125 0.010000
0.015000 0.433125 0.039687
0.015000 0.433125 0.069375
0.015000 0.433125 0.099062
0.015000 0.433125 0.128750
0.015000 0.433125 0.158438
0.015000 0.433125 0.188125
0.015000 0.433125 0.217813
0.015000 0.433125 0.247500
0.015000 0.433125 0.277187
0.015000 0.433125 0.306875
0.015000 0.433125 0.336562
0.015000 0.433125 0.366250
0.015000 0.433125 0.395937
0.015000 0.433125 0.425625
0.015000 0.433125 0.455312
0.015000 0.433125 0.485000
0.015000 0.433125 0.514687
0.015000 0.433125 0.544375
0.015000 0.433125 0.574062
0.015000 0.433125 0.603750
0.015000 0.433125 0.633437
0.015000 0.433125 0.663125
0.015000 0.433125 0.692813
0.015000 0.433125 0.722500
0.015000 0.433125 0.752187
0.015000 0.433125 0.781875
0.015000 0.433125 0.811562
0.015000 0.433125 0.841250
0.015000 0.433125 0.870937
0.015000 0.433125 0.900625
0.015000 0.433125 0.930312
0.015000 0.433125 0.960000
0.015000 0.464063 0.010000
0.015000 0.464063 0.039687
0.015000 0.464063 0.069375
0.015000 0.464063 0.099062
0.015000 0.464063 0.128750
0.015000 0.464063 0.158438
0.015000 0.464063 0.188125
0.015000 0.464063 0.217813
0.015000 0.464063 0.247500
0.015000 0.464063 0.277187
0.015000 0.464063 0.306875
0.015000 0.464063 0.336562
0.015000 0.464063 0.366250
0.015000 0.464063 0.395937
0.015000 0.464063 0.425625
0.015000 0.464063 0.455312
0.015000 0.464063 0.485000
0.015000 0.464063 0.514687
0.015000 0.464063 0.544375
0.015000 0.464063 0.574062
0.015000 0.464063 0.603750
0.015000 0.464063 0.633437
0.015000 0.464063 0.663125
0.015000 0.464063 0.692813
0.015000 0.464063 0.722500
0.015000 0.464063 0.752187
0.015000 0.464063 0.781875
0.015000 0.464063 0.811562
0.015000 0.464063 0.841250
0.015000 0.464063 0.870937
0.015000 0.464063 0.900625
0.015000 0.464063 0.930312
0.015000 0.464063 0.960000
0.015000 0.495000 0.010000
0.015000 0.495000 0.039687
0.015000 0.495000 0.069375
0.015000 0.495000 0.099062
0.015000 0.495000 0.128750
0.015000 0.495000 0.158438
0.015000 0.495000 0.188125
0.015000 0.495000 0.217813
0.015000 0.495000 0.247500
0.015000 0.495000 0.277187
0.015000 0.495000 0.306875
0.015000 0.495000 0.336562
0.015000 0.495000 0.366250
0.015000 0.495000 0.395937
0.015000 0.495000 0.425625
0.015000 0.495000 0.455312
0.015000 0.495000 0.485000
0.015000 0.495000 0.514687
0.015000 0.495000 0.544375
0.015000 0.495000 0.574062
0.015000 0.495000 0.603750
0.015000 0.495000 0.633437
0.015000 0.495000 0.663125
0.015000 0.495000 0.692813
0.015000 0.495000 0.722500
0.015000 0.495000 0.752187
0.015000 0.495000 0.781875
0.015000 0.495000 0.811562
0.015000 0.495000 0.841250
0.015000 0.495000 0.870937
0.015000 0.495000 0.900625
0.015000 0.495000 0.930312
0.015000 0.495000 0.960000
0.015000 0.525937 0.010000
0.015000 0.525937 0.039687
0.015000 0.525937 0.069375
0.015000 0.525937 0.099062
0.015000 0.525937 0.128750
0.015000 0.525937 0.158438
0.015000 0.525937 0.188125
0.015000 0.525937 0.217813
0.015000 0.525937 0.247500
0.015000 0.525937 0.277187
0.015000 0.525937 0.306875
0.015000 0.525937 0.336562
0.015000 0.525937 0.366250
0.015000 0.525937 0.395937
0.015000 0.525937 0.425625
0.015000 0.525937 0.455312
0.015000 0.525937 0.485000
0.015000 0.525937 0.514687
0.015000 0.525937 0.544375
0.015000 0.525937 0.574062
0.015000 0.525937 0.603750
0.015000 0.525937 0.633437
0.015000 0.525937 0.663125
0.015000 0.525937 0.692813
0.015000 0.525937 0.722500
0.015000 0.525937 0.752187
0.015000 0.525937 0.781875
0.015000 0.525937 0.811562
0.015000 0.525937 0.841250
0.015000 0.525937 0.870937
0.015000 0.525937 0.900625
0.015000 0.525937 0.930312
0.015000 0.525937 0.960000
0.015000 0.556875 0.010000
0.015000 0.556875 0.039687
0.015000 0.556875 0.069375
0.015000 0.556875 0.099062
0.015000 0.556875 0.128750
0.015000 0.556875 0.158438
0.015000 0.556875 0.188125
0.015000 0.556875 0.217813
0.015000 0.556875 0.247500
0.015000 0.556875 0.277187
0.015000 0.556875 0.306875
0.015000 0.556875 0.336562
0.015000 0.556875 0.366250
0.015000 0.556875 0.395937
0.015000 0.556875 0.425625
0.015000 0.556875 0.455312
0.015000 0.556875 0.485000
0.015000 0.556875 0.514687
0.015000 0.556875 0.544375
0.015000 0.556875 0.574062
0.015000 0.556875 0.603750
0.015000 0.556875 0.633437
0.015000 0.556875 0.663125
0.015000 0.556875 0.692813
0.015000 0.556875 0.722500
0.015000 0.556875 0.752187
0.015000 0.556875 0.781875
0.015000 0.556875 0.811562
0.015000 0.556875 0.841250
0.015000 0.556875 0.870937
0.015000 0.556875 0.900625
0.015000 0.556875 0.930312
0.015000 0.556875 0.960000
0.015000 0.587812 0.010000
0.015000 0.587812 0.039687
0.015000 0.587812 0.069375
0.015000 0.587812 0.099062
0.015000 0.587812 0.128750
0.015000 0.587812 0.158438
0.015000 0.587812 0.188125
0.015000 0.587812 0.217813
0.015000 0.587812 0.247500
0.015000 0.587812 0.277187
0.015000 0.587812 0.306875
0.015000 0.587812 0.336562
0.015000 0.587812 0.366250
0.015000 0.587812 0.395937
0.015000 0.587812 0.425625
0.015000 0.587812 0.455312
0.015000 0.587812 0.485000
0.015000 0.587812 0.514687
0.015000 0.587812 0.544375
0.015000 0.587812 0.574062
0.015000 0.587812 0.603750
0.015000 0.587812 0.633437
0.015000 0.587812 0.663125
0.015000 0.587812 0.692813
0.015000 0.587812 0.722500
0.015000 0.587812 0.752187
0.015000 0.587812 0.781875
0.015000 0.587812 0.811562
0.015000 0.587812 0.841250
0.015000 0.587812 0.870937
0.015000 0.587812 0.900625
0.015000 0.587812 0.930312
0.015000 0.587812 0.960000
0.015000 0.618750 0.010000
0.015000 0.618750 0.039687
0.015000 0.618750 0.069375
0.015000 0.618750 0.099062
0.015000 0.618750 0.128750
0.015000 0.618750 0.158438
0.015000 0.618750 0.188125
0.015000 0.618750 0.217813
0.015000 0.618750 0.247500
0.015000 0.618750 0.277187
0.015000 0.618750 0.306875
0.015000 0.618750 0.336562
0.015000 0.618750 0.366250
0.015000 0.618750 0.395937
0.015000 0.618750 0.425625
0.015000 0.618750 0.455312
0.015000 0.618750 0.485000
0.015000 0.618750 0.514687
0.015000 0.618750 0.544375
0.015000 0.618750 0.574062
0.015000 0.618750 0.603750
0.015000 0.618750 0.633437
0.015000 0.618750 0.663125
0.015000 0.618750 0.692813
0.015000 0.618750 0.722500
0.015000 0.618750 0.752187
0.015000 0.618750 0.781875
0.015000 0.618750 0.811562
0.015000 0.618750 0.841250
0.015000 0.618750 0.870937
0.015000 0.618750 0.900625
0.015000 0.618750 0.930312
0.015000 0.618750 0.960000
0.015000 0.649688 0.010000
0.015000 0.649688 0.039687
0.015000 0.649688 0.069375
0.015000 0.649688 0.099062
0.015000 0.649688 0.128750
0.015000 0.649688 0.158438
0.015000 0.649688 0.188125
0.015000 0.649688 0.217813
0.015000 0.649688 0.247500
0.015000 0.649688 0.277187
0.015000 0.649688 0.306875
0.015000 0.649688 0.336562
0.015000 0.649688 0.366250
0.015000 0.649688 0.395937
0.015000 0.649688 0.425625
0.015000 0.649688 0.455312
0.015000 0.649688 0.485000
0.015000 0.649688 0.514687
0.015000 0.649688 0.544375
0.015000 0.649688 0.574062
0.015000 0.649688 0.603750
0.015000 0.649688 0.633437
0.015000 0.649688 0.663125
0.015000 0.649688 0.692813
0.015000 0.649688 0.722500
0.015000 0.649688 0.752187
0.015000 0.649688 0.781875
0.015000 0.649688 0.811562
0.015000 0.649688 0.841250
0.015000 0.649688 0.870937
0.015000 0.649688 0.900625
0.015000 0.649688 0.930312
0.015000 0.649688 0.960000
0.015000 0.680625 0.010000
0.015000 0.680625 0.039687
0.015000 0.680625 0.069375
0.015000 0.680625 0.099062
0.015000 0.680625 0.128750
0.015000 0.680625 0.158438
0.015000 0.680625 0.188125
0.015000 0.680625 0.217813
0.015000 0.680625 0.247500
0.015000 0.680625 0.277187
0.015000 0.680625 0.306875
0.015000 0.680625 0.336562
0.015000 0.680625 0.366250
0.015000 0.680625 0.395937
0.015000 0.680625 0.425625
0.015000 0.680625 0.455312
0.015000 0.680625 0.485000
0.015000 0.680625 0.514687
0.015000 0.680625 0.544375
0.015000 0.680625 0.574062
0.015000 0.680625 0.603750
0.015000 0.680625 0.633437
0.015000 0.680625 0.663125
0.015000 0.680625 0.692813
0.015000 0.680625 0.722500
0.015000 0.680625 0.752187
0.015000 0.680625 0.781875
0.015000 0.680625 0.811562
0.015000 0.680625 0.841250
0.015000 0.680625 0.870937
0.015000 0.680625 0.900625
0.015000 0.680625 0.930312
0.015000 0.680625 0.960000
0.015000 0.711563 0.010000
0.015000 0.711563 0.039687
0.015000 0.711563 0.069375
0.015000 0.711563 0.099062
0.015000 0.711563 0.128750
0.015000 0.711563 0.158438
0.015000 0.711563 0.188125
0.015000 0.711563 0.217813
0.015000 0.711563 0.247500
0.015000 0.711563 0.277187
0.015000 0.711563 0.306875
0.015000 0.711563 0.336562
0.015000 0.711563 0.366250
0.015000 0.711563 0.395937
0.015000 0.711563 0.425625
0.015000 0.711563 0.455312
0.015000 0.711563 0.485000
0.015000 0.711563 0.514687
0.015000 0.711563 0.544375
0.015000 0.711563 0.574062
0.015000 0.711563 0.603750
0.015000 0.711563 0.633437
0.015000 0.711563 0.663125
0.015000 0.711563 0.692813
0.015000 0.711563 0.722500
0.015000 0.711563 0.752187
0.015000 0.711563 0.781875
0.015000 0.711563 0.811562
0.015000 0.711563 0.841250
0.015000 0.711563 0.870937
0.015000 0.711563 0.900625
0.015000 0.711563 0.930312
0.015000 0.711563 0.960000
0.015000 0.742500 0.010000
0.015000 0.742500 0.039687
0.015000 0.742500 0.069375
0.015000 0.742500 0.099062
0.015000 0.742500 0.128750
0.015000 0.742500 0.158438
0.015000 0.742500 0.188125
0.015000 0.742500 0.217813
0.015000 0.742500 0.247500
0.015000 0.742500 0.277187
0.015000 0.742500 0.306875
0.015000 0.742500 0.336562
0.015000 0.742500 0.366250
0.015000 0.742500 0.395937
0.015000 0.742500 0.425625
0.015000 0.742500 0.455312
0.015000 0.742500 0.485000
0.015000 0.742500 0.514687
0.015000 0.742500 0.544375
0.015000 0.742500 0.574062
0.015000 0.742500 0.603750
0.015000 0.742500 0.633437
0.015000 0.742500 0.663125
0.015000 0.742500 0.692813
0.015000 0.742500 0.722500
0.015000 0.742500 0.752187
0.015000 0.742500 0.781875
0.015000 0.742500 0.811562
0.015000 0.742500 0.841250
0.015000 0.742500 0.870937
0.015000 0.742500 0.900625
0.015000 0.742500 0.930312
0.015000 0.742500 0.960000
0.015000 0.773438 0.010000
0.015000 0.773438 0.039687
0.015000 0.773438 0.069375
0.015000 0.773438 0.099062
0.015000 0.773438 0.128750
0.015000 0.773438 0.158438
0.015000 0.773438 0.188125
0.015000 0.773438 0.217813
0.015000 0.773438 0.247500
0.015000 0.773438 0.277187
0.015000 0.773438 0.306875
0.015000 0.773438 0.336562
0.015000 0.773438 0.366250
0.015000 0.773438 0.395937
0.015000 0.773438 0.425625
0.015000 0.773438 0.455312
0.015000 0.773438 0.485000
0.015000 0.773438 0.514687
0.015000 0.773438 0.544375
0.015000 0.773438 0.574062
0.015000 0.773438 0.603750
0.015000 0.773438 0.633437
0.015000 0.773438 0.663125
0.015000 0.773438 0.692813
0.015000 0.773438 0.722500
0.015000 0.773438 0.752187
0.015000 0.773438 0.781875
0.015000 0.773438 0.811562
0.015000 0.773438 0.841250
0.015000 0.773438 0.870937
0.015000 0.773438 0.900625
0.015000 0.773438 0.930312
0.015000 0.773438 0.960000
0.015000 0.804375 0.010000
0.015000 0.804375 0.039687
0.015000 0.804375 0.069375
0.015000 0.804375 0.099062
0.015000 0.804375 0.128750
0.015000 0.804375 0.158438
0.015000 0.804375 0.188125
0.015000 0.804375 0.217813
0.015000 0.804375 0.247500
0.015000 0.804375 0.277187
0.015000 0.804375 0.306875
0.015000 0.804375 0.336562
0.015000 0.804375 0.366250
0.015000 0.804375 0.395937
0.015000 0.804375 0.425625
0.015000 0.804375 0.455312
0.015000 0.804375 0.485000
0.015000 0.804375 0.514687
0.015000 0.804375 0.544375
0.015000 0.804375 0.574062
0.015000 0.804375 0.603750
0.015000 0.804375 0.633437
0.015000 0.804375 0.663125
0.015000 0.804375 0.692813
0.015000 0.804375 0.722500
0.015000 0.804375 0.752187
0.015000 0.804375 0.781875
