src/phototools/luts/portra_400.cube
TITLE "Kodak Portra 400"
LUT_3D_SIZE 9
DOMAIN_MIN 0.0 0.0 0.0
DOMAIN_MAX 1.0 1.0 1.0
0.015000 0.000000 0.010000
0.015000 0.000000 0.128750
0.015000 0.000000 0.247500
0.015000 0.000000 0.366250
0.015000 0.000000 0.485000
0.015000 0.000000 0.603750
0.015000 0.000000 0.722500
0.015000 0.000000 0.841250
0.015000 0.000000 0.960000
0.015000 0.123750 0.010000
0.015000 0.123750 0.128750
0.015000 0.123750 0.247500
0.015000 0.123750 0.366250
0.015000 0.123750 0.485000
0.015000 0.123750 0.603750
0.015000 0.123750 0.722500
0.015000 0.123750 0.841250
0.015000 0.123750 0.960000
0.015000 0.247500 0.010000
0.015000 0.247500 0.128750
0.015000 0.247500 0.247500
0.015000 0.247500 0.366250
0.015000 0.247500 0.485000
0.015000 0.247500 0.603750
0.015000 0.247500 0.722500
0.015000 0.247500 0.841250
0.015000 0.247500 0.960000
0.015000 0.371250 0.010000
0.015000 0.371250 0.128750
0.015000 0.371250 0.247500
0.015000 0.371250 0.366250
0.015000 0.371250 0.485000
0.015000 0.371250 0.603750
0.015000 0.371250 0.722500
0.015000 0.371250 0.841250
0.015000 0.371250 0.960000
0.015000 0.495000 0.010000
0.015000 0.495000 0.128750
0.015000 0.495000 0.247500
0.015000 0.495000 0.366250
0.015000 0.495000 0.485000
0.015000 0.495000 0.603750
0.015000 0.495000 0.722500
0.015000 0.495000 0.841250
0.015000 0.495000 0.960000
0.015000 0.618750 0.010000
0.015000 0.618750 0.128750
0.015000 0.618750 0.247500
0.015000 0.618750 0.366250
0.015000 0.618750 0.485000
0.015000 0.618750 0.603750
0.015000 0.618750 0.722500
0.015000 0.618750 0.841250
0.015000 0.618750 0.960000
0.015000 0.742500 0.010000
0.015000 0.742500 0.128750
0.015000 0.742500 0.247500
0.015000 0.742500 0.366250
0.015000 0.742500 0.485000
0.015000 0.742500 0.603750
0.015000 0.742500 0.722500
0.015000 0.742500 0.841250
0.015000 0.742500 0.960000
0.015000 0.866250 0.010000
0.015000 0.866250 0.128750
0.015000 0.866250 0.247500
0.015000 0.866250 0.366250
0.015000 0.866250 0.485000
0.015000 0.866250 0.603750
0.015000 0.866250 0.722500
0.015000 0.866250 0.841250
0.015000 0.866250 0.960000
0.015000 0.990000 0.010000
0.015000 0.990000 0.128750
0.015000 0.990000 0.247500
0.015000 0.990000 0.366250
0.015000 0.990000 0.485000
0.015000 0.990000 0.603750
0.015000 0.990000 0.722500
0.015000 0.990000 0.841250
0.015000 0.990000 0.960000
0.146250 0.000000 0.010000
0.146250 0.000000 0.128750
0.146250 0.000000 0.247500
0.146250 0.000000 0.366250
0.146250 0.000000 0.485000
0.146250 0.000000 0.603750
0.146250 0.000000 0.722500
0.146250 0.000000 0.841250
0.146250 0.000000 0.960000
0.146250 0.123750 0.010000
0.146250 0.123750 0.128750
0.146250 0.123750 0.247500
0.146250 0.123750 0.366250
0.146250 0.123750 0.485000
0.146250 0.123750 0.603750
0.146250 0.123750 0.722500
0.146250 0.123750 0.841250
0.146250 0.123750 0.960000
0.146250 0.247500 0.010000
0.146250 0.247500 0.128750
0.146250 0.247500 0.247500
0.146250 0.247500 0.366250
0.146250 0.247500 0.485000
0.146250 0.247500 0.603750
0.146250 0.247500 0.722500
0.146250 0.247500 0.841250
0.146250 0.247500 0.960000
0.146250 0.371250 0.010000
0.146250 0.371250 0.128750
0.146250 0.371250 0.247500
0.146250 0.371250 0.366250
0.146250 0.371250 0.485000
0.146250 0.371250 0.603750
0.146250 0.371250 0.722500
0.146250 0.371250 0.841250
0.146250 0.371250 0.960000
0.146250 0.495000 0.010000
0.146250 0.495000 0.128750
0.146250 0.495000 0.247500
0.146250 0.495000 0.366250
0.146250 0.495000 0.485000
0.146250 0.495000 0.603750
0.146250 0.495000 0.722500
0.146250 0.495000 0.841250
0.146250 0.495000 0.960000
0.146250 0.618750 0.010000
0.146250 0.618750 0.128750
0.146250 0.618750 0.247500
0.146250 0.618750 0.366250
0.146250 0.618750 0.485000
0.146250 0.618750 0.603750
0.146250 0.618750 0.722500
0.146250 0.618750 0.841250
0.146250 0.618750 0.960000
0.146250 0.742500 0.010000
0.146250 0.742500 0.128750
0.146250 0.742500 0.247500
0.146250 0.742500 0.366250
0.146250 0.742500 0.485000
0.146250 0.742500 0.603750
0.146250 0.742500 0.722500
0.146250 0.742500 0.841250
0.146250 0.742500 0.960000
0.146250 0.866250 0.010000
0.146250 0.866250 0.128750
0.146250 0.866250 0.247500
0.146250 0.866250 0.366250
0.146250 0.866250 0.485000
0.146250 0.866250 0.603750
0.146250 0.866250 0.722500
0.146250 0.866250 0.841250
0.146250 0.866250 0.960000
0.146250 0.990000 0.010000
0.146250 0.990000 0.128750
0.146250 0.990000 0.247500
0.146250 0.990000 0.366250
0.146250 0.990000 0.485000
0.146250 0.990000 0.603750
0.146250 0.990000 0.722500
0.146250 0.990000 0.841250
0.146250 0.990000 0.960000
0.277500 0.000000 0.010000
0.277500 0.000000 0.128750
0.277500 0.000000 0.247500
0.277500 0.000000 0.366250
0.277500 0.000000 0.485000
0.277500 0.000000 0.603750
0.277500 0.000000 0.722500
0.277500 0.000000 0.841250
0.277500 0.000000 0.960000
0.277500 0.123750 0.010000
0.277500 0.123750 0.128750
0.277500 0.123750 0.247500
0.277500 0.123750 0.366250
0.277500 0.123750 0.485000
0.277500 0.123750 0.603750
0.277500 0.123750 0.722500
0.277500 0.123750 0.841250
0.277500 0.123750 0.960000
0.277500 0.247500 0.010000
0.277500 0.247500 0.128750
0.277500 0.247500 0.247500
0.277500 0.247500 0.366250
0.277500 0.247500 0.485000
0.277500 0.247500 0.603750
0.277500 0.247500 0.722500
0.277500 0.247500 0.841250
0.277500 0.247500 0.960000
0.277500 0.371250 0.010000
0.277500 0.371250 0.128750
0.277500 0.371250 0.247500
0.277500 0.371250 0.366250
0.277500 0.371250 0.485000
0.277500 0.371250 0.603750
0.277500 0.371250 0.722500
0.277500 0.371250 0.841250
0.277500 0.371250 0.960000
0.277500 0.495000 0.010000
0.277500 0.495000 0.128750
0.277500 0.495000 0.247500
0.277500 0.495000 0.366250
0.277500 0.495000 0.485000
0.277500 0.495000 0.603750
0.277500 0.495000 0.722500
0.277500 0.495000 0.841250
0.277500 0.495000 0.960000
0.277500 0.618750 0.010000
0.277500 0.618750 0.128750
0.277500 0.618750 0.247500
0.277500 0.618750 0.366250
0.277500 0.618750 0.485000
0.277500 0.618750 0.603750
0.277500 0.618750 0.722500
0.277500 0.618750 0.841250
0.277500 0.618750 0.960000
0.277500 0.742500 0.010000
0.277500 0.742500 0.128750
0.277500 0.742500 0.247500
0.277500 0.742500 0.366250
0.277500 0.742500 0.485000
0.277500 0.742500 0.603750
0.277500 0.742500 0.722500
0.277500 0.742500 0.841250
0.277500 0.742500 0.960000
0.277500 0.866250 0.010000
0.277500 0.866250 0.128750
0.277500 0.866250 0.247500
0.277500 0.866250 0.366250
0.277500 0.866250 0.485000
0.277500 0.866250 0.603750
0.277500 0.866250 0.722500
0.277500 0.866250 0.841250
0.277500 0.866250 0.960000
0.277500 0.990000 0.010000
0.277500 0.990000 0.128750
0.277500 0.990000 0.247500
0.277500 0.990000 0.366250
0.277500 0.990000 0.485000
0.277500 0.990000 0.603750
0.277500 0.990000 0.722500
0.277500 0.990000 0.841250
0.277500 0.990000 0.960000
0.408750 0.000000 0.010000
0.408750 0.000000 0.128750
0.408750 0.000000 0.247500
0.408750 0.000000 0.366250
0.408750 0.000000 0.485000
0.408750 0.000000 0.603750
0.408750 0.000000 0.722500
0.408750 0.000000 0.841250
0.408750 0.000000 0.960000
0.408750 0.123750 0.010000
0.408750 0.123750 0.128750
0.408750 0.123750 0.247500
0.408750 0.123750 0.366250
0.408750 0.123750 0.485000
0.408750 0.123750 0.603750
0.408750 0.123750 0.722500
0.408750 0.123750 0.841250
0.408750 0.123750 0.960000
0.408750 0.247500 0.010000
0.408750 0.247500 0.128750
0.408750 0.247500 0.247500
0.408750 0.247500 0.366250
0.408750 0.247500 0.485000
0.408750 0.247500 0.603750
0.408750 0.247500 0.722500
0.408750 0.247500 0.841250
0.408750 0.247500 0.960000
0.408750 0.371250 0.010000
0.408750 0.371250 0.128750
0.408750 0.371250 0.247500
0.408750 0.371250 0.366250
0.408750 0.371250 0.485000
0.408750 0.371250 0.603750
0.408750 0.371250 0.722500
0.408750 0.371250 0.841250
0.408750 0.371250 0.960000
0.408750 0.495000 0.010000
0.408750 0.495000 0.128750
0.408750 0.495000 0.247500
0.408750 0.495000 0.366250
0.408750 0.495000 0.485000
0.408750 0.495000 0.603750
0.408750 0.495000 0.722500
0.408750 0.495000 0.841250
0.408750 0.495000 0.960000
0.408750 0.618750 0.010000
0.408750 0.618750 0.128750
0.408750 0.618750 0.247500
0.408750 0.618750 0.366250
0.408750 0.618750 0.485000
0.408750 0.618750 0.603750
0.408750 0.618750 0.722500
0.408750 0.618750 0.841250
0.408750 0.618750 0.960000
0.408750 0.742500 0.010000
0.408750 0.742500 0.128750
0.408750 0.742500 0.247500
0.408750 0.742500 0.366250
0.408750 0.742500 0.485000
0.408750 0.742500 0.603750
0.408750 0.742500 0.722500
0.408750 0.742500 0.841250
0.408750 0.742500 0.960000
0.408750 0.866250 0.010000
0.408750 0.866250 0.128750
0.408750 0.866250 0.247500
0.408750 0.866250 0.366250
0.408750 0.866250 0.485000
0.408750 0.866250 0.603750
0.408750 0.866250 0.722500
0.408750 0.866250 0.841250
0.408750 0.866250 0.960000
0.408750 0.990000 0.010000
0.408750 0.990000 0.128750
0.408750 0.990000 0.247500
0.408750 0.990000 0.366250
0.408750 0.990000 0.485000
0.408750 0.990000 0.603750
0.408750 0.990000 0.722500
0.408750 0.990000 0.841250
0.408750 0.990000 0.960000
0.540000 0.000000 0.010000
0.540000 0.000000 0.128750
0.540000 0.000000 0.247500
0.540000 0.000000 0.366250
0.540000 0.000000 0.485000
0.540000 0.000000 0.603750
0.540000 0.000000 0.722500
0.540000 0.000000 0.841250
0.540000 0.000000 0.960000
0.540000 0.123750 0.010000
0.540000 0.123750 0.128750
0.540000 0.123750 0.247500
0.540000 0.123750 0.366250
0.540000 0.123750 0.485000
0.540000 0.123750 0.603750
0.540000 0.123750 0.722500
0.540000 0.123750 0.841250
0.540000 0.123750 0.960000
0.540000 0.247500 0.010000
0.540000 0.247500 0.128750
0.540000 0.247500 0.247500
0.540000 0.247500 0.366250
0.540000 0.247500 0.485000
0.540000 0.247500 0.603750
0.540000 0.247500 0.722500
0.540000 0.247500 0.841250
0.540000 0.247500 0.960000
0.540000 0.371250 0.010000
0.540000 0.371250 0.128750
0.540000 0.371250 0.247500
0.540000 0.371250 0.366250
0.540000 0.371250 0.485000
0.540000 0.371250 0.603750
0.540000 0.371250 0.722500
0.540000 0.371250 0.841250
0.540000 0.371250 0.960000
0.540000 0.495000 0.010000
0.540000 0.495000 0.128750
0.540000 0.495000 0.247500
0.540000 0.495000 0.366250
0.540000 0.495000 0.485000
0.540000 0.495000 0.603750
0.540000 0.495000 0.722500
0.540000 0.495000 0.841250
0.540000 0.495000 0.960000
0.540000 0.618750 0.010000
0.540000 0.618750 0.128750
0.540000 0.618750 0.247500
0.540000 0.618750 0.366250
0.540000 0.618750 0.485000
0.540000 0.618750 0.603750
0.540000 0.618750 0.722500
0.540000 0.618750 0.841250
0.540000 0.618750 0.960000
0.540000 0.742500 0.010000
0.540000 0.742500 0.128750
0.540000 0.742500 0.247500
0.540000 0.742500 0.366250
0.540000 0.742500 0.485000
0.540000 0.742500 0.603750
0.540000 0.742500 0.722500
0.540000 0.742500 0.841250
0.540000 0.742500 0.960000
0.540000 0.866250 0.010000
0.540000 0.866250 0.128750
0.540000 0.866250 0.247500
0.540000 0.866250 0.366250
0.540000 0.866250 0.485000
0.540000 0.866250 0.603750
0.540000 0.866250 0.722500
0.540000 0.866250 0.841250
0.540000 0.866250 0.960000
0.540000 0.990000 0.010000
0.540000 0.990000 0.128750
0.540000 0.990000 0.247500
0.540000 0.990000 0.366250
0.540000 0.990000 0.485000
0.540000 0.990000 0.603750
0.540000 0.990000 0.722500
0.540000 0.990000 0.841250
0.540000 0.990000 0.960000
0.671250 0.000000 0.010000
0.671250 0.000000 0.128750
0.671250 0.000000 0.247500
0.671250 0.000000 0.366250
0.671250 0.000000 0.485000
0.671250 0.000000 0.603750
0.671250 0.000000 0.722500
0.671250 0.000000 0.841250
0.671250 0.000000 0.960000
0.671250 0.123750 0.010000
0.671250 0.123750 0.128750
0.671250 0.123750 0.247500
0.671250 0.123750 0.366250
0.671250 0.123750 0.485000
0.671250 0.123750 0.603750
0.671250 0.123750 0.722500
0.671250 0.123750 0.841250
0.671250 0.123750 0.960000
0.671250 0.247500 0.010000
0.671250 0.247500 0.128750
0.671250 0.247500 0.247500
0.671250 0.247500 0.366250
0.671250 0.247500 0.485000
0.671250 0.247500 0.603750
0.671250 0.247500 0.722500
0.671250 0.247500 0.841250
0.671250 0.247500 0.960000
0.671250 0.371250 0.010000
0.671250 0.371250 0.128750
0.671250 0.371250 0.247500
0.671250 0.371250 0.366250
0.671250 0.371250 0.485000
0.671250 0.371250 0.603750
0.671250 0.371250 0.722500
0.671250 0.371250 0.841250
0.671250 0.371250 0.960000
0.671250 0.495000 0.010000
0.671250 0.495000 0.128750
0.671250 0.495000 0.247500
0.671250 0.495000 0.366250
0.671250 0.495000 0.485000
0.671250 0.495000 0.603750
0.671250 0.495000 0.722500
0.671250 0.495000 0.841250
0.671250 0.495000 0.960000
0.671250 0.618750 0.010000
0.671250 0.618750 0.128750
0.671250 0.618750 0.247500
0.671250 0.618750 0.366250
0.671250 0.618750 0.485000
0.671250 0.618750 0.603750
0.671250 0.618750 0.722500
0.671250 0.618750 0.841250
0.671250 0.618750 0.960000
0.671250 0.742500 0.010000
0.671250 0.742500 0.128750
0.671250 0.742500 0.247500
0.671250 0.742500 0.366250
0.671250 0.742500 0.485000
0.671250 0.742500 0.603750
0.671250 0.742500 0.722500
0.671250 0.742500 0.841250
0.671250 0.742500 0.960000
0.671250 0.866250 0.010000
0.671250 0.866250 0.128750
0.671250 0.866250 0.247500
0.671250 0.866250 0.366250
0.671250 0.866250 0.485000
0.671250 0.866250 0.603750
0.671250 0.866250 0.722500
0.671250 0.866250 0.841250
0.671250 0.866250 0.960000
0.671250 0.990000 0.010000
0.671250 0.990000 0.128750
0.671250 0.990000 0.247500
0.671250 0.990000 0.366250
0.671250 0.990000 0.485000
0.671250 0.990000 0.603750
0.671250 0.990000 0.722500
0.671250 0.990000 0.841250
0.671250 0.990000 0.960000
0.802500 0.000000 0.010000
0.802500 0.000000 0.128750
0.802500 0.000000 0.247500
0.802500 0.000000 0.366250
0.802500 0.000000 0.485000
0.802500 0.000000 0.603750
0.802500 0.000000 0.722500
0.802500 0.000000 0.841250
0.802500 0.000000 0.960000
0.802500 0.123750 0.010000
0.802500 0.123750 0.128750
0.802500 0.123750 0.247500
0.802500 0.123750 0.366250
0.802500 0.123750 0.485000
0.802500 0.123750 0.603750
0.802500 0.123750 0.722500
0.802500 0.123750 0.841250
0.802500 0.123750 0.960000
0.802500 0.247500 0.010000
0.802500 0.247500 0.128750
0.802500 0.247500 0.247500
0.802500 0.247500 0.366250
0.802500 0.247500 0.485000
0.802500 0.247500 0.603750
0.802500 0.247500 0.722500
0.802500 0.247500 0.841250
0.802500 0.247500 0.960000
0.802500 0.371250 0.010000
0.802500 0.371250 0.128750
0.802500 0.371250 0.247500
0.802500 0.371250 0.366250
0.802500 0.371250 0.485000
0.802500 0.371250 0.603750
0.802500 0.371250 0.722500
0.802500 0.371250 0.841250
0.802500 0.371250 0.960000
0.802500 0.495000 0.010000
0.802500 0.495000 0.128750
0.802500 0.495000 0.247500
0.802500 0.495000 0.366250
0.802500 0.495000 0.485000
0.802500 0.495000 0.603750
0.802500 0.495000 0.722500
0.802500 0.495000 0.841250
0.802500 0.495000 0.960000
0.802500 0.618750 0.010000
0.802500 0.618750 0.128750
0.802500 0.618750 0.247500
0.802500 0.618750 0.366250
0.802500 0.618750 0.485000
0.802500 0.618750 0.603750
0.802500 0.618750 0.722500
0.802500 0.618750 0.841250
0.802500 0.618750 0.960000
0.802500 0.742500 0.010000
0.802500 0.742500 0.128750
0.802500 0.742500 0.247500
0.802500 0.742500 0.366250
0.802500 0.742500 0.485000
0.802500 0.742500 0.603750
0.802500 0.742500 0.722500
0.802500 0.742500 0.841250
0.802500 0.742500 0.960000
0.802500 0.866250 0.010000
0.802500 0.866250 0.128750
0.802500 0.866250 0.247500
0.802500 0.866250 0.366250
0.802500 0.866250 0.485000
0.802500 0.866250 0.603750
0.802500 0.866250 0.722500
0.802500 0.866250 0.841250
0.802500 0.866250 0.960000
0.802500 0.990000 0.010000
0.802500 0.990000 0.128750
0.802500 0.990000 0.247500
0.802500 0.990000 0.366250
0.802500 0.990000 0.485000
0.802500 0.990000 0.603750
0.802500 0.990000 0.722500
0.802500 0.990000 0.841250
0.802500 0.990000 0.960000
0.933750 0.000000 0.010000
0.933750 0.000000 0.128750
0.933750 0.000000 0.247500
0.933750 0.000000 0.366250
0.933750 0.000000 0.485000
0.933750 0.000000 0.603750
0.933750 0.000000 0.722500
0.933750 0.000000 0.841250
0.933750 0.000000 0.960000
0.933750 0.123750 0.010000
0.933750 0.123750 0.128750
0.933750 0.123750 0.247500
0.933750 0.123750 0.366250
0.933750 0.123750 0.485000
0.933750 0.123750 0.603750
0.933750 0.123750 0.722500
0.933750 0.123750 0.841250
0.933750 0.123750 0.960000
0.933750 0.247500 0.010000
0.933750 0.247500 0.128750
0.933750 0.247500 0.247500
0.933750 0.247500 0.366250
0.933750 0.247500 0.485000
0.933750 0.247500 0.603750
0.933750 0.247500 0.722500
0.933750 0.247500 0.841250
0.933750 0.247500 0.960000
0.933750 0.371250 0.010000
0.933750 0.371250 0.128750
0.933750 0.371250 0.247500
0.933750 0.371250 0.366250
0.933750 0.371250 0.485000
0.933750 0.371250 0.603750
0.933750 0.371250 0.722500
0.933750 0.371250 0.841250
0.933750 0.371250 0.960000
0.933750 0.495000 0.010000
0.933750 0.495000 0.128750
0.933750 0.495000 0.247500
0.933750 0.495000 0.366250
0.933750 0.495000 0.485000
0.933750 0.495000 0.603750
0.933750 0.495000 0.722500
0.933750 0.495000 0.841250
0.933750 0.495000 0.960000
0.933750 0.618750 0.010000
0.933750 0.618750 0.128750
0.933750 0.618750 0.247500
0.933750 0.618750 0.366250
0.933750 0.618750 0.485000
0.933750 0.618750 0.603750
0.933750 0.618750 0.722500
0.933750 0.618750 0.841250
0.933750 0.618750 0.960000
0.933750 0.742500 0.010000
0.933750 0.742500 0.128750
0.933750 0.742500 0.247500
0.933750 0.742500 0.366250
0.933750 0.742500 0.485000
0.933750 0.742500 0.603750
0.933750 0.742500 0.722500
0.933750 0.742500 0.841250
0.933750 0.742500 0.960000
0.933750 0.866250 0.010000
0.933750 0.866250 0.128750
0.933750 0.866250 0.247500
0.933750 0.866250 0.366250
0.933750 0.866250 0.485000
0.933750 0.866250 0.603750
0.933750 0.866250 0.722500
0.933750 0.866250 0.841250
0.933750 0.866250 0.960000
0.933750 0.990000 0.010000
0.933750 0.990000 0.128750
0.933750 0.990000 0.247500
0.933750 0.990000 0.366250
0.933750 0.990000 0.485000
0.933750 0.990000 0.603750
0.933750 0.990000 0.722500
0.933750 0.990000 0.841250
0.933750 0.990000 0.960000
1.000000 0.000000 0.010000
1.000000 0.000000 0.128750
1.000000 0.000000 0.247500
1.000000 0.000000 0.366250
1.000000 0.000000 0.485000
1.000000 0.000000 0.603750
1.000000 0.000000 0.722500
1.000000 0.000000 0.841250
1.000000 0.000000 0.960000
1.000000 0.123750 0.010000
1.000000 0.123750 0.128750
1.000000 0.123750 0.247500
1.000000 0.123750 0.366250
1.000000 0.123750 0.485000
1.000000 0.123750 0.603750
1.000000 0.123750 0.722500
1.000000 0.123750 0.841250
1.000000 0.123750 0.960000
1.000000 0.247500 0.010000
1.000000 0.247500 0.128750
1.000000 0.247500 0.247500
1.000000 0.247500 0.366250
1.000000 0.247500 0.485000
1.000000 0.247500 0.603750
1.000000 0.247500 0.722500
1.000000 0.247500 0.841250
1.000000 0.247500 0.960000
1.000000 0.371250 0.010000
1.000000 0.371250 0.128750
1.000000 0.371250 0.247500
1.000000 0.371250 0.366250
1.000000 0.371250 0.485000
1.000000 0.371250 0.603750
1.000000 0.371250 0.722500
1.000000 0.371250 0.841250
1.000000 0.371250 0.960000
1.000000 0.495000 0.010000
1.000000 0.495000 0.128750
1.000000 0.495000 0.247500
1.000000 0.495000 0.366250
1.000000 0.495000 0.485000
1.000000 0.495000 0.603750
1.000000 0.495000 0.722500
1.000000 0.495000 0.841250
1.000000 0.495000 0.960000
1.000000 0.618750 0.010000
1.000000 0.618750 0.128750
1.000000 0.618750 0.247500
1.000000 0.618750 0.366250
1.000000 0.618750 0.485000
1.000000 0.618750 0.603750
1.000000 0.618750 0.722500
1.000000 0.618750 0.841250
1.000000 0.618750 0.960000
1.000000 0.742500 0.010000
1.000000 0.742500 0.128750
1.000000 0.742500 0.247500
1.000000 0.742500 0.366250
1.000000 0.742500 0.485000
1.000000 0.742500 0.603750
1.000000 0.742500 0.722500
1.000000 0.742500 0.841250
1.000000 0.742500 0.960000
1.000000 0.866250 0.010000
1.000000 0.866250 0.128750
1.000000 0.866250 0.247500
1.000000 0.866250 0.366250
1.000000 0.866250 0.485000
1.000000 0.866250 0.603750
1.000000 0.866250 0.722500
1.000000 0.866250 0.841250
1.000000 0.866250 0.960000
1.000000 0.990000 0.010000
1.000000 0.990000 0.128750
1.000000 0.990000 0.247500
1.000000 0.990000 0.366250
1.000000 0.990000 0.485000
1.000000 0.990000 0.603750
1.000000 0.990000 0.722500
1.000000 0.990000 0.841250
1.000000 0.990000 0.960000
