src/phototools/luts/teal_orange.cube
TITLE "Teal & Orange"
LUT_3D_SIZE 33
DOMAIN_MIN 0.0 0.0 0.0
DOMAIN_MAX 1.0 1.0 1.0
0.000000 0.000000 0.000000
0.000000 0.000000 0.035937
0.000000 0.000000 0.071875
0.000000 0.000000 0.107812
0.000000 0.000000 0.143750
0.000000 0.000000 0.179688
0.000000 0.000000 0.215625
0.000000 0.000000 0.251563
0.000000 0.000000 0.287500
0.000000 0.000000 0.323437
0.000000 0.000000 0.359375
0.000000 0.000000 0.395312
0.000000 0.000000 0.431250
0.000000 0.000000 0.467187
0.000000 0.000000 0.503125
0.000000 0.000000 0.539062
0.000000 0.000000 0.575000
0.000000 0.000000 0.610937
0.000000 0.000000 0.646875
0.000000 0.000000 0.682813
0.000000 0.000000 0.718750
0.000000 0.000000 0.754687
0.000000 0.000000 0.790625
0.000000 0.000000 0.826562
0.000000 0.000000 0.862500
0.000000 0.000000 0.898438
0.000000 0.000000 0.934375
0.000000 0.000000 0.970312
0.000000 0.000000 1.000000
0.000000 0.000000 1.000000
0.000000 0.000000 1.000000
0.000000 0.000000 1.000000
0.000000 0.000000 1.000000
0.000000 0.029687 0.000000
0.000000 0.029687 0.035937
0.000000 0.029687 0.071875
0.000000 0.029687 0.107812
0.000000 0.029687 0.143750
0.000000 0.029687 0.179688
0.000000 0.029687 0.215625
0.000000 0.029687 0.251563
0.000000 0.029687 0.287500
0.000000 0.029687 0.323437
0.000000 0.029687 0.359375
0.000000 0.029687 0.395312
0.000000 0.029687 0.431250
0.000000 0.029687 0.467187
0.000000 0.029687 0.503125
0.000000 0.029687 0.539062
0.000000 0.029687 0.575000
0.000000 0.029687 0.610937
0.000000 0.029687 0.646875
0.000000 0.029687 0.682813
0.000000 0.029687 0.718750
0.000000 0.029687 0.754687
0.000000 0.029687 0.790625
0.000000 0.029687 0.826562
0.000000 0.029687 0.862500
0.000000 0.029687 0.898438
0.000000 0.029687 0.934375
0.000000 0.029687 0.970312
0.000000 0.029687 1.000000
0.000000 0.029687 1.000000
0.000000 0.029687 1.000000
0.000000 0.029687 1.000000
0.000000 0.029687 1.000000
0.000000 0.059375 0.000000
0.000000 0.059375 0.035937
0.000000 0.059375 0.071875
0.000000 0.059375 0.107812
0.000000 0.059375 0.143750
0.000000 0.059375 0.179688
0.000000 0.059375 0.215625
0.000000 0.059375 0.251563
0.000000 0.059375 0.287500
0.000000 0.059375 0.323437
0.000000 0.059375 0.359375
0.000000 0.059375 0.395312
0.000000 0.059375 0.431250
0.000000 0.059375 0.467187
0.000000 0.059375 0.503125
0.000000 0.059375 0.539062
0.000000 0.059375 0.575000
0.000000 0.059375 0.610937
0.000000 0.059375 0.646875
0.000000 0.059375 0.682813
0.000000 0.059375 0.718750
0.000000 0.059375 0.754687
0.000000 0.059375 0.790625
0.000000 0.059375 0.826562
0.000000 0.059375 0.862500
0.000000 0.059375 0.898438
0.000000 0.059375 0.934375
0.000000 0.059375 0.970312
0.000000 0.059375 1.000000
0.000000 0.059375 1.000000
0.000000 0.059375 1.000000
0.000000 0.059375 1.000000
0.000000 0.059375 1.000000
0.000000 0.089062 0.000000
0.000000 0.089062 0.035937
0.000000 0.089062 0.071875
0.000000 0.089062 0.107812
0.000000 0.089062 0.143750
0.000000 0.089062 0.179688
0.000000 0.089062 0.215625
0.000000 0.089062 0.251563
0.000000 0.089062 0.287500
0.000000 0.089062 0.323437
0.000000 0.089062 0.359375
0.000000 0.089062 0.395312
0.000000 0.089062 0.431250
0.000000 0.089062 0.467187
0.000000 0.089062 0.503125
0.000000 0.089062 0.539062
0.000000 0.089062 0.575000
0.000000 0.089062 0.610937
0.000000 0.089062 0.646875
0.000000 0.089062 0.682813
0.000000 0.089062 0.718750
0.000000 0.089062 0.754687
0.000000 0.089062 0.790625
0.000000 0.089062 0.826562
0.000000 0.089062 0.862500
0.000000 0.089062 0.898438
0.000000 0.089062 0.934375
0.000000 0.089062 0.970312
0.000000 0.089062 1.000000
0.000000 0.089062 1.000000
0.000000 0.089062 1.000000
0.000000 0.089062 1.000000
0.000000 0.089062 1.000000
0.000000 0.118750 0.000000
0.000000 0.118750 0.035937
0.000000 0.118750 0.071875
0.000000 0.118750 0.107812
0.000000 0.118750 0.143750
0.000000 0.118750 0.179688
0.000000 0.118750 0.215625
0.000000 0.118750 0.251563
0.000000 0.118750 0.287500
0.000000 0.118750 0.323437
0.000000 0.118750 0.359375
0.000000 0.118750 0.395312
0.000000 0.118750 0.431250
0.000000 0.118750 0.467187
0.000000 0.118750 0.503125
0.000000 0.118750 0.539062
0.000000 0.118750 0.575000
0.000000 0.118750 0.610937
0.000000 0.118750 0.646875
0.000000 0.118750 0.682813
0.000000 0.118750 0.718750
0.000000 0.118750 0.754687
0.000000 0.118750 0.790625
0.000000 0.118750 0.826562
0.000000 0.118750 0.862500
0.000000 0.118750 0.898438
0.000000 0.118750 0.934375
0.000000 0.118750 0.970312
0.000000 0.118750 1.000000
0.000000 0.118750 1.000000
0.000000 0.118750 1.000000
0.000000 0.118750 1.000000
0.000000 0.118750 1.000000
0.000000 0.148438 0.000000
0.000000 0.148438 0.035937
0.000000 0.148438 0.071875
0.000000 0.148438 0.107812
0.000000 0.148438 0.143750
0.000000 0.148438 0.179688
0.000000 0.148438 0.215625
0.000000 0.148438 0.251563
0.000000 0.148438 0.287500
0.000000 0.148438 0.323437
0.000000 0.148438 0.359375
0.000000 0.148438 0.395312
0.000000 0.148438 0.431250
0.000000 0.148438 0.467187
0.000000 0.148438 0.503125
0.000000 0.148438 0.539062
0.000000 0.148438 0.575000
0.000000 0.148438 0.610937
0.000000 0.148438 0.646875
0.000000 0.148438 0.682813
0.000000 0.148438 0.718750
0.000000 0.148438 0.754687
0.000000 0.148438 0.790625
0.000000 0.148438 0.826562
0.000000 0.148438 0.862500
0.000000 0.148438 0.898438
0.000000 0.148438 0.934375
0.000000 0.148438 0.970312
0.000000 0.148438 1.000000
0.000000 0.148438 1.000000
0.000000 0.148438 1.000000
0.000000 0.148438 1.000000
0.000000 0.148438 1.000000
0.000000 0.178125 0.000000
0.000000 0.178125 0.035937
0.000000 0.178125 0.071875
0.000000 0.178125 0.107812
0.000000 0.178125 0.143750
0.000000 0.178125 0.179688
0.000000 0.178125 0.215625
0.000000 0.178125 0.251563
0.000000 0.178125 0.287500
0.000000 0.178125 0.323437
0.000000 0.178125 0.359375
0.000000 0.178125 0.395312
0.000000 0.178125 0.431250
0.000000 0.178125 0.467187
0.000000 0.178125 0.503125
0.000000 0.178125 0.539062
0.000000 0.178125 0.575000
0.000000 0.178125 0.610937
0.000000 0.178125 0.646875
0.000000 0.178125 0.682813
0.000000 0.178125 0.718750
0.000000 0.178125 0.754687
0.000000 0.178125 0.790625
0.000000 0.178125 0.826562
0.000000 0.178125 0.862500
0.000000 0.178125 0.898438
0.000000 0.178125 0.934375
0.000000 0.178125 0.970312
0.000000 0.178125 1.000000
0.000000 0.178125 1.000000
0.000000 0.178125 1.000000
0.000000 0.178125 1.000000
0.000000 0.178125 1.000000
0.000000 0.207813 0.000000
0.000000 0.207813 0.035937
0.000000 0.207813 0.071875
0.000000 0.207813 0.107812
0.000000 0.207813 0.143750
0.000000 0.207813 0.179688
0.000000 0.207813 0.215625
0.000000 0.207813 0.251563
0.000000 0.207813 0.287500
0.000000 0.207813 0.323437
0.000000 0.207813 0.359375
0.000000 0.207813 0.395312
0.000000 0.207813 0.431250
0.000000 0.207813 0.467187
0.000000 0.207813 0.503125
0.000000 0.207813 0.539062
0.000000 0.207813 0.575000
0.000000 0.207813 0.610937
0.000000 0.207813 0.646875
0.000000 0.207813 0.682813
0.000000 0.207813 0.718750
0.000000 0.207813 0.754687
0.000000 0.207813 0.790625
0.000000 0.207813 0.826562
0.000000 0.207813 0.862500
0.000000 0.207813 0.898438
0.000000 0.207813 0.934375
0.000000 0.207813 0.970312
0.000000 0.207813 1.000000
0.000000 0.207813 1.000000
0.000000 0.207813 1.000000
0.000000 0.207813 1.000000
0.000000 0.207813 1.000000
0.000000 0.237500 0.000000
0.000000 0.237500 0.035937
0.000000 0.237500 0.071875
0.000000 0.237500 0.107812
0.000000 0.237500 0.143750
0.000000 0.237500 0.179688
0.000000 0.237500 0.215625
0.000000 0.237500 0.251563
0.000000 0.237500 0.287500
0.000000 0.237500 0.323437
0.000000 0.237500 0.359375
0.000000 0.237500 0.395312
0.000000 0.237500 0.431250
0.000000 0.237500 0.467187
0.000000 0.237500 0.503125
0.000000 0.237500 0.539062
0.000000 0.237500 0.575000
0.000000 0.237500 0.610937
0.000000 0.237500 0.646875
0.000000 0.237500 0.682813
0.000000 0.237500 0.718750
0.000000 0.237500 0.754687
0.000000 0.237500 0.790625
0.000000 0.237500 0.826562
0.000000 0.237500 0.862500
0.000000 0.237500 0.898438
0.000000 0.237500 0.934375
0.000000 0.237500 0.970312
0.000000 0.237500 1.000000
0.000000 0.237500 1.000000
0.000000 0.237500 1.000000
0.000000 0.237500 1.000000
0.000000 0.237500 1.000000
0.000000 0.267188 0.000000
0.000000 0.267188 0.035937
0.000000 0.267188 0.071875
0.000000 0.267188 0.107812
0.000000 0.267188 0.143750
0.000000 0.267188 0.179688
0.000000 0.267188 0.215625
0.000000 0.267188 0.251563
0.000000 0.267188 0.287500
0.000000 0.267188 0.323437
0.000000 0.267188 0.359375
0.000000 0.267188 0.395312
0.000000 0.267188 0.431250
0.000000 0.267188 0.467187
0.000000 0.267188 0.503125
0.000000 0.267188 0.539062
0.000000 0.267188 0.575000
0.000000 0.267188 0.610937
0.000000 0.267188 0.646875
0.000000 0.267188 0.682813
0.000000 0.267188 0.718750
0.000000 0.267188 0.754687
0.000000 0.267188 0.790625
0.000000 0.267188 0.826562
0.000000 0.267188 0.862500
0.000000 0.267188 0.898438
0.000000 0.267188 0.934375
0.000000 0.267188 0.970312
0.000000 0.267188 1.000000
0.000000 0.267188 1.000000
0.000000 0.267188 1.000000
0.000000 0.267188 1.000000
0.000000 0.267188 1.000000
0.000000 0.296875 0.000000
0.000000 0.296875 0.035937
0.000000 0.296875 0.071875
0.000000 0.296875 0.107812
0.000000 0.296875 0.143750
0.000000 0.296875 0.179688
0.000000 0.296875 0.215625
0.000000 0.296875 0.251563
0.000000 0.296875 0.287500
0.000000 0.296875 0.323437
0.000000 0.296875 0.359375
0.000000 0.296875 0.395312
0.000000 0.296875 0.431250
0.000000 0.296875 0.467187
0.000000 0.296875 0.503125
0.000000 0.296875 0.539062
0.000000 0.296875 0.575000
0.000000 0.296875 0.610937
0.000000 0.296875 0.646875
0.000000 0.296875 0.682813
0.000000 0.296875 0.718750
0.000000 0.296875 0.754687
0.000000 0.296875 0.790625
0.000000 0.296875 0.826562
0.000000 0.296875 0.862500
0.000000 0.296875 0.898438
0.000000 0.296875 0.934375
0.000000 0.296875 0.970312
0.000000 0.296875 1.000000
0.000000 0.296875 1.000000
0.000000 0.296875 1.000000
0.000000 0.296875 1.000000
0.000000 0.296875 1.000000
0.000000 0.326562 0.000000
0.000000 0.326562 0.035937
0.000000 0.326562 0.071875
0.000000 0.326562 0.107812
0.000000 0.326562 0.143750
0.000000 0.326562 0.179688
0.000000 0.326562 0.215625
0.000000 0.326562 0.251563
0.000000 0.326562 0.287500
0.000000 0.326562 0.323437
0.000000 0.326562 0.359375
0.000000 0.326562 0.395312
0.000000 0.326562 0.431250
0.000000 0.326562 0.467187
0.000000 0.326562 0.503125
0.000000 0.326562 0.539062
0.000000 0.326562 0.575000
0.000000 0.326562 0.610937
0.000000 0.326562 0.646875
0.000000 0.326562 0.682813
0.000000 0.326562 0.718750
0.000000 0.326562 0.754687
0.000000 0.326562 0.790625
0.000000 0.326562 0.826562
0.000000 0.326562 0.862500
0.000000 0.326562 0.898438
0.000000 0.326562 0.934375
0.000000 0.326562 0.970312
0.000000 0.326562 1.000000
0.000000 0.326562 1.000000
0.000000 0.326562 1.000000
0.000000 0.326562 1.000000
0.000000 0.326562 1.000000
0.000000 0.356250 0.000000
0.000000 0.356250 0.035937
0.000000 0.356250 0.071875
0.000000 0.356250 0.107812
0.000000 0.356250 0.143750
0.000000 0.356250 0.179688
0.000000 0.356250 0.215625
0.000000 0.356250 0.251563
0.000000 0.356250 0.287500
0.000000 0.356250 0.323437
0.000000 0.356250 0.359375
0.000000 0.356250 0.395312
0.000000 0.356250 0.431250
0.000000 0.356250 0.467187
0.000000 0.356250 0.503125
0.000000 0.356250 0.539062
0.000000 0.356250 0.575000
0.000000 0.356250 0.610937
0.000000 0.356250 0.646875
0.000000 0.356250 0.682813
0.000000 0.356250 0.718750
0.000000 0.356250 0.754687
0.000000 0.356250 0.790625
0.000000 0.356250 0.826562
0.000000 0.356250 0.862500
0.000000 0.356250 0.898438
0.000000 0.356250 0.934375
0.000000 0.356250 0.970312
0.000000 0.356250 1.000000
0.000000 0.356250 1.000000
0.000000 0.356250 1.000000
0.000000 0.356250 1.000000
0.000000 0.356250 1.000000
0.000000 0.385937 0.000000
0.000000 0.385937 0.035937
0.000000 0.385937 0.071875
0.000000 0.385937 0.107812
0.000000 0.385937 0.143750
0.000000 0.385937 0.179688
0.000000 0.385937 0.215625
0.000000 0.385937 0.251563
0.000000 0.385937 0.287500
0.000000 0.385937 0.323437
0.000000 0.385937 0.359375
0.000000 0.385937 0.395312
0.000000 0.385937 0.431250
0.000000 0.385937 0.467187
0.000000 0.385937 0.503125
0.000000 0.385937 0.539062
0.000000 0.385937 0.575000
0.000000 0.385937 0.610937
0.000000 0.385937 0.646875
0.000000 0.385937 0.682813
0.000000 0.385937 0.718750
0.000000 0.385937 0.754687
0.000000 0.385937 0.790625
0.000000 0.385937 0.826562
0.000000 0.385937 0.862500
0.000000 0.385937 0.898438
0.000000 0.385937 0.934375
0.000000 0.385937 0.970312
0.000000 0.385937 1.000000
0.000000 0.385937 1.000000
0.000000 0.385937 1.000000
0.000000 0.385937 1.000000
0.000000 0.385937 1.000000
0.000000 0.415625 0.000000
0.000000 0.415625 0.035937
0.000000 0.415625 0.071875
0.000000 0.415625 0.107812
0.000000 0.415625 0.143750
0.000000 0.415625 0.179688
0.000000 0.415625 0.215625
0.000000 0.415625 0.251563
0.000000 0.415625 0.287500
0.000000 0.415625 0.323437
0.000000 0.415625 0.359375
0.000000 0.415625 0.395312
0.000000 0.415625 0.431250
0.000000 0.415625 0.467187
0.000000 0.415625 0.503125
0.000000 0.415625 0.539062
0.000000 0.415625 0.575000
0.000000 0.415625 0.610937
0.000000 0.415625 0.646875
0.000000 0.415625 0.682813
0.000000 0.415625 0.718750
0.000000 0.415625 0.754687
0.000000 0.415625 0.790625
0.000000 0.415625 0.826562
0.000000 0.415625 0.862500
0.000000 0.415625 0.898438
0.000000 0.415625 0.934375
0.000000 0.415625 0.970312
0.000000 0.415625 1.000000
0.000000 0.415625 1.000000
0.000000 0.415625 1.000000
0.000000 0.415625 1.000000
0.000000 0.415625 1.000000
0.000000 0.445312 0.000000
0.000000 0.445312 0.035937
0.000000 0.445312 0.071875
0.000000 0.445312 0.107812
0.000000 0.445312 0.143750
0.000000 0.445312 0.179688
0.000000 0.445312 0.215625
0.000000 0.445312 0.251563
0.000000 0.445312 0.287500
0.000000 0.445312 0.323437
0.000000 0.445312 0.359375
0.000000 0.445312 0.395312
0.000000 0.445312 0.431250
0.000000 0.445312 0.467187
0.000000 0.445312 0.503125
0.000000 0.445312 0.539062
0.000000 0.445312 0.575000
0.000000 0.445312 0.610937
0.000000 0.445312 0.646875
0.000000 0.445312 0.682813
0.000000 0.445312 0.718750
0.000000 0.445312 0.754687
0.000000 0.445312 0.790625
0.000000 0.445312 0.826562
0.000000 0.445312 0.862500
0.000000 0.445312 0.898438
0.000000 0.445312 0.934375
0.000000 0.445312 0.970312
0.000000 0.445312 1.000000
0.000000 0.445312 1.000000
0.000000 0.445312 1.000000
0.000000 0.445312 1.000000
0.000000 0.445312 1.000000
0.000000 0.475000 0.000000
0.000000 0.475000 0.035937
0.000000 0.475000 0.071875
0.000000 0.475000 0.107812
0.000000 0.475000 0.143750
0.000000 0.475000 0.179688
0.000000 0.475000 0.215625
0.000000 0.475000 0.251563
0.000000 0.475000 0.287500
0.000000 0.475000 0.323437
0.000000 0.475000 0.359375
0.000000 0.475000 0.395312
0.000000 0.475000 0.431250
0.000000 0.475000 0.467187
0.000000 0.475000 0.503125
0.000000 0.475000 0.539062
0.000000 0.475000 0.575000
0.000000 0.475000 0.610937
0.000000 0.475000 0.646875
0.000000 0.475000 0.682813
0.000000 0.475000 0.718750
0.000000 0.475000 0.754687
0.000000 0.475000 0.790625
0.000000 0.475000 0.826562
0.000000 0.475000 0.862500
0.000000 0.475000 0.898438
0.000000 0.475000 0.934375
0.000000 0.475000 0.970312
0.000000 0.475000 1.000000
0.000000 0.475000 1.000000
0.000000 0.475000 1.000000
0.000000 0.475000 1.000000
0.000000 0.475000 1.000000
0.000000 0.504687 0.000000
0.000000 0.504687 0.035937
0.000000 0.504687 0.071875
0.000000 0.504687 0.107812
0.000000 0.504687 0.143750
0.000000 0.504687 0.179688
0.000000 0.504687 0.215625
0.000000 0.504687 0.251563
0.000000 0.504687 0.287500
0.000000 0.504687 0.323437
0.000000 0.504687 0.359375
0.000000 0.504687 0.395312
0.000000 0.504687 0.431250
0.000000 0.504687 0.467187
0.000000 0.504687 0.503125
0.000000 0.504687 0.539062
0.000000 0.504687 0.575000
0.000000 0.504687 0.610937
0.000000 0.504687 0.646875
0.000000 0.504687 0.682813
0.000000 0.504687 0.718750
0.000000 0.504687 0.754687
0.000000 0.504687 0.790625
0.000000 0.504687 0.826562
0.000000 0.504687 0.862500
0.000000 0.504687 0.898438
0.000000 0.504687 0.934375
0.000000 0.504687 0.970312
0.000000 0.504687 1.000000
0.000000 0.504687 1.000000
0.000000 0.504687 1.000000
0.000000 0.504687 1.000000
0.000000 0.504687 1.000000
0.000000 0.534375 0.000000
0.000000 0.534375 0.035937
0.000000 0.534375 0.071875
0.000000 0.534375 0.107812
0.000000 0.534375 0.143750
0.000000 0.534375 0.179688
0.000000 0.534375 0.215625
0.000000 0.534375 0.251563
0.000000 0.534375 0.287500
0.000000 0.534375 0.323437
0.000000 0.534375 0.359375
0.000000 0.534375 0.395312
0.000000 0.534375 0.431250
0.000000 0.534375 0.467187
0.000000 0.534375 0.503125
0.000000 0.534375 0.539062
0.000000 0.534375 0.575000
0.000000 0.534375 0.610937
0.000000 0.534375 0.646875
0.000000 0.534375 0.682813
0.000000 0.534375 0.718750
0.000000 0.534375 0.754687
0.000000 0.534375 0.790625
0.000000 0.534375 0.826562
0.000000 0.534375 0.862500
0.000000 0.534375 0.898438
0.000000 0.534375 0.934375
0.000000 0.534375 0.970312
0.000000 0.534375 1.000000
0.000000 0.534375 1.000000
0.000000 0.534375 1.000000
0.000000 0.534375 1.000000
0.000000 0.534375 1.000000
0.000000 0.564062 0.000000
0.000000 0.564062 0.035937
0.000000 0.564062 0.071875
0.000000 0.564062 0.107812
0.000000 0.564062 0.143750
0.000000 0.564062 0.179688
0.000000 0.564062 0.215625
0.000000 0.564062 0.251563
0.000000 0.564062 0.287500
0.000000 0.564062 0.323437
0.000000 0.564062 0.359375
0.000000 0.564062 0.395312
0.000000 0.564062 0.431250
0.000000 0.564062 0.467187
0.000000 0.564062 0.503125
0.000000 0.564062 0.539062
0.000000 0.564062 0.575000
0.000000 0.564062 0.610937
0.000000 0.564062 0.646875
0.000000 0.564062 0.682813
0.000000 0.564062 0.718750
0.000000 0.564062 0.754687
0.000000 0.564062 0.790625
0.000000 0.564062 0.826562
0.000000 0.564062 0.862500
0.000000 0.564062 0.898438
0.000000 0.564062 0.934375
0.000000 0.564062 0.970312
0.000000 0.564062 1.000000
0.000000 0.564062 1.000000
0.000000 0.564062 1.000000
0.000000 0.564062 1.000000
0.000000 0.564062 1.000000
0.000000 0.593750 0.000000
0.000000 0.593750 0.035937
0.000000 0.593750 0.071875
0.000000 0.593750 0.107812
0.000000 0.593750 0.143750
0.000000 0.593750 0.179688
0.000000 0.593750 0.215625
0.000000 0.593750 0.251563
0.000000 0.593750 0.287500
0.000000 0.593750 0.323437
0.000000 0.593750 0.359375
0.000000 0.593750 0.395312
0.000000 0.593750 0.431250
0.000000 0.593750 0.467187
0.000000 0.593750 0.503125
0.000000 0.593750 0.539062
0.000000 0.593750 0.575000
0.000000 0.593750 0.610937
0.000000 0.593750 0.646875
0.000000 0.593750 0.682813
0.000000 0.593750 0.718750
0.000000 0.593750 0.754687
0.000000 0.593750 0.790625
0.000000 0.593750 0.826562
0.000000 0.593750 0.862500
0.000000 0.593750 0.898438
0.000000 0.593750 0.934375
0.000000 0.593750 0.970312
0.000000 0.593750 1.000000
0.000000 0.593750 1.000000
0.000000 0.593750 1.000000
0.000000 0.593750 1.000000
0.000000 0.593750 1.000000
0.000000 0.623437 0.000000
0.000000 0.623437 0.035937
0.000000 0.623437 0.071875
0.000000 0.623437 0.107812
0.000000 0.623437 0.143750
0.000000 0.623437 0.179688
0.000000 0.623437 0.215625
0.000000 0.623437 0.251563
0.000000 0.623437 0.287500
0.000000 0.623437 0.323437
0.000000 0.623437 0.359375
0.000000 0.623437 0.395312
0.000000 0.623437 0.431250
0.000000 0.623437 0.467187
0.000000 0.623437 0.503125
0.000000 0.623437 0.539062
0.000000 0.623437 0.575000
0.000000 0.623437 0.610937
0.000000 0.623437 0.646875
0.000000 0.623437 0.682813
0.000000 0.623437 0.718750
0.000000 0.623437 0.754687
0.000000 0.623437 0.790625
0.000000 0.623437 0.826562
0.000000 0.623437 0.862500
0.000000 0.623437 0.898438
0.000000 0.623437 0.934375
0.000000 0.623437 0.970312
0.000000 0.623437 1.000000
0.000000 0.623437 1.000000
0.000000 0.623437 1.000000
0.000000 0.623437 1.000000
0.000000 0.623437 1.000000
0.000000 0.653125 0.000000
0.000000 0.653125 0.035937
0.000000 0.653125 0.071875
0.000000 0.653125 0.107812
0.000000 0.653125 0.143750
0.000000 0.653125 0.179688
0.000000 0.653125 0.215625
0.000000 0.653125 0.251563
0.000000 0.653125 0.287500
0.000000 0.653125 0.323437
0.000000 0.653125 0.359375
0.000000 0.653125 0.395312
0.000000 0.653125 0.431250
0.000000 0.653125 0.467187
0.000000 0.653125 0.503125
0.000000 0.653125 0.539062
0.000000 0.653125 0.575000
0.000000 0.653125 0.610937
0.000000 0.653125 0.646875
0.000000 0.653125 0.682813
0.000000 0.653125 0.718750
0.000000 0.653125 0.754687
0.000000 0.653125 0.790625
0.000000 0.653125 0.826562
0.000000 0.653125 0.862500
0.000000 0.653125 0.898438
0.000000 0.653125 0.934375
0.000000 0.653125 0.970312
0.000000 0.721875 0.743750
0.000000 0.721875 0.770313
0.000000 0.721875 0.796875
0.000000 0.721875 0.823438
0.000000 0.721875 0.850000
0.000000 0.682813 0.000000
0.000000 0.682813 0.035937
0.000000 0.682813 0.071875
0.000000 0.682813 0.107812
0.000000 0.682813 0.143750
0.000000 0.682813 0.179688
0.000000 0.682813 0.215625
0.000000 0.682813 0.251563
0.000000 0.682813 0.287500
0.000000 0.682813 0.323437
0.000000 0.682813 0.359375
0.000000 0.682813 0.395312
0.000000 0.682813 0.431250
0.000000 0.682813 0.467187
0.000000 0.682813 0.503125
0.000000 0.682813 0.539062
0.000000 0.682813 0.575000
0.000000 0.682813 0.610937
0.000000 0.682813 0.646875
0.000000 0.682813 0.682813
0.000000 0.682813 0.718750
0.000000 0.682813 0.754687
0.000000 0.754687 0.584375
0.000000 0.754687 0.610938
0.000000 0.754687 0.637500
0.000000 0.754687 0.664062
0.000000 0.754687 0.690625
0.000000 0.754687 0.717188
0.000000 0.754687 0.743750
0.000000 0.754687 0.770313
0.000000 0.754687 0.796875
0.000000 0.754687 0.823438
0.000000 0.754687 0.850000
0.000000 0.712500 0.000000
0.000000 0.712500 0.035937
0.000000 0.712500 0.071875
0.000000 0.712500 0.107812
0.000000 0.712500 0.143750
0.000000 0.712500 0.179688
0.000000 0.712500 0.215625
0.000000 0.712500 0.251563
0.000000 0.712500 0.287500
0.000000 0.712500 0.323437
0.000000 0.712500 0.359375
0.000000 0.712500 0.395312
0.000000 0.712500 0.431250
0.000000 0.712500 0.467187
0.000000 0.712500 0.503125
0.000000 0.712500 0.539062
0.000000 0.712500 0.575000
0.000000 0.787500 0.451563
0.000000 0.787500 0.478125
0.000000 0.787500 0.504687
0.000000 0.787500 0.531250
0.000000 0.787500 0.557813
0.000000 0.787500 0.584375
0.000000 0.787500 0.610938
0.000000 0.787500 0.637500
0.000000 0.787500 0.664062
0.000000 0.787500 0.690625
0.000000 0.787500 0.717188
0.000000 0.787500 0.743750
0.000000 0.787500 0.770313
0.000000 0.787500 0.796875
0.000000 0.787500 0.823438
0.000000 0.787500 0.850000
0.000000 0.742188 0.000000
0.000000 0.742188 0.035937
0.000000 0.742188 0.071875
0.000000 0.742188 0.107812
0.000000 0.742188 0.143750
0.000000 0.742188 0.179688
0.000000 0.742188 0.215625
0.000000 0.742188 0.251563
0.000000 0.742188 0.287500
0.000000 0.742188 0.323437
0.000000 0.742188 0.359375
0.000000 0.742188 0.395312
0.000000 0.820312 0.318750
0.000000 0.820312 0.345313
0.000000 0.820312 0.371875
0.000000 0.820312 0.398438
0.000000 0.820312 0.425000
0.000000 0.820312 0.451563
0.000000 0.820312 0.478125
0.000000 0.820312 0.504687
0.000000 0.820312 0.531250
0.000000 0.820312 0.557813
0.000000 0.820312 0.584375
0.000000 0.820312 0.610938
0.000000 0.820312 0.637500
0.000000 0.820312 0.664062
0.000000 0.820312 0.690625
0.000000 0.820312 0.717188
0.000000 0.820312 0.743750
0.000000 0.820312 0.770313
0.000000 0.820312 0.796875
0.000000 0.820312 0.823438
0.000000 0.820312 0.850000
0.000000 0.771875 0.000000
0.000000 0.771875 0.035937
0.000000 0.771875 0.071875
0.000000 0.771875 0.107812
0.000000 0.771875 0.143750
0.000000 0.771875 0.179688
0.000000 0.771875 0.215625
0.000000 0.853125 0.185938
0.000000 0.853125 0.212500
0.000000 0.853125 0.239063
0.000000 0.853125 0.265625
0.000000 0.853125 0.292188
0.000000 0.853125 0.318750
0.000000 0.853125 0.345313
0.000000 0.853125 0.371875
0.000000 0.853125 0.398438
0.000000 0.853125 0.425000
0.000000 0.853125 0.451563
0.000000 0.853125 0.478125
0.000000 0.853125 0.504687
0.000000 0.853125 0.531250
0.000000 0.853125 0.557813
0.000000 0.853125 0.584375
0.000000 0.853125 0.610938
0.000000 0.853125 0.637500
0.000000 0.853125 0.664062
0.000000 0.853125 0.690625
