src/phototools/luts/teal_orange.cube
TITLE "Teal & Orange"
LUT_3D_SIZE 9
DOMAIN_MIN 0.0 0.0 0.0
DOMAIN_MAX 1.0 1.0 1.0
0.000000 0.000000 0.000000
0.000000 0.000000 0.143750
0.000000 0.000000 0.287500
0.000000 0.000000 0.431250
0.000000 0.000000 0.575000
0.000000 0.000000 0.718750
0.000000 0.000000 0.862500
0.000000 0.000000 1.000000
0.000000 0.000000 1.000000
0.000000 0.118750 0.000000
0.000000 0.118750 0.143750
0.000000 0.118750 0.287500
0.000000 0.118750 0.431250
0.000000 0.118750 0.575000
0.000000 0.118750 0.718750
0.000000 0.118750 0.862500
0.000000 0.118750 1.000000
0.000000 0.118750 1.000000
0.000000 0.237500 0.000000
0.000000 0.237500 0.143750
0.000000 0.237500 0.287500
0.000000 0.237500 0.431250
0.000000 0.237500 0.575000
0.000000 0.237500 0.718750
0.000000 0.237500 0.862500
0.000000 0.237500 1.000000
0.000000 0.237500 1.000000
0.000000 0.356250 0.000000
0.000000 0.356250 0.143750
0.000000 0.356250 0.287500
0.000000 0.356250 0.431250
0.000000 0.356250 0.575000
0.000000 0.356250 0.718750
0.000000 0.356250 0.862500
0.000000 0.356250 1.000000
0.000000 0.356250 1.000000
0.000000 0.475000 0.000000
0.000000 0.475000 0.143750
0.000000 0.475000 0.287500
0.000000 0.475000 0.431250
0.000000 0.475000 0.575000
0.000000 0.475000 0.718750
0.000000 0.475000 0.862500
0.000000 0.475000 1.000000
0.000000 0.475000 1.000000
0.000000 0.593750 0.000000
0.000000 0.593750 0.143750
0.000000 0.593750 0.287500
0.000000 0.593750 0.431250
0.000000 0.593750 0.575000
0.000000 0.593750 0.718750
0.000000 0.593750 0.862500
0.000000 0.593750 1.000000
0.000000 0.593750 1.000000
0.000000 0.712500 0.000000
0.000000 0.712500 0.143750
0.000000 0.712500 0.287500
0.000000 0.712500 0.431250
0.000000 0.712500 0.575000
0.000000 0.787500 0.531250
0.000000 0.787500 0.637500
0.000000 0.787500 0.743750
0.000000 0.787500 0.850000
0.000000 0.918750 0.000000
0.000000 0.918750 0.106250
0.000000 0.918750 0.212500
0.000000 0.918750 0.318750
0.000000 0.918750 0.425000
0.000000 0.918750 0.531250
0.000000 0.918750 0.637500
0.000000 0.918750 0.743750
0.000000 0.918750 0.850000
0.000000 1.000000 0.000000
0.000000 1.000000 0.106250
0.000000 1.000000 0.212500
0.000000 1.000000 0.318750
0.000000 1.000000 0.425000
0.000000 1.000000 0.531250
0.000000 1.000000 0.637500
0.000000 1.000000 0.743750
0.000000 1.000000 0.850000
0.106250 0.000000 0.000000
0.106250 0.000000 0.143750
0.106250 0.000000 0.287500
0.106250 0.000000 0.431250
0.106250 0.000000 0.575000
0.106250 0.000000 0.718750
0.106250 0.000000 0.862500
0.106250 0.000000 1.000000
0.106250 0.000000 1.000000
0.106250 0.118750 0.000000
0.106250 0.118750 0.143750
0.106250 0.118750 0.287500
0.106250 0.118750 0.431250
0.106250 0.118750 0.575000
0.106250 0.118750 0.718750
0.106250 0.118750 0.862500
0.106250 0.118750 1.000000
0.106250 0.118750 1.000000
0.106250 0.237500 0.000000
0.106250 0.237500 0.143750
0.106250 0.237500 0.287500
0.106250 0.237500 0.431250
0.106250 0.237500 0.575000
0.106250 0.237500 0.718750
0.106250 0.237500 0.862500
0.106250 0.237500 1.000000
0.106250 0.237500 1.000000
0.106250 0.356250 0.000000
0.106250 0.356250 0.143750
0.106250 0.356250 0.287500
0.106250 0.356250 0.431250
0.106250 0.356250 0.575000
0.106250 0.356250 0.718750
0.106250 0.356250 0.862500
0.106250 0.356250 1.000000
0.106250 0.356250 1.000000
0.106250 0.475000 0.000000
0.106250 0.475000 0.143750
0.106250 0.475000 0.287500
0.106250 0.475000 0.431250
0.106250 0.475000 0.575000
0.106250 0.475000 0.718750
0.106250 0.475000 0.862500
0.106250 0.475000 1.000000
0.106250 0.475000 1.000000
0.106250 0.593750 0.000000
0.106250 0.593750 0.143750
0.106250 0.593750 0.287500
0.106250 0.593750 0.431250
0.106250 0.593750 0.575000
0.106250 0.593750 0.718750
0.106250 0.593750 0.862500
0.143750 0.656250 0.743750
0.143750 0.656250 0.850000
0.106250 0.712500 0.000000
0.106250 0.712500 0.143750
0.143750 0.787500 0.212500
0.143750 0.787500 0.318750
0.143750 0.787500 0.425000
0.143750 0.787500 0.531250
0.143750 0.787500 0.637500
0.143750 0.787500 0.743750
0.143750 0.787500 0.850000
0.143750 0.918750 0.000000
0.143750 0.918750 0.106250
0.143750 0.918750 0.212500
0.143750 0.918750 0.318750
0.143750 0.918750 0.425000
0.143750 0.918750 0.531250
0.143750 0.918750 0.637500
0.143750 0.918750 0.743750
0.143750 0.918750 0.850000
0.143750 1.000000 0.000000
0.143750 1.000000 0.106250
0.143750 1.000000 0.212500
0.143750 1.000000 0.318750
0.143750 1.000000 0.425000
0.143750 1.000000 0.531250
0.143750 1.000000 0.637500
0.143750 1.000000 0.743750
0.143750 1.000000 0.850000
0.212500 0.000000 0.000000
0.212500 0.000000 0.143750
0.212500 0.000000 0.287500
0.212500 0.000000 0.431250
0.212500 0.000000 0.575000
0.212500 0.000000 0.718750
0.212500 0.000000 0.862500
0.212500 0.000000 1.000000
0.212500 0.000000 1.000000
0.212500 0.118750 0.000000
0.212500 0.118750 0.143750
0.212500 0.118750 0.287500
0.212500 0.118750 0.431250
0.212500 0.118750 0.575000
0.212500 0.118750 0.718750
0.212500 0.118750 0.862500
0.212500 0.118750 1.000000
0.212500 0.118750 1.000000
0.212500 0.237500 0.000000
0.212500 0.237500 0.143750
0.212500 0.237500 0.287500
0.212500 0.237500 0.431250
0.212500 0.237500 0.575000
0.212500 0.237500 0.718750
0.212500 0.237500 0.862500
0.212500 0.237500 1.000000
0.212500 0.237500 1.000000
0.212500 0.356250 0.000000
0.212500 0.356250 0.143750
0.212500 0.356250 0.287500
0.212500 0.356250 0.431250
0.212500 0.356250 0.575000
0.212500 0.356250 0.718750
0.212500 0.356250 0.862500
0.212500 0.356250 1.000000
0.212500 0.356250 1.000000
0.212500 0.475000 0.000000
0.212500 0.475000 0.143750
0.212500 0.475000 0.287500
0.212500 0.475000 0.431250
0.212500 0.475000 0.575000
0.212500 0.475000 0.718750
0.212500 0.475000 0.862500
0.212500 0.475000 1.000000
0.212500 0.475000 1.000000
0.212500 0.593750 0.000000
0.212500 0.593750 0.143750
0.212500 0.593750 0.287500
0.212500 0.593750 0.431250
0.212500 0.593750 0.575000
0.287500 0.656250 0.531250
0.287500 0.656250 0.637500
0.287500 0.656250 0.743750
0.287500 0.656250 0.850000
0.287500 0.787500 0.000000
0.287500 0.787500 0.106250
0.287500 0.787500 0.212500
0.287500 0.787500 0.318750
0.287500 0.787500 0.425000
0.287500 0.787500 0.531250
0.287500 0.787500 0.637500
0.287500 0.787500 0.743750
0.287500 0.787500 0.850000
0.287500 0.918750 0.000000
0.287500 0.918750 0.106250
0.287500 0.918750 0.212500
0.287500 0.918750 0.318750
0.287500 0.918750 0.425000
0.287500 0.918750 0.531250
0.287500 0.918750 0.637500
0.287500 0.918750 0.743750
0.287500 0.918750 0.850000
0.287500 1.000000 0.000000
0.287500 1.000000 0.106250
0.287500 1.000000 0.212500
0.287500 1.000000 0.318750
0.287500 1.000000 0.425000
0.287500 1.000000 0.531250
0.287500 1.000000 0.637500
0.287500 1.000000 0.743750
0.287500 1.000000 0.850000
0.318750 0.000000 0.000000
0.318750 0.000000 0.143750
0.318750 0.000000 0.287500
0.318750 0.000000 0.431250
0.318750 0.000000 0.575000
0.318750 0.000000 0.718750
0.318750 0.000000 0.862500
0.318750 0.000000 1.000000
0.318750 0.000000 1.000000
0.318750 0.118750 0.000000
0.318750 0.118750 0.143750
0.318750 0.118750 0.287500
0.318750 0.118750 0.431250
0.318750 0.118750 0.575000
0.318750 0.118750 0.718750
0.318750 0.118750 0.862500
0.318750 0.118750 1.000000
0.318750 0.118750 1.000000
0.318750 0.237500 0.000000
0.318750 0.237500 0.143750
0.318750 0.237500 0.287500
0.318750 0.237500 0.431250
0.318750 0.237500 0.575000
0.318750 0.237500 0.718750
0.318750 0.237500 0.862500
0.318750 0.237500 1.000000
0.318750 0.237500 1.000000
0.318750 0.356250 0.000000
0.318750 0.356250 0.143750
0.318750 0.356250 0.287500
0.318750 0.356250 0.431250
0.318750 0.356250 0.575000
0.318750 0.356250 0.718750
0.318750 0.356250 0.862500
0.318750 0.356250 1.000000
0.318750 0.356250 1.000000
0.318750 0.475000 0.000000
0.318750 0.475000 0.143750
0.318750 0.475000 0.287500
0.318750 0.475000 0.431250
0.318750 0.475000 0.575000
0.318750 0.475000 0.718750
0.318750 0.475000 0.862500
0.431250 0.525000 0.743750
0.431250 0.525000 0.850000
0.318750 0.593750 0.000000
0.318750 0.593750 0.143750
0.431250 0.656250 0.212500
0.431250 0.656250 0.318750
0.431250 0.656250 0.425000
0.431250 0.656250 0.531250
0.431250 0.656250 0.637500
0.431250 0.656250 0.743750
0.431250 0.656250 0.850000
0.431250 0.787500 0.000000
0.431250 0.787500 0.106250
0.431250 0.787500 0.212500
0.431250 0.787500 0.318750
0.431250 0.787500 0.425000
0.431250 0.787500 0.531250
0.431250 0.787500 0.637500
0.431250 0.787500 0.743750
0.431250 0.787500 0.850000
0.431250 0.918750 0.000000
0.431250 0.918750 0.106250
0.431250 0.918750 0.212500
0.431250 0.918750 0.318750
0.431250 0.918750 0.425000
0.431250 0.918750 0.531250
0.431250 0.918750 0.637500
0.431250 0.918750 0.743750
0.431250 0.918750 0.850000
0.431250 1.000000 0.000000
0.431250 1.000000 0.106250
0.431250 1.000000 0.212500
0.431250 1.000000 0.318750
0.431250 1.000000 0.425000
0.431250 1.000000 0.531250
0.431250 1.000000 0.637500
0.431250 1.000000 0.743750
0.431250 1.000000 0.850000
0.425000 0.000000 0.000000
0.425000 0.000000 0.143750
0.425000 0.000000 0.287500
0.425000 0.000000 0.431250
0.425000 0.000000 0.575000
0.425000 0.000000 0.718750
0.425000 0.000000 0.862500
0.425000 0.000000 1.000000
0.425000 0.000000 1.000000
0.425000 0.118750 0.000000
0.425000 0.118750 0.143750
0.425000 0.118750 0.287500
0.425000 0.118750 0.431250
0.425000 0.118750 0.575000
0.425000 0.118750 0.718750
0.425000 0.118750 0.862500
0.425000 0.118750 1.000000
0.425000 0.118750 1.000000
0.425000 0.237500 0.000000
0.425000 0.237500 0.143750
0.425000 0.237500 0.287500
0.425000 0.237500 0.431250
0.425000 0.237500 0.575000
0.425000 0.237500 0.718750
0.425000 0.237500 0.862500
0.425000 0.237500 1.000000
0.425000 0.237500 1.000000
0.425000 0.356250 0.000000
0.425000 0.356250 0.143750
0.425000 0.356250 0.287500
0.425000 0.356250 0.431250
0.425000 0.356250 0.575000
0.425000 0.356250 0.718750
0.425000 0.356250 0.862500
0.425000 0.356250 1.000000
0.425000 0.356250 1.000000
0.425000 0.475000 0.000000
0.425000 0.475000 0.143750
0.425000 0.475000 0.287500
0.425000 0.475000 0.431250
0.575000 0.525000 0.425000
0.575000 0.525000 0.531250
0.575000 0.525000 0.637500
0.575000 0.525000 0.743750
0.575000 0.525000 0.850000
0.575000 0.656250 0.000000
0.575000 0.656250 0.106250
0.575000 0.656250 0.212500
0.575000 0.656250 0.318750
0.575000 0.656250 0.425000
0.575000 0.656250 0.531250
0.575000 0.656250 0.637500
0.575000 0.656250 0.743750
0.575000 0.656250 0.850000
0.575000 0.787500 0.000000
0.575000 0.787500 0.106250
0.575000 0.787500 0.212500
0.575000 0.787500 0.318750
0.575000 0.787500 0.425000
0.575000 0.787500 0.531250
0.575000 0.787500 0.637500
0.575000 0.787500 0.743750
0.575000 0.787500 0.850000
0.575000 0.918750 0.000000
0.575000 0.918750 0.106250
0.575000 0.918750 0.212500
0.575000 0.918750 0.318750
0.575000 0.918750 0.425000
0.575000 0.918750 0.531250
0.575000 0.918750 0.637500
0.575000 0.918750 0.743750
0.575000 0.918750 0.850000
0.575000 1.000000 0.000000
0.575000 1.000000 0.106250
0.575000 1.000000 0.212500
0.575000 1.000000 0.318750
0.575000 1.000000 0.425000
0.575000 1.000000 0.531250
0.575000 1.000000 0.637500
0.575000 1.000000 0.743750
0.575000 1.000000 0.850000
0.531250 0.000000 0.000000
0.531250 0.000000 0.143750
0.531250 0.000000 0.287500
0.531250 0.000000 0.431250
0.531250 0.000000 0.575000
0.531250 0.000000 0.718750
0.531250 0.000000 0.862500
0.531250 0.000000 1.000000
0.531250 0.000000 1.000000
0.531250 0.118750 0.000000
0.531250 0.118750 0.143750
0.531250 0.118750 0.287500
0.531250 0.118750 0.431250
0.531250 0.118750 0.575000
0.531250 0.118750 0.718750
0.531250 0.118750 0.862500
0.531250 0.118750 1.000000
0.531250 0.118750 1.000000
0.531250 0.237500 0.000000
0.531250 0.237500 0.143750
0.531250 0.237500 0.287500
0.531250 0.237500 0.431250
0.531250 0.237500 0.575000
0.531250 0.237500 0.718750
0.531250 0.237500 0.862500
0.531250 0.237500 1.000000
0.531250 0.237500 1.000000
0.531250 0.356250 0.000000
0.531250 0.356250 0.143750
0.531250 0.356250 0.287500
0.531250 0.356250 0.431250
0.531250 0.356250 0.575000
0.531250 0.356250 0.718750
0.531250 0.356250 0.862500
0.718750 0.393750 0.743750
0.718750 0.393750 0.850000
0.531250 0.475000 0.000000
0.531250 0.475000 0.143750
0.718750 0.525000 0.212500
0.718750 0.525000 0.318750
0.718750 0.525000 0.425000
0.718750 0.525000 0.531250
0.718750 0.525000 0.637500
0.718750 0.525000 0.743750
0.718750 0.525000 0.850000
0.718750 0.656250 0.000000
0.718750 0.656250 0.106250
0.718750 0.656250 0.212500
0.718750 0.656250 0.318750
0.718750 0.656250 0.425000
0.718750 0.656250 0.531250
0.718750 0.656250 0.637500
0.718750 0.656250 0.743750
0.718750 0.656250 0.850000
0.718750 0.787500 0.000000
0.718750 0.787500 0.106250
0.718750 0.787500 0.212500
0.718750 0.787500 0.318750
0.718750 0.787500 0.425000
0.718750 0.787500 0.531250
0.718750 0.787500 0.637500
0.718750 0.787500 0.743750
0.718750 0.787500 0.850000
0.718750 0.918750 0.000000
0.718750 0.918750 0.106250
0.718750 0.918750 0.212500
0.718750 0.918750 0.318750
0.718750 0.918750 0.425000
0.718750 0.918750 0.531250
0.718750 0.918750 0.637500
0.718750 0.918750 0.743750
0.718750 0.918750 0.850000
0.718750 1.000000 0.000000
0.718750 1.000000 0.106250
0.718750 1.000000 0.212500
0.718750 1.000000 0.318750
0.718750 1.000000 0.425000
0.718750 1.000000 0.531250
0.718750 1.000000 0.637500
0.718750 1.000000 0.743750
0.718750 1.000000 0.850000
0.637500 0.000000 0.000000
0.637500 0.000000 0.143750
0.637500 0.000000 0.287500
0.637500 0.000000 0.431250
0.637500 0.000000 0.575000
0.637500 0.000000 0.718750
0.637500 0.000000 0.862500
0.637500 0.000000 1.000000
0.637500 0.000000 1.000000
0.637500 0.118750 0.000000
0.637500 0.118750 0.143750
0.637500 0.118750 0.287500
0.637500 0.118750 0.431250
0.637500 0.118750 0.575000
0.637500 0.118750 0.718750
0.637500 0.118750 0.862500
0.637500 0.118750 1.000000
0.637500 0.118750 1.000000
0.637500 0.237500 0.000000
0.637500 0.237500 0.143750
0.637500 0.237500 0.287500
0.637500 0.237500 0.431250
0.637500 0.237500 0.575000
0.637500 0.237500 0.718750
0.637500 0.237500 0.862500
0.637500 0.237500 1.000000
0.637500 0.237500 1.000000
0.637500 0.356250 0.000000
0.637500 0.356250 0.143750
0.637500 0.356250 0.287500
0.637500 0.356250 0.431250
0.862500 0.393750 0.425000
0.862500 0.393750 0.531250
0.862500 0.393750 0.637500
0.862500 0.393750 0.743750
0.862500 0.393750 0.850000
0.862500 0.525000 0.000000
0.862500 0.525000 0.106250
0.862500 0.525000 0.212500
0.862500 0.525000 0.318750
0.862500 0.525000 0.425000
0.862500 0.525000 0.531250
0.862500 0.525000 0.637500
0.862500 0.525000 0.743750
0.862500 0.525000 0.850000
0.862500 0.656250 0.000000
0.862500 0.656250 0.106250
0.862500 0.656250 0.212500
0.862500 0.656250 0.318750
0.862500 0.656250 0.425000
0.862500 0.656250 0.531250
0.862500 0.656250 0.637500
0.862500 0.656250 0.743750
0.862500 0.656250 0.850000
0.862500 0.787500 0.000000
0.862500 0.787500 0.106250
0.862500 0.787500 0.212500
0.862500 0.787500 0.318750
0.862500 0.787500 0.425000
0.862500 0.787500 0.531250
0.862500 0.787500 0.637500
0.862500 0.787500 0.743750
0.862500 0.787500 0.850000
0.862500 0.918750 0.000000
0.862500 0.918750 0.106250
0.862500 0.918750 0.212500
0.862500 0.918750 0.318750
0.862500 0.918750 0.425000
0.862500 0.918750 0.531250
0.862500 0.918750 0.637500
0.862500 0.918750 0.743750
0.862500 0.918750 0.850000
0.862500 1.000000 0.000000
0.862500 1.000000 0.106250
0.862500 1.000000 0.212500
0.862500 1.000000 0.318750
0.862500 1.000000 0.425000
0.862500 1.000000 0.531250
0.862500 1.000000 0.637500
0.862500 1.000000 0.743750
0.862500 1.000000 0.850000
0.743750 0.000000 0.000000
0.743750 0.000000 0.143750
0.743750 0.000000 0.287500
0.743750 0.000000 0.431250
0.743750 0.000000 0.575000
0.743750 0.000000 0.718750
0.743750 0.000000 0.862500
0.743750 0.000000 1.000000
0.743750 0.000000 1.000000
0.743750 0.118750 0.000000
0.743750 0.118750 0.143750
0.743750 0.118750 0.287500
0.743750 0.118750 0.431250
0.743750 0.118750 0.575000
0.743750 0.118750 0.718750
0.743750 0.118750 0.862500
0.743750 0.118750 1.000000
0.743750 0.118750 1.000000
0.743750 0.237500 0.000000
0.743750 0.237500 0.143750
0.743750 0.237500 0.287500
0.743750 0.237500 0.431250
0.743750 0.237500 0.575000
0.743750 0.237500 0.718750
0.743750 0.237500 0.862500
1.000000 0.262500 0.743750
1.000000 0.262500 0.850000
0.743750 0.356250 0.000000
0.743750 0.356250 0.143750
1.000000 0.393750 0.212500
1.000000 0.393750 0.318750
1.000000 0.393750 0.425000
1.000000 0.393750 0.531250
1.000000 0.393750 0.637500
1.000000 0.393750 0.743750
1.000000 0.393750 0.850000
1.000000 0.525000 0.000000
1.000000 0.525000 0.106250
1.000000 0.525000 0.212500
1.000000 0.525000 0.318750
1.000000 0.525000 0.425000
1.000000 0.525000 0.531250
1.000000 0.525000 0.637500
1.000000 0.525000 0.743750
1.000000 0.525000 0.850000
1.000000 0.656250 0.000000
1.000000 0.656250 0.106250
1.000000 0.656250 0.212500
1.000000 0.656250 0.318750
1.000000 0.656250 0.425000
1.000000 0.656250 0.531250
1.000000 0.656250 0.637500
1.000000 0.656250 0.743750
1.000000 0.656250 0.850000
1.000000 0.787500 0.000000
1.000000 0.787500 0.106250
1.000000 0.787500 0.212500
1.000000 0.787500 0.318750
1.000000 0.787500 0.425000
1.000000 0.787500 0.531250
1.000000 0.787500 0.637500
1.000000 0.787500 0.743750
1.000000 0.787500 0.850000
1.000000 0.918750 0.000000
1.000000 0.918750 0.106250
1.000000 0.918750 0.212500
1.000000 0.918750 0.318750
1.000000 0.918750 0.425000
1.000000 0.918750 0.531250
1.000000 0.918750 0.637500
1.000000 0.918750 0.743750
1.000000 0.918750 0.850000
1.000000 1.000000 0.000000
1.000000 1.000000 0.106250
1.000000 1.000000 0.212500
1.000000 1.000000 0.318750
1.000000 1.000000 0.425000
1.000000 1.000000 0.531250
1.000000 1.000000 0.637500
1.000000 1.000000 0.743750
1.000000 1.000000 0.850000
0.850000 0.000000 0.000000
0.850000 0.000000 0.143750
0.850000 0.000000 0.287500
0.850000 0.000000 0.431250
0.850000 0.000000 0.575000
0.850000 0.000000 0.718750
0.850000 0.000000 0.862500
0.850000 0.000000 1.000000
0.850000 0.000000 1.000000
0.850000 0.118750 0.000000
0.850000 0.118750 0.143750
0.850000 0.118750 0.287500
0.850000 0.118750 0.431250
0.850000 0.118750 0.575000
0.850000 0.118750 0.718750
0.850000 0.118750 0.862500
0.850000 0.118750 1.000000
0.850000 0.118750 1.000000
0.850000 0.237500 0.000000
0.850000 0.237500 0.143750
0.850000 0.237500 0.287500
0.850000 0.237500 0.431250
1.000000 0.262500 0.425000
1.000000 0.262500 0.531250
1.000000 0.262500 0.637500
1.000000 0.262500 0.743750
1.000000 0.262500 0.850000
1.000000 0.393750 0.000000
1.000000 0.393750 0.106250
1.000000 0.393750 0.212500
1.000000 0.393750 0.318750
1.000000 0.393750 0.425000
1.000000 0.393750 0.531250
1.000000 0.393750 0.637500
1.000000 0.393750 0.743750
1.000000 0.393750 0.850000
1.000000 0.525000 0.000000
1.000000 0.525000 0.106250
1.000000 0.525000 0.212500
1.000000 0.525000 0.318750
1.000000 0.525000 0.425000
1.000000 0.525000 0.531250
1.000000 0.525000 0.637500
1.000000 0.525000 0.743750
1.000000 0.525000 0.850000
1.000000 0.656250 0.000000
1.000000 0.656250 0.106250
1.000000 0.656250 0.212500
1.000000 0.656250 0.318750
1.000000 0.656250 0.425000
1.000000 0.656250 0.531250
1.000000 0.656250 0.637500
1.000000 0.656250 0.743750
1.000000 0.656250 0.850000
1.000000 0.787500 0.000000
1.000000 0.787500 0.106250
1.000000 0.787500 0.212500
1.000000 0.787500 0.318750
1.000000 0.787500 0.425000
1.000000 0.787500 0.531250
1.000000 0.787500 0.637500
1.000000 0.787500 0.743750
1.000000 0.787500 0.850000
1.000000 0.918750 0.000000
1.000000 0.918750 0.106250
1.000000 0.918750 0.212500
1.000000 0.918750 0.318750
1.000000 0.918750 0.425000
1.000000 0.918750 0.531250
1.000000 0.918750 0.637500
1.000000 0.918750 0.743750
1.000000 0.918750 0.850000
1.000000 1.000000 0.000000
1.000000 1.000000 0.106250
1.000000 1.000000 0.212500
1.000000 1.000000 0.318750
1.000000 1.000000 0.425000
1.000000 1.000000 0.531250
1.000000 1.000000 0.637500
1.000000 1.000000 0.743750
1.000000 1.000000 0.850000
