src/phototools/luts/teal_orange.cube
TITLE "Teal & Orange"
LUT_3D_SIZE 5
DOMAIN_MIN 0.0 0.0 0.0
DOMAIN_MAX 1.0 1.0 1.0
0.000000 0.000000 0.000000
0.000000 0.000000 0.287500
0.000000 0.000000 0.575000
0.000000 0.000000 0.862500
0.000000 0.000000 1.000000
0.000000 0.237500 0.000000
0.000000 0.237500 0.287500
0.000000 0.237500 0.575000
0.000000 0.237500 0.862500
0.000000 0.237500 1.000000
0.000000 0.475000 0.000000
0.000000 0.475000 0.287500
0.000000 0.475000 0.575000
0.000000 0.475000 0.862500
0.000000 0.475000 1.000000
0.000000 0.712500 0.000000
0.000000 0.712500 0.287500
0.000000 0.712500 0.575000
0.000000 0.787500 0.637500
0.000000 0.787500 0.850000
0.000000 1.000000 0.000000
0.000000 1.000000 0.212500
0.000000 1.000000 0.425000
0.000000 1.000000 0.637500
0.000000 1.000000 0.850000
0.212500 0.000000 0.000000
0.212500 0.000000 0.287500
0.212500 0.000000 0.575000
0.212500 0.000000 0.862500
0.212500 0.000000 1.000000
0.212500 0.237500 0.000000
0.212500 0.237500 0.287500
0.212500 0.237500 0.575000
0.212500 0.237500 0.862500
0.212500 0.237500 1.000000
0.212500 0.475000 0.000000
0.212500 0.475000 0.287500
0.212500 0.475000 0.575000
0.212500 0.475000 0.862500
0.212500 0.475000 1.000000
0.287500 0.787500 0.000000
0.287500 0.787500 0.212500
0.287500 0.787500 0.425000
0.287500 0.787500 0.637500
0.287500 0.787500 0.850000
0.287500 1.000000 0.000000
0.287500 1.000000 0.212500
0.287500 1.000000 0.425000
0.287500 1.000000 0.637500
0.287500 1.000000 0.850000
0.425000 0.000000 0.000000
0.425000 0.000000 0.287500
0.425000 0.000000 0.575000
0.425000 0.000000 0.862500
0.425000 0.000000 1.000000
0.425000 0.237500 0.000000
0.425000 0.237500 0.287500
0.425000 0.237500 0.575000
0.425000 0.237500 0.862500
0.425000 0.237500 1.000000
0.425000 0.475000 0.000000
0.425000 0.475000 0.287500
0.575000 0.525000 0.425000
0.575000 0.525000 0.637500
0.575000 0.525000 0.850000
0.575000 0.787500 0.000000
0.575000 0.787500 0.212500
0.575000 0.787500 0.425000
0.575000 0.787500 0.637500
0.575000 0.787500 0.850000
0.575000 1.000000 0.000000
0.575000 1.000000 0.212500
0.575000 1.000000 0.425000
0.575000 1.000000 0.637500
0.575000 1.000000 0.850000
0.637500 0.000000 0.000000
0.637500 0.000000 0.287500
0.637500 0.000000 0.575000
0.637500 0.000000 0.862500
0.637500 0.000000 1.000000
0.637500 0.237500 0.000000
0.637500 0.237500 0.287500
0.637500 0.237500 0.575000
0.637500 0.237500 0.862500
0.637500 0.237500 1.000000
0.862500 0.525000 0.000000
0.862500 0.525000 0.212500
0.862500 0.525000 0.425000
0.862500 0.525000 0.637500
0.862500 0.525000 0.850000
0.862500 0.787500 0.000000
0.862500 0.787500 0.212500
0.862500 0.787500 0.425000
0.862500 0.787500 0.637500
0.862500 0.787500 0.850000
0.862500 1.000000 0.000000
0.862500 1.000000 0.212500
0.862500 1.000000 0.425000
0.862500 1.000000 0.637500
0.862500 1.000000 0.850000
0.850000 0.000000 0.000000
0.850000 0.000000 0.287500
0.850000 0.000000 0.575000
0.850000 0.000000 0.862500
0.850000 0.000000 1.000000
0.850000 0.237500 0.000000
0.850000 0.237500 0.287500
1.000000 0.262500 0.425000
1.000000 0.262500 0.637500
1.000000 0.262500 0.850000
1.000000 0.525000 0.000000
1.000000 0.525000 0.212500
1.000000 0.525000 0.425000
1.000000 0.525000 0.637500
1.000000 0.525000 0.850000
1.000000 0.787500 0.000000
1.000000 0.787500 0.212500
1.000000 0.787500 0.425000
1.000000 0.787500 0.637500
1.000000 0.787500 0.850000
1.000000 1.000000 0.000000
1.000000 1.000000 0.212500
1.000000 1.000000 0.425000
1.000000 1.000000 0.637500
1.000000 1.000000 0.850000
