photo_tools_v13/luts/arri_logc.cube
TITLE "Arri LogC"
LUT_3D_SIZE 5
DOMAIN_MIN 0.0 0.0 0.0
DOMAIN_MAX 1.0 1.0 1.0
0.020000 0.020000 0.020000
0.020000 0.020000 0.179099
0.020000 0.020000 0.398403
0.020000 0.020000 0.648158
0.020000 0.020000 0.920000
0.020000 0.179099 0.020000
0.020000 0.179099 0.179099
0.020000 0.179099 0.398403
0.020000 0.179099 0.648158
0.020000 0.179099 0.920000
0.020000 0.398403 0.020000
0.020000 0.398403 0.179099
0.020000 0.398403 0.398403
0.020000 0.398403 0.648158
0.020000 0.398403 0.920000
0.020000 0.648158 0.020000
0.020000 0.648158 0.179099
0.020000 0.648158 0.398403
0.020000 0.648158 0.648158
0.020000 0.648158 0.920000
0.020000 0.920000 0.020000
0.020000 0.920000 0.179099
0.020000 0.920000 0.398403
0.020000 0.920000 0.648158
0.020000 0.920000 0.920000
0.179099 0.020000 0.020000
0.179099 0.020000 0.179099
0.179099 0.020000 0.398403
0.179099 0.020000 0.648158
0.179099 0.020000 0.920000
0.179099 0.179099 0.020000
0.179099 0.179099 0.179099
0.179099 0.179099 0.398403
0.179099 0.179099 0.648158
0.179099 0.179099 0.920000
0.179099 0.398403 0.020000
0.179099 0.398403 0.179099
0.179099 0.398403 0.398403
0.179099 0.398403 0.648158
0.179099 0.398403 0.920000
0.179099 0.648158 0.020000
0.179099 0.648158 0.179099
0.179099 0.648158 0.398403
0.179099 0.648158 0.648158
0.179099 0.648158 0.920000
0.179099 0.920000 0.020000
0.179099 0.920000 0.179099
0.179099 0.920000 0.398403
0.179099 0.920000 0.648158
0.179099 0.920000 0.920000
0.398403 0.020000 0.020000
0.398403 0.020000 0.179099
0.398403 0.020000 0.398403
0.398403 0.020000 0.648158
0.398403 0.020000 0.920000
0.398403 0.179099 0.020000
0.398403 0.179099 0.179099
0.398403 0.179099 0.398403
0.398403 0.179099 0.648158
0.398403 0.179099 0.920000
0.398403 0.398403 0.020000
0.398403 0.398403 0.179099
0.398403 0.398403 0.398403
0.398403 0.398403 0.648158
0.398403 0.398403 0.920000
0.398403 0.648158 0.020000
0.398403 0.648158 0.179099
0.398403 0.648158 0.398403
0.398403 0.648158 0.648158
0.398403 0.648158 0.920000
0.398403 0.920000 0.020000
0.398403 0.920000 0.179099
0.398403 0.920000 0.398403
0.398403 0.920000 0.648158
0.398403 0.920000 0.920000
0.648158 0.020000 0.020000
0.648158 0.020000 0.179099
0.648158 0.020000 0.398403
0.648158 0.020000 0.648158
0.648158 0.020000 0.920000
0.648158 0.179099 0.020000
0.648158 0.179099 0.179099
0.648158 0.179099 0.398403
0.648158 0.179099 0.648158
0.648158 0.179099 0.920000
0.648158 0.398403 0.020000
0.648158 0.398403 0.179099
0.648158 0.398403 0.398403
0.648158 0.398403 0.648158
0.648158 0.398403 0.920000
0.648158 0.648158 0.020000
0.648158 0.648158 0.179099
0.648158 0.648158 0.398403
0.648158 0.648158 0.648158
0.648158 0.648158 0.920000
0.648158 0.920000 0.020000
0.648158 0.920000 0.179099
0.648158 0.920000 0.398403
0.648158 0.920000 0.648158
0.648158 0.920000 0.920000
0.920000 0.020000 0.020000
0.920000 0.020000 0.179099
0.920000 0.020000 0.398403
0.920000 0.020000 0.648158
0.920000 0.020000 0.920000
0.920000 0.179099 0.020000
0.920000 0.179099 0.179099
0.920000 0.179099 0.398403
0.920000 0.179099 0.648158
0.920000 0.179099 0.920000
0.920000 0.398403 0.020000
0.920000 0.398403 0.179099
0.920000 0.398403 0.398403
0.920000 0.398403 0.648158
0.920000 0.398403 0.920000
0.920000 0.648158 0.020000
0.920000 0.648158 0.179099
0.920000 0.648158 0.398403
0.920000 0.648158 0.648158
0.920000 0.648158 0.920000
0.920000 0.920000 0.020000
0.920000 0.920000 0.179099
0.920000 0.920000 0.398403
0.920000 0.920000 0.648158
0.920000 0.920000 0.920000
