photo_tools_v13/luts/arri_logc.cube
TITLE "Arri LogC"
LUT_3D_SIZE 9
DOMAIN_MIN 0.0 0.0 0.0
DOMAIN_MAX 1.0 1.0 1.0
0.020000 0.020000 0.020000
0.020000 0.020000 0.086893
0.020000 0.020000 0.179099
0.020000 0.020000 0.284108
0.020000 0.020000 0.398403
0.020000 0.020000 0.520141
0.020000 0.020000 0.648158
0.020000 0.020000 0.781645
0.020000 0.020000 0.920000
0.020000 0.086893 0.020000
0.020000 0.086893 0.086893
0.020000 0.086893 0.179099
0.020000 0.086893 0.284108
0.020000 0.086893 0.398403
0.020000 0.086893 0.520141
0.020000 0.086893 0.648158
0.020000 0.086893 0.781645
0.020000 0.086893 0.920000
0.020000 0.179099 0.020000
0.020000 0.179099 0.086893
0.020000 0.179099 0.179099
0.020000 0.179099 0.284108
0.020000 0.179099 0.398403
0.020000 0.179099 0.520141
0.020000 0.179099 0.648158
0.020000 0.179099 0.781645
0.020000 0.179099 0.920000
0.020000 0.284108 0.020000
0.020000 0.284108 0.086893
0.020000 0.284108 0.179099
0.020000 0.284108 0.284108
0.020000 0.284108 0.398403
0.020000 0.284108 0.520141
0.020000 0.284108 0.648158
0.020000 0.284108 0.781645
0.020000 0.284108 0.920000
0.020000 0.398403 0.020000
0.020000 0.398403 0.086893
0.020000 0.398403 0.179099
0.020000 0.398403 0.284108
0.020000 0.398403 0.398403
0.020000 0.398403 0.520141
0.020000 0.398403 0.648158
0.020000 0.398403 0.781645
0.020000 0.398403 0.920000
0.020000 0.520141 0.020000
0.020000 0.520141 0.086893
0.020000 0.520141 0.179099
0.020000 0.520141 0.284108
0.020000 0.520141 0.398403
0.020000 0.520141 0.520141
0.020000 0.520141 0.648158
0.020000 0.520141 0.781645
0.020000 0.520141 0.920000
0.020000 0.648158 0.020000
0.020000 0.648158 0.086893
0.020000 0.648158 0.179099
0.020000 0.648158 0.284108
0.020000 0.648158 0.398403
0.020000 0.648158 0.520141
0.020000 0.648158 0.648158
0.020000 0.648158 0.781645
0.020000 0.648158 0.920000
0.020000 0.781645 0.020000
0.020000 0.781645 0.086893
0.020000 0.781645 0.179099
0.020000 0.781645 0.284108
0.020000 0.781645 0.398403
0.020000 0.781645 0.520141
0.020000 0.781645 0.648158
0.020000 0.781645 0.781645
0.020000 0.781645 0.920000
0.020000 0.920000 0.020000
0.020000 0.920000 0.086893
0.020000 0.920000 0.179099
0.020000 0.920000 0.284108
0.020000 0.920000 0.398403
0.020000 0.920000 0.520141
0.020000 0.920000 0.648158
0.020000 0.920000 0.781645
0.020000 0.920000 0.920000
0.086893 0.020000 0.020000
0.086893 0.020000 0.086893
0.086893 0.020000 0.179099
0.086893 0.020000 0.284108
0.086893 0.020000 0.398403
0.086893 0.020000 0.520141
0.086893 0.020000 0.648158
0.086893 0.020000 0.781645
0.086893 0.020000 0.920000
0.086893 0.086893 0.020000
0.086893 0.086893 0.086893
0.086893 0.086893 0.179099
0.086893 0.086893 0.284108
0.086893 0.086893 0.398403
0.086893 0.086893 0.520141
0.086893 0.086893 0.648158
0.086893 0.086893 0.781645
0.086893 0.086893 0.920000
0.086893 0.179099 0.020000
0.086893 0.179099 0.086893
0.086893 0.179099 0.179099
0.086893 0.179099 0.284108
0.086893 0.179099 0.398403
0.086893 0.179099 0.520141
0.086893 0.179099 0.648158
0.086893 0.179099 0.781645
0.086893 0.179099 0.920000
0.086893 0.284108 0.020000
0.086893 0.284108 0.086893
0.086893 0.284108 0.179099
0.086893 0.284108 0.284108
0.086893 0.284108 0.398403
0.086893 0.284108 0.520141
0.086893 0.284108 0.648158
0.086893 0.284108 0.781645
0.086893 0.284108 0.920000
0.086893 0.398403 0.020000
0.086893 0.398403 0.086893
0.086893 0.398403 0.179099
0.086893 0.398403 0.284108
0.086893 0.398403 0.398403
0.086893 0.398403 0.520141
0.086893 0.398403 0.648158
0.086893 0.398403 0.781645
0.086893 0.398403 0.920000
0.086893 0.520141 0.020000
0.086893 0.520141 0.086893
0.086893 0.520141 0.179099
0.086893 0.520141 0.284108
0.086893 0.520141 0.398403
0.086893 0.520141 0.520141
0.086893 0.520141 0.648158
0.086893 0.520141 0.781645
0.086893 0.520141 0.920000
0.086893 0.648158 0.020000
0.086893 0.648158 0.086893
0.086893 0.648158 0.179099
0.086893 0.648158 0.284108
0.086893 0.648158 0.398403
0.086893 0.648158 0.520141
0.086893 0.648158 0.648158
0.086893 0.648158 0.781645
0.086893 0.648158 0.920000
0.086893 0.781645 0.020000
0.086893 0.781645 0.086893
0.086893 0.781645 0.179099
0.086893 0.781645 0.284108
0.086893 0.781645 0.398403
0.086893 0.781645 0.520141
0.086893 0.781645 0.648158
0.086893 0.781645 0.781645
0.086893 0.781645 0.920000
0.086893 0.920000 0.020000
0.086893 0.920000 0.086893
0.086893 0.920000 0.179099
0.086893 0.920000 0.284108
0.086893 0.920000 0.398403
0.086893 0.920000 0.520141
0.086893 0.920000 0.648158
0.086893 0.920000 0.781645
0.086893 0.920000 0.920000
0.179099 0.020000 0.020000
0.179099 0.020000 0.086893
0.179099 0.020000 0.179099
0.179099 0.020000 0.284108
0.179099 0.020000 0.398403
0.179099 0.020000 0.520141
0.179099 0.020000 0.648158
0.179099 0.020000 0.781645
0.179099 0.020000 0.920000
0.179099 0.086893 0.020000
0.179099 0.086893 0.086893
0.179099 0.086893 0.179099
0.179099 0.086893 0.284108
0.179099 0.086893 0.398403
0.179099 0.086893 0.520141
0.179099 0.086893 0.648158
0.179099 0.086893 0.781645
0.179099 0.086893 0.920000
0.179099 0.179099 0.020000
0.179099 0.179099 0.086893
0.179099 0.179099 0.179099
0.179099 0.179099 0.284108
0.179099 0.179099 0.398403
0.179099 0.179099 0.520141
0.179099 0.179099 0.648158
0.179099 0.179099 0.781645
0.179099 0.179099 0.920000
0.179099 0.284108 0.020000
0.179099 0.284108 0.086893
0.179099 0.284108 0.179099
0.179099 0.284108 0.284108
0.179099 0.284108 0.398403
0.179099 0.284108 0.520141
0.179099 0.284108 0.648158
0.179099 0.284108 0.781645
0.179099 0.284108 0.920000
0.179099 0.398403 0.020000
0.179099 0.398403 0.086893
0.179099 0.398403 0.179099
0.179099 0.398403 0.284108
0.179099 0.398403 0.398403
0.179099 0.398403 0.520141
0.179099 0.398403 0.648158
0.179099 0.398403 0.781645
0.179099 0.398403 0.920000
0.179099 0.520141 0.020000
0.179099 0.520141 0.086893
0.179099 0.520141 0.179099
0.179099 0.520141 0.284108
0.179099 0.520141 0.398403
0.179099 0.520141 0.520141
0.179099 0.520141 0.648158
0.179099 0.520141 0.781645
0.179099 0.520141 0.920000
0.179099 0.648158 0.020000
0.179099 0.648158 0.086893
0.179099 0.648158 0.179099
0.179099 0.648158 0.284108
0.179099 0.648158 0.398403
0.179099 0.648158 0.520141
0.179099 0.648158 0.648158
0.179099 0.648158 0.781645
0.179099 0.648158 0.920000
0.179099 0.781645 0.020000
0.179099 0.781645 0.086893
0.179099 0.781645 0.179099
0.179099 0.781645 0.284108
0.179099 0.781645 0.398403
0.179099 0.781645 0.520141
0.179099 0.781645 0.648158
0.179099 0.781645 0.781645
0.179099 0.781645 0.920000
0.179099 0.920000 0.020000
0.179099 0.920000 0.086893
0.179099 0.920000 0.179099
0.179099 0.920000 0.284108
0.179099 0.920000 0.398403
0.179099 0.920000 0.520141
0.179099 0.920000 0.648158
0.179099 0.920000 0.781645
0.179099 0.920000 0.920000
0.284108 0.020000 0.020000
0.284108 0.020000 0.086893
0.284108 0.020000 0.179099
0.284108 0.020000 0.284108
0.284108 0.020000 0.398403
0.284108 0.020000 0.520141
0.284108 0.020000 0.648158
0.284108 0.020000 0.781645
0.284108 0.020000 0.920000
0.284108 0.086893 0.020000
0.284108 0.086893 0.086893
0.284108 0.086893 0.179099
0.284108 0.086893 0.284108
0.284108 0.086893 0.398403
0.284108 0.086893 0.520141
0.284108 0.086893 0.648158
0.284108 0.086893 0.781645
0.284108 0.086893 0.920000
0.284108 0.179099 0.020000
0.284108 0.179099 0.086893
0.284108 0.179099 0.179099
0.284108 0.179099 0.284108
0.284108 0.179099 0.398403
0.284108 0.179099 0.520141
0.284108 0.179099 0.648158
0.284108 0.179099 0.781645
0.284108 0.179099 0.920000
0.284108 0.284108 0.020000
0.284108 0.284108 0.086893
0.284108 0.284108 0.179099
0.284108 0.284108 0.284108
0.284108 0.284108 0.398403
0.284108 0.284108 0.520141
0.284108 0.284108 0.648158
0.284108 0.284108 0.781645
0.284108 0.284108 0.920000
0.284108 0.398403 0.020000
0.284108 0.398403 0.086893
0.284108 0.398403 0.179099
0.284108 0.398403 0.284108
0.284108 0.398403 0.398403
0.284108 0.398403 0.520141
0.284108 0.398403 0.648158
0.284108 0.398403 0.781645
0.284108 0.398403 0.920000
0.284108 0.520141 0.020000
0.284108 0.520141 0.086893
0.284108 0.520141 0.179099
0.284108 0.520141 0.284108
0.284108 0.520141 0.398403
0.284108 0.520141 0.520141
0.284108 0.520141 0.648158
0.284108 0.520141 0.781645
0.284108 0.520141 0.920000
0.284108 0.648158 0.020000
0.284108 0.648158 0.086893
0.284108 0.648158 0.179099
0.284108 0.648158 0.284108
0.284108 0.648158 0.398403
0.284108 0.648158 0.520141
0.284108 0.648158 0.648158
0.284108 0.648158 0.781645
0.284108 0.648158 0.920000
0.284108 0.781645 0.020000
0.284108 0.781645 0.086893
0.284108 0.781645 0.179099
0.284108 0.781645 0.284108
0.284108 0.781645 0.398403
0.284108 0.781645 0.520141
0.284108 0.781645 0.648158
0.284108 0.781645 0.781645
0.284108 0.781645 0.920000
0.284108 0.920000 0.020000
0.284108 0.920000 0.086893
0.284108 0.920000 0.179099
0.284108 0.920000 0.284108
0.284108 0.920000 0.398403
0.284108 0.920000 0.520141
0.284108 0.920000 0.648158
0.284108 0.920000 0.781645
0.284108 0.920000 0.920000
0.398403 0.020000 0.020000
0.398403 0.020000 0.086893
0.398403 0.020000 0.179099
0.398403 0.020000 0.284108
0.398403 0.020000 0.398403
0.398403 0.020000 0.520141
0.398403 0.020000 0.648158
0.398403 0.020000 0.781645
0.398403 0.020000 0.920000
0.398403 0.086893 0.020000
0.398403 0.086893 0.086893
0.398403 0.086893 0.179099
0.398403 0.086893 0.284108
0.398403 0.086893 0.398403
0.398403 0.086893 0.520141
0.398403 0.086893 0.648158
0.398403 0.086893 0.781645
0.398403 0.086893 0.920000
0.398403 0.179099 0.020000
0.398403 0.179099 0.086893
0.398403 0.179099 0.179099
0.398403 0.179099 0.284108
0.398403 0.179099 0.398403
0.398403 0.179099 0.520141
0.398403 0.179099 0.648158
0.398403 0.179099 0.781645
0.398403 0.179099 0.920000
0.398403 0.284108 0.020000
0.398403 0.284108 0.086893
0.398403 0.284108 0.179099
0.398403 0.284108 0.284108
0.398403 0.284108 0.398403
0.398403 0.284108 0.520141
0.398403 0.284108 0.648158
0.398403 0.284108 0.781645
0.398403 0.284108 0.920000
0.398403 0.398403 0.020000
0.398403 0.398403 0.086893
0.398403 0.398403 0.179099
0.398403 0.398403 0.284108
0.398403 0.398403 0.398403
0.398403 0.398403 0.520141
0.398403 0.398403 0.648158
0.398403 0.398403 0.781645
0.398403 0.398403 0.920000
0.398403 0.520141 0.020000
0.398403 0.520141 0.086893
0.398403 0.520141 0.179099
0.398403 0.520141 0.284108
0.398403 0.520141 0.398403
0.398403 0.520141 0.520141
0.398403 0.520141 0.648158
0.398403 0.520141 0.781645
0.398403 0.520141 0.920000
0.398403 0.648158 0.020000
0.398403 0.648158 0.086893
0.398403 0.648158 0.179099
0.398403 0.648158 0.284108
0.398403 0.648158 0.398403
0.398403 0.648158 0.520141
0.398403 0.648158 0.648158
0.398403 0.648158 0.781645
0.398403 0.648158 0.920000
0.398403 0.781645 0.020000
0.398403 0.781645 0.086893
0.398403 0.781645 0.179099
0.398403 0.781645 0.284108
0.398403 0.781645 0.398403
0.398403 0.781645 0.520141
0.398403 0.781645 0.648158
0.398403 0.781645 0.781645
0.398403 0.781645 0.920000
0.398403 0.920000 0.020000
0.398403 0.920000 0.086893
0.398403 0.920000 0.179099
0.398403 0.920000 0.284108
0.398403 0.920000 0.398403
0.398403 0.920000 0.520141
0.398403 0.920000 0.648158
0.398403 0.920000 0.781645
0.398403 0.920000 0.920000
0.520141 0.020000 0.020000
0.520141 0.020000 0.086893
0.520141 0.020000 0.179099
0.520141 0.020000 0.284108
0.520141 0.020000 0.398403
0.520141 0.020000 0.520141
0.520141 0.020000 0.648158
0.520141 0.020000 0.781645
0.520141 0.020000 0.920000
0.520141 0.086893 0.020000
0.520141 0.086893 0.086893
0.520141 0.086893 0.179099
0.520141 0.086893 0.284108
0.520141 0.086893 0.398403
0.520141 0.086893 0.520141
0.520141 0.086893 0.648158
0.520141 0.086893 0.781645
0.520141 0.086893 0.920000
0.520141 0.179099 0.020000
0.520141 0.179099 0.086893
0.520141 0.179099 0.179099
0.520141 0.179099 0.284108
0.520141 0.179099 0.398403
0.520141 0.179099 0.520141
0.520141 0.179099 0.648158
0.520141 0.179099 0.781645
0.520141 0.179099 0.920000
0.520141 0.284108 0.020000
0.520141 0.284108 0.086893
0.520141 0.284108 0.179099
0.520141 0.284108 0.284108
0.520141 0.284108 0.398403
0.520141 0.284108 0.520141
0.520141 0.284108 0.648158
0.520141 0.284108 0.781645
0.520141 0.284108 0.920000
0.520141 0.398403 0.020000
0.520141 0.398403 0.086893
0.520141 0.398403 0.179099
0.520141 0.398403 0.284108
0.520141 0.398403 0.398403
0.520141 0.398403 0.520141
0.520141 0.398403 0.648158
0.520141 0.398403 0.781645
0.520141 0.398403 0.920000
0.520141 0.520141 0.020000
0.520141 0.520141 0.086893
0.520141 0.520141 0.179099
0.520141 0.520141 0.284108
0.520141 0.520141 0.398403
0.520141 0.520141 0.520141
0.520141 0.520141 0.648158
0.520141 0.520141 0.781645
0.520141 0.520141 0.920000
0.520141 0.648158 0.020000
0.520141 0.648158 0.086893
0.520141 0.648158 0.179099
0.520141 0.648158 0.284108
0.520141 0.648158 0.398403
0.520141 0.648158 0.520141
0.520141 0.648158 0.648158
0.520141 0.648158 0.781645
0.520141 0.648158 0.920000
0.520141 0.781645 0.020000
0.520141 0.781645 0.086893
0.520141 0.781645 0.179099
0.520141 0.781645 0.284108
0.520141 0.781645 0.398403
0.520141 0.781645 0.520141
0.520141 0.781645 0.648158
0.520141 0.781645 0.781645
0.520141 0.781645 0.920000
0.520141 0.920000 0.020000
0.520141 0.920000 0.086893
0.520141 0.920000 0.179099
0.520141 0.920000 0.284108
0.520141 0.920000 0.398403
0.520141 0.920000 0.520141
0.520141 0.920000 0.648158
0.520141 0.920000 0.781645
0.520141 0.920000 0.920000
0.648158 0.020000 0.020000
0.648158 0.020000 0.086893
0.648158 0.020000 0.179099
0.648158 0.020000 0.284108
0.648158 0.020000 0.398403
0.648158 0.020000 0.520141
0.648158 0.020000 0.648158
0.648158 0.020000 0.781645
0.648158 0.020000 0.920000
0.648158 0.086893 0.020000
0.648158 0.086893 0.086893
0.648158 0.086893 0.179099
0.648158 0.086893 0.284108
0.648158 0.086893 0.398403
0.648158 0.086893 0.520141
0.648158 0.086893 0.648158
0.648158 0.086893 0.781645
0.648158 0.086893 0.920000
0.648158 0.179099 0.020000
0.648158 0.179099 0.086893
0.648158 0.179099 0.179099
0.648158 0.179099 0.284108
0.648158 0.179099 0.398403
0.648158 0.179099 0.520141
0.648158 0.179099 0.648158
0.648158 0.179099 0.781645
0.648158 0.179099 0.920000
0.648158 0.284108 0.020000
0.648158 0.284108 0.086893
0.648158 0.284108 0.179099
0.648158 0.284108 0.284108
0.648158 0.284108 0.398403
0.648158 0.284108 0.520141
0.648158 0.284108 0.648158
0.648158 0.284108 0.781645
0.648158 0.284108 0.920000
0.648158 0.398403 0.020000
0.648158 0.398403 0.086893
0.648158 0.398403 0.179099
0.648158 0.398403 0.284108
0.648158 0.398403 0.398403
0.648158 0.398403 0.520141
0.648158 0.398403 0.648158
0.648158 0.398403 0.781645
0.648158 0.398403 0.920000
0.648158 0.520141 0.020000
0.648158 0.520141 0.086893
0.648158 0.520141 0.179099
0.648158 0.520141 0.284108
0.648158 0.520141 0.398403
0.648158 0.520141 0.520141
0.648158 0.520141 0.648158
0.648158 0.520141 0.781645
0.648158 0.520141 0.920000
0.648158 0.648158 0.020000
0.648158 0.648158 0.086893
0.648158 0.648158 0.179099
0.648158 0.648158 0.284108
0.648158 0.648158 0.398403
0.648158 0.648158 0.520141
0.648158 0.648158 0.648158
0.648158 0.648158 0.781645
0.648158 0.648158 0.920000
0.648158 0.781645 0.020000
0.648158 0.781645 0.086893
0.648158 0.781645 0.179099
0.648158 0.781645 0.284108
0.648158 0.781645 0.398403
0.648158 0.781645 0.520141
0.648158 0.781645 0.648158
0.648158 0.781645 0.781645
0.648158 0.781645 0.920000
0.648158 0.920000 0.020000
0.648158 0.920000 0.086893
0.648158 0.920000 0.179099
0.648158 0.920000 0.284108
0.648158 0.920000 0.398403
0.648158 0.920000 0.520141
0.648158 0.920000 0.648158
0.648158 0.920000 0.781645
0.648158 0.920000 0.920000
0.781645 0.020000 0.020000
0.781645 0.020000 0.086893
0.781645 0.020000 0.179099
0.781645 0.020000 0.284108
0.781645 0.020000 0.398403
0.781645 0.020000 0.520141
0.781645 0.020000 0.648158
0.781645 0.020000 0.781645
0.781645 0.020000 0.920000
0.781645 0.086893 0.020000
0.781645 0.086893 0.086893
0.781645 0.086893 0.179099
0.781645 0.086893 0.284108
0.781645 0.086893 0.398403
0.781645 0.086893 0.520141
0.781645 0.086893 0.648158
0.781645 0.086893 0.781645
0.781645 0.086893 0.920000
0.781645 0.179099 0.020000
0.781645 0.179099 0.086893
0.781645 0.179099 0.179099
0.781645 0.179099 0.284108
0.781645 0.179099 0.398403
0.781645 0.179099 0.520141
0.781645 0.179099 0.648158
0.781645 0.179099 0.781645
0.781645 0.179099 0.920000
0.781645 0.284108 0.020000
0.781645 0.284108 0.086893
0.781645 0.284108 0.179099
0.781645 0.284108 0.284108
0.781645 0.284108 0.398403
0.781645 0.284108 0.520141
0.781645 0.284108 0.648158
0.781645 0.284108 0.781645
0.781645 0.284108 0.920000
0.781645 0.398403 0.020000
0.781645 0.398403 0.086893
0.781645 0.398403 0.179099
0.781645 0.398403 0.284108
0.781645 0.398403 0.398403
0.781645 0.398403 0.520141
0.781645 0.398403 0.648158
0.781645 0.398403 0.781645
0.781645 0.398403 0.920000
0.781645 0.520141 0.020000
0.781645 0.520141 0.086893
0.781645 0.520141 0.179099
0.781645 0.520141 0.284108
0.781645 0.520141 0.398403
0.781645 0.520141 0.520141
0.781645 0.520141 0.648158
0.781645 0.520141 0.781645
0.781645 0.520141 0.920000
0.781645 0.648158 0.020000
0.781645 0.648158 0.086893
0.781645 0.648158 0.179099
0.781645 0.648158 0.284108
0.781645 0.648158 0.398403
0.781645 0.648158 0.520141
0.781645 0.648158 0.648158
0.781645 0.648158 0.781645
0.781645 0.648158 0.920000
0.781645 0.781645 0.020000
0.781645 0.781645 0.086893
0.781645 0.781645 0.179099
0.781645 0.781645 0.284108
0.781645 0.781645 0.398403
0.781645 0.781645 0.520141
0.781645 0.781645 0.648158
0.781645 0.781645 0.781645
0.781645 0.781645 0.920000
0.781645 0.920000 0.020000
0.781645 0.920000 0.086893
0.781645 0.920000 0.179099
0.781645 0.920000 0.284108
0.781645 0.920000 0.398403
0.781645 0.920000 0.520141
0.781645 0.920000 0.648158
0.781645 0.920000 0.781645
0.781645 0.920000 0.920000
0.920000 0.020000 0.020000
0.920000 0.020000 0.086893
0.920000 0.020000 0.179099
0.920000 0.020000 0.284108
0.920000 0.020000 0.398403
0.920000 0.020000 0.520141
0.920000 0.020000 0.648158
0.920000 0.020000 0.781645
0.920000 0.020000 0.920000
0.920000 0.086893 0.020000
0.920000 0.086893 0.086893
0.920000 0.086893 0.179099
0.920000 0.086893 0.284108
0.920000 0.086893 0.398403
0.920000 0.086893 0.520141
0.920000 0.086893 0.648158
0.920000 0.086893 0.781645
0.920000 0.086893 0.920000
0.920000 0.179099 0.020000
0.920000 0.179099 0.086893
0.920000 0.179099 0.179099
0.920000 0.179099 0.284108
0.920000 0.179099 0.398403
0.920000 0.179099 0.520141
0.920000 0.179099 0.648158
0.920000 0.179099 0.781645
0.920000 0.179099 0.920000
0.920000 0.284108 0.020000
0.920000 0.284108 0.086893
0.920000 0.284108 0.179099
0.920000 0.284108 0.284108
0.920000 0.284108 0.398403
0.920000 0.284108 0.520141
0.920000 0.284108 0.648158
0.920000 0.284108 0.781645
0.920000 0.284108 0.920000
0.920000 0.398403 0.020000
0.920000 0.398403 0.086893
0.920000 0.398403 0.179099
0.920000 0.398403 0.284108
0.920000 0.398403 0.398403
0.920000 0.398403 0.520141
0.920000 0.398403 0.648158
0.920000 0.398403 0.781645
0.920000 0.398403 0.920000
0.920000 0.520141 0.020000
0.920000 0.520141 0.086893
0.920000 0.520141 0.179099
0.920000 0.520141 0.284108
0.920000 0.520141 0.398403
0.920000 0.520141 0.520141
0.920000 0.520141 0.648158
0.920000 0.520141 0.781645
0.920000 0.520141 0.920000
0.920000 0.648158 0.020000
0.920000 0.648158 0.086893
0.920000 0.648158 0.179099
0.920000 0.648158 0.284108
0.920000 0.648158 0.398403
0.920000 0.648158 0.520141
0.920000 0.648158 0.648158
0.920000 0.648158 0.781645
0.920000 0.648158 0.920000
0.920000 0.781645 0.020000
0.920000 0.781645 0.086893
0.920000 0.781645 0.179099
0.920000 0.781645 0.284108
0.920000 0.781645 0.398403
0.920000 0.781645 0.520141
0.920000 0.781645 0.648158
0.920000 0.781645 0.781645
0.920000 0.781645 0.920000
0.920000 0.920000 0.020000
0.920000 0.920000 0.086893
0.920000 0.920000 0.179099
0.920000 0.920000 0.284108
0.920000 0.920000 0.398403
0.920000 0.920000 0.520141
0.920000 0.920000 0.648158
0.920000 0.920000 0.781645
0.920000 0.920000 0.920000
