photo_tools_v13/luts/arri_logc.cube
TITLE "Arri LogC"
LUT_3D_SIZE 33
DOMAIN_MIN 0.0 0.0 0.0
DOMAIN_MAX 1.0 1.0 1.0
0.020000 0.020000 0.020000
0.020000 0.020000 0.031825
0.020000 0.020000 0.048125
0.020000 0.020000 0.066688
0.020000 0.020000 0.086893
0.020000 0.020000 0.108413
0.020000 0.020000 0.131044
0.020000 0.020000 0.154641
0.020000 0.020000 0.179099
0.020000 0.020000 0.204335
0.020000 0.020000 0.230283
0.020000 0.020000 0.256890
0.020000 0.020000 0.284108
0.020000 0.020000 0.311900
0.020000 0.020000 0.340232
0.020000 0.020000 0.369075
0.020000 0.020000 0.398403
0.020000 0.020000 0.428194
0.020000 0.020000 0.458425
0.020000 0.020000 0.489080
0.020000 0.020000 0.520141
0.020000 0.020000 0.551593
0.020000 0.020000 0.583421
0.020000 0.020000 0.615614
0.020000 0.020000 0.648158
0.020000 0.020000 0.681043
0.020000 0.020000 0.714259
0.020000 0.020000 0.747796
0.020000 0.020000 0.781645
0.020000 0.020000 0.815797
0.020000 0.020000 0.850246
0.020000 0.020000 0.884982
0.020000 0.020000 0.920000
0.020000 0.031825 0.020000
0.020000 0.031825 0.031825
0.020000 0.031825 0.048125
0.020000 0.031825 0.066688
0.020000 0.031825 0.086893
0.020000 0.031825 0.108413
0.020000 0.031825 0.131044
0.020000 0.031825 0.154641
0.020000 0.031825 0.179099
0.020000 0.031825 0.204335
0.020000 0.031825 0.230283
0.020000 0.031825 0.256890
0.020000 0.031825 0.284108
0.020000 0.031825 0.311900
0.020000 0.031825 0.340232
0.020000 0.031825 0.369075
0.020000 0.031825 0.398403
0.020000 0.031825 0.428194
0.020000 0.031825 0.458425
0.020000 0.031825 0.489080
0.020000 0.031825 0.520141
0.020000 0.031825 0.551593
0.020000 0.031825 0.583421
0.020000 0.031825 0.615614
0.020000 0.031825 0.648158
0.020000 0.031825 0.681043
0.020000 0.031825 0.714259
0.020000 0.031825 0.747796
0.020000 0.031825 0.781645
0.020000 0.031825 0.815797
0.020000 0.031825 0.850246
0.020000 0.031825 0.884982
0.020000 0.031825 0.920000
0.020000 0.048125 0.020000
0.020000 0.048125 0.031825
0.020000 0.048125 0.048125
0.020000 0.048125 0.066688
0.020000 0.048125 0.086893
0.020000 0.048125 0.108413
0.020000 0.048125 0.131044
0.020000 0.048125 0.154641
0.020000 0.048125 0.179099
0.020000 0.048125 0.204335
0.020000 0.048125 0.230283
0.020000 0.048125 0.256890
0.020000 0.048125 0.284108
0.020000 0.048125 0.311900
0.020000 0.048125 0.340232
0.020000 0.048125 0.369075
0.020000 0.048125 0.398403
0.020000 0.048125 0.428194
0.020000 0.048125 0.458425
0.020000 0.048125 0.489080
0.020000 0.048125 0.520141
0.020000 0.048125 0.551593
0.020000 0.048125 0.583421
0.020000 0.048125 0.615614
0.020000 0.048125 0.648158
0.020000 0.048125 0.681043
0.020000 0.048125 0.714259
0.020000 0.048125 0.747796
0.020000 0.048125 0.781645
0.020000 0.048125 0.815797
0.020000 0.048125 0.850246
0.020000 0.048125 0.884982
0.020000 0.048125 0.920000
0.020000 0.066688 0.020000
0.020000 0.066688 0.031825
0.020000 0.066688 0.048125
0.020000 0.066688 0.066688
0.020000 0.066688 0.086893
0.020000 0.066688 0.108413
0.020000 0.066688 0.131044
0.020000 0.066688 0.154641
0.020000 0.066688 0.179099
0.020000 0.066688 0.204335
0.020000 0.066688 0.230283
0.020000 0.066688 0.256890
0.020000 0.066688 0.284108
0.020000 0.066688 0.311900
0.020000 0.066688 0.340232
0.020000 0.066688 0.369075
0.020000 0.066688 0.398403
0.020000 0.066688 0.428194
0.020000 0.066688 0.458425
0.020000 0.066688 0.489080
0.020000 0.066688 0.520141
0.020000 0.066688 0.551593
0.020000 0.066688 0.583421
0.020000 0.066688 0.615614
0.020000 0.066688 0.648158
0.020000 0.066688 0.681043
0.020000 0.066688 0.714259
0.020000 0.066688 0.747796
0.020000 0.066688 0.781645
0.020000 0.066688 0.815797
0.020000 0.066688 0.850246
0.020000 0.066688 0.884982
0.020000 0.066688 0.920000
0.020000 0.086893 0.020000
0.020000 0.086893 0.031825
0.020000 0.086893 0.048125
0.020000 0.086893 0.066688
0.020000 0.086893 0.086893
0.020000 0.086893 0.108413
0.020000 0.086893 0.131044
0.020000 0.086893 0.154641
0.020000 0.086893 0.179099
0.020000 0.086893 0.204335
0.020000 0.086893 0.230283
0.020000 0.086893 0.256890
0.020000 0.086893 0.284108
0.020000 0.086893 0.311900
0.020000 0.086893 0.340232
0.020000 0.086893 0.369075
0.020000 0.086893 0.398403
0.020000 0.086893 0.428194
0.020000 0.086893 0.458425
0.020000 0.086893 0.489080
0.020000 0.086893 0.520141
0.020000 0.086893 0.551593
0.020000 0.086893 0.583421
0.020000 0.086893 0.615614
0.020000 0.086893 0.648158
0.020000 0.086893 0.681043
0.020000 0.086893 0.714259
0.020000 0.086893 0.747796
0.020000 0.086893 0.781645
0.020000 0.086893 0.815797
0.020000 0.086893 0.850246
0.020000 0.086893 0.884982
0.020000 0.086893 0.920000
0.020000 0.108413 0.020000
0.020000 0.108413 0.031825
0.020000 0.108413 0.048125
0.020000 0.108413 0.066688
0.020000 0.108413 0.086893
0.020000 0.108413 0.108413
0.020000 0.108413 0.131044
0.020000 0.108413 0.154641
0.020000 0.108413 0.179099
0.020000 0.108413 0.204335
0.020000 0.108413 0.230283
0.020000 0.108413 0.256890
0.020000 0.108413 0.284108
0.020000 0.108413 0.311900
0.020000 0.108413 0.340232
0.020000 0.108413 0.369075
0.020000 0.108413 0.398403
0.020000 0.108413 0.428194
0.020000 0.108413 0.458425
0.020000 0.108413 0.489080
0.020000 0.108413 0.520141
0.020000 0.108413 0.551593
0.020000 0.108413 0.583421
0.020000 0.108413 0.615614
0.020000 0.108413 0.648158
0.020000 0.108413 0.681043
0.020000 0.108413 0.714259
0.020000 0.108413 0.747796
0.020000 0.108413 0.781645
0.020000 0.108413 0.815797
0.020000 0.108413 0.850246
0.020000 0.108413 0.884982
0.020000 0.108413 0.920000
0.020000 0.131044 0.020000
0.020000 0.131044 0.031825
0.020000 0.131044 0.048125
0.020000 0.131044 0.066688
0.020000 0.131044 0.086893
0.020000 0.131044 0.108413
0.020000 0.131044 0.131044
0.020000 0.131044 0.154641
0.020000 0.131044 0.179099
0.020000 0.131044 0.204335
0.020000 0.131044 0.230283
0.020000 0.131044 0.256890
0.020000 0.131044 0.284108
0.020000 0.131044 0.311900
0.020000 0.131044 0.340232
0.020000 0.131044 0.369075
0.020000 0.131044 0.398403
0.020000 0.131044 0.428194
0.020000 0.131044 0.458425
0.020000 0.131044 0.489080
0.020000 0.131044 0.520141
0.020000 0.131044 0.551593
0.020000 0.131044 0.583421
0.020000 0.131044 0.615614
0.020000 0.131044 0.648158
0.020000 0.131044 0.681043
0.020000 0.131044 0.714259
0.020000 0.131044 0.747796
0.020000 0.131044 0.781645
0.020000 0.131044 0.815797
0.020000 0.131044 0.850246
0.020000 0.131044 0.884982
0.020000 0.131044 0.920000
0.020000 0.154641 0.020000
0.020000 0.154641 0.031825
0.020000 0.154641 0.048125
0.020000 0.154641 0.066688
0.020000 0.154641 0.086893
0.020000 0.154641 0.108413
0.020000 0.154641 0.131044
0.020000 0.154641 0.154641
0.020000 0.154641 0.179099
0.020000 0.154641 0.204335
0.020000 0.154641 0.230283
0.020000 0.154641 0.256890
0.020000 0.154641 0.284108
0.020000 0.154641 0.311900
0.020000 0.154641 0.340232
0.020000 0.154641 0.369075
0.020000 0.154641 0.398403
0.020000 0.154641 0.428194
0.020000 0.154641 0.458425
0.020000 0.154641 0.489080
0.020000 0.154641 0.520141
0.020000 0.154641 0.551593
0.020000 0.154641 0.583421
0.020000 0.154641 0.615614
0.020000 0.154641 0.648158
0.020000 0.154641 0.681043
0.020000 0.154641 0.714259
0.020000 0.154641 0.747796
0.020000 0.154641 0.781645
0.020000 0.154641 0.815797
0.020000 0.154641 0.850246
0.020000 0.154641 0.884982
0.020000 0.154641 0.920000
0.020000 0.179099 0.020000
0.020000 0.179099 0.031825
0.020000 0.179099 0.048125
0.020000 0.179099 0.066688
0.020000 0.179099 0.086893
0.020000 0.179099 0.108413
0.020000 0.179099 0.131044
0.020000 0.179099 0.154641
0.020000 0.179099 0.179099
0.020000 0.179099 0.204335
0.020000 0.179099 0.230283
0.020000 0.179099 0.256890
0.020000 0.179099 0.284108
0.020000 0.179099 0.311900
0.020000 0.179099 0.340232
0.020000 0.179099 0.369075
0.020000 0.179099 0.398403
0.020000 0.179099 0.428194
0.020000 0.179099 0.458425
0.020000 0.179099 0.489080
0.020000 0.179099 0.520141
0.020000 0.179099 0.551593
0.020000 0.179099 0.583421
0.020000 0.179099 0.615614
0.020000 0.179099 0.648158
0.020000 0.179099 0.681043
0.020000 0.179099 0.714259
0.020000 0.179099 0.747796
0.020000 0.179099 0.781645
0.020000 0.179099 0.815797
0.020000 0.179099 0.850246
0.020000 0.179099 0.884982
0.020000 0.179099 0.920000
0.020000 0.204335 0.020000
0.020000 0.204335 0.031825
0.020000 0.204335 0.048125
0.020000 0.204335 0.066688
0.020000 0.204335 0.086893
0.020000 0.204335 0.108413
0.020000 0.204335 0.131044
0.020000 0.204335 0.154641
0.020000 0.204335 0.179099
0.020000 0.204335 0.204335
0.020000 0.204335 0.230283
0.020000 0.204335 0.256890
0.020000 0.204335 0.284108
0.020000 0.204335 0.311900
0.020000 0.204335 0.340232
0.020000 0.204335 0.369075
0.020000 0.204335 0.398403
0.020000 0.204335 0.428194
0.020000 0.204335 0.458425
0.020000 0.204335 0.489080
0.020000 0.204335 0.520141
0.020000 0.204335 0.551593
0.020000 0.204335 0.583421
0.020000 0.204335 0.615614
0.020000 0.204335 0.648158
0.020000 0.204335 0.681043
0.020000 0.204335 0.714259
0.020000 0.204335 0.747796
0.020000 0.204335 0.781645
0.020000 0.204335 0.815797
0.020000 0.204335 0.850246
0.020000 0.204335 0.884982
0.020000 0.204335 0.920000
0.020000 0.230283 0.020000
0.020000 0.230283 0.031825
0.020000 0.230283 0.048125
0.020000 0.230283 0.066688
0.020000 0.230283 0.086893
0.020000 0.230283 0.108413
0.020000 0.230283 0.131044
0.020000 0.230283 0.154641
0.020000 0.230283 0.179099
0.020000 0.230283 0.204335
0.020000 0.230283 0.230283
0.020000 0.230283 0.256890
0.020000 0.230283 0.284108
0.020000 0.230283 0.311900
0.020000 0.230283 0.340232
0.020000 0.230283 0.369075
0.020000 0.230283 0.398403
0.020000 0.230283 0.428194
0.020000 0.230283 0.458425
0.020000 0.230283 0.489080
0.020000 0.230283 0.520141
0.020000 0.230283 0.551593
0.020000 0.230283 0.583421
0.020000 0.230283 0.615614
0.020000 0.230283 0.648158
0.020000 0.230283 0.681043
0.020000 0.230283 0.714259
0.020000 0.230283 0.747796
0.020000 0.230283 0.781645
0.020000 0.230283 0.815797
0.020000 0.230283 0.850246
0.020000 0.230283 0.884982
0.020000 0.230283 0.920000
0.020000 0.256890 0.020000
0.020000 0.256890 0.031825
0.020000 0.256890 0.048125
0.020000 0.256890 0.066688
0.020000 0.256890 0.086893
0.020000 0.256890 0.108413
0.020000 0.256890 0.131044
0.020000 0.256890 0.154641
0.020000 0.256890 0.179099
0.020000 0.256890 0.204335
0.020000 0.256890 0.230283
0.020000 0.256890 0.256890
0.020000 0.256890 0.284108
0.020000 0.256890 0.311900
0.020000 0.256890 0.340232
0.020000 0.256890 0.369075
0.020000 0.256890 0.398403
0.020000 0.256890 0.428194
0.020000 0.256890 0.458425
0.020000 0.256890 0.489080
0.020000 0.256890 0.520141
0.020000 0.256890 0.551593
0.020000 0.256890 0.583421
0.020000 0.256890 0.615614
0.020000 0.256890 0.648158
0.020000 0.256890 0.681043
0.020000 0.256890 0.714259
0.020000 0.256890 0.747796
0.020000 0.256890 0.781645
0.020000 0.256890 0.815797
0.020000 0.256890 0.850246
0.020000 0.256890 0.884982
0.020000 0.256890 0.920000
0.020000 0.284108 0.020000
0.020000 0.284108 0.031825
0.020000 0.284108 0.048125
0.020000 0.284108 0.066688
0.020000 0.284108 0.086893
0.020000 0.284108 0.108413
0.020000 0.284108 0.131044
0.020000 0.284108 0.154641
0.020000 0.284108 0.179099
0.020000 0.284108 0.204335
0.020000 0.284108 0.230283
0.020000 0.284108 0.256890
0.020000 0.284108 0.284108
0.020000 0.284108 0.311900
0.020000 0.284108 0.340232
0.020000 0.284108 0.369075
0.020000 0.284108 0.398403
0.020000 0.284108 0.428194
0.020000 0.284108 0.458425
0.020000 0.284108 0.489080
0.020000 0.284108 0.520141
0.020000 0.284108 0.551593
0.020000 0.284108 0.583421
0.020000 0.284108 0.615614
0.020000 0.284108 0.648158
0.020000 0.284108 0.681043
0.020000 0.284108 0.714259
0.020000 0.284108 0.747796
0.020000 0.284108 0.781645
0.020000 0.284108 0.815797
0.020000 0.284108 0.850246
0.020000 0.284108 0.884982
0.020000 0.284108 0.920000
0.020000 0.311900 0.020000
0.020000 0.311900 0.031825
0.020000 0.311900 0.048125
0.020000 0.311900 0.066688
0.020000 0.311900 0.086893
0.020000 0.311900 0.108413
0.020000 0.311900 0.131044
0.020000 0.311900 0.154641
0.020000 0.311900 0.179099
0.020000 0.311900 0.204335
0.020000 0.311900 0.230283
0.020000 0.311900 0.256890
0.020000 0.311900 0.284108
0.020000 0.311900 0.311900
0.020000 0.311900 0.340232
0.020000 0.311900 0.369075
0.020000 0.311900 0.398403
0.020000 0.311900 0.428194
0.020000 0.311900 0.458425
0.020000 0.311900 0.489080
0.020000 0.311900 0.520141
0.020000 0.311900 0.551593
0.020000 0.311900 0.583421
0.020000 0.311900 0.615614
0.020000 0.311900 0.648158
0.020000 0.311900 0.681043
0.020000 0.311900 0.714259
0.020000 0.311900 0.747796
0.020000 0.311900 0.781645
0.020000 0.311900 0.815797
0.020000 0.311900 0.850246
0.020000 0.311900 0.884982
0.020000 0.311900 0.920000
0.020000 0.340232 0.020000
0.020000 0.340232 0.031825
0.020000 0.340232 0.048125
0.020000 0.340232 0.066688
0.020000 0.340232 0.086893
0.020000 0.340232 0.108413
0.020000 0.340232 0.131044
0.020000 0.340232 0.154641
0.020000 0.340232 0.179099
0.020000 0.340232 0.204335
0.020000 0.340232 0.230283
0.020000 0.340232 0.256890
0.020000 0.340232 0.284108
0.020000 0.340232 0.311900
0.020000 0.340232 0.340232
0.020000 0.340232 0.369075
0.020000 0.340232 0.398403
0.020000 0.340232 0.428194
0.020000 0.340232 0.458425
0.020000 0.340232 0.489080
0.020000 0.340232 0.520141
0.020000 0.340232 0.551593
0.020000 0.340232 0.583421
0.020000 0.340232 0.615614
0.020000 0.340232 0.648158
0.020000 0.340232 0.681043
0.020000 0.340232 0.714259
0.020000 0.340232 0.747796
0.020000 0.340232 0.781645
0.020000 0.340232 0.815797
0.020000 0.340232 0.850246
0.020000 0.340232 0.884982
0.020000 0.340232 0.920000
0.020000 0.369075 0.020000
0.020000 0.369075 0.031825
0.020000 0.369075 0.048125
0.020000 0.369075 0.066688
0.020000 0.369075 0.086893
0.020000 0.369075 0.108413
0.020000 0.369075 0.131044
0.020000 0.369075 0.154641
0.020000 0.369075 0.179099
0.020000 0.369075 0.204335
0.020000 0.369075 0.230283
0.020000 0.369075 0.256890
0.020000 0.369075 0.284108
0.020000 0.369075 0.311900
0.020000 0.369075 0.340232
0.020000 0.369075 0.369075
0.020000 0.369075 0.398403
0.020000 0.369075 0.428194
0.020000 0.369075 0.458425
0.020000 0.369075 0.489080
0.020000 0.369075 0.520141
0.020000 0.369075 0.551593
0.020000 0.369075 0.583421
0.020000 0.369075 0.615614
0.020000 0.369075 0.648158
0.020000 0.369075 0.681043
0.020000 0.369075 0.714259
0.020000 0.369075 0.747796
0.020000 0.369075 0.781645
0.020000 0.369075 0.815797
0.020000 0.369075 0.850246
0.020000 0.369075 0.884982
0.020000 0.369075 0.920000
0.020000 0.398403 0.020000
0.020000 0.398403 0.031825
0.020000 0.398403 0.048125
0.020000 0.398403 0.066688
0.020000 0.398403 0.086893
0.020000 0.398403 0.108413
0.020000 0.398403 0.131044
0.020000 0.398403 0.154641
0.020000 0.398403 0.179099
0.020000 0.398403 0.204335
0.020000 0.398403 0.230283
0.020000 0.398403 0.256890
0.020000 0.398403 0.284108
0.020000 0.398403 0.311900
0.020000 0.398403 0.340232
0.020000 0.398403 0.369075
0.020000 0.398403 0.398403
0.020000 0.398403 0.428194
0.020000 0.398403 0.458425
0.020000 0.398403 0.489080
0.020000 0.398403 0.520141
0.020000 0.398403 0.551593
0.020000 0.398403 0.583421
0.020000 0.398403 0.615614
0.020000 0.398403 0.648158
0.020000 0.398403 0.681043
0.020000 0.398403 0.714259
0.020000 0.398403 0.747796
0.020000 0.398403 0.781645
0.020000 0.398403 0.815797
0.020000 0.398403 0.850246
0.020000 0.398403 0.884982
0.020000 0.398403 0.920000
0.020000 0.428194 0.020000
0.020000 0.428194 0.031825
0.020000 0.428194 0.048125
0.020000 0.428194 0.066688
0.020000 0.428194 0.086893
0.020000 0.428194 0.108413
0.020000 0.428194 0.131044
0.020000 0.428194 0.154641
0.020000 0.428194 0.179099
0.020000 0.428194 0.204335
0.020000 0.428194 0.230283
0.020000 0.428194 0.256890
0.020000 0.428194 0.284108
0.020000 0.428194 0.311900
0.020000 0.428194 0.340232
0.020000 0.428194 0.369075
0.020000 0.428194 0.398403
0.020000 0.428194 0.428194
0.020000 0.428194 0.458425
0.020000 0.428194 0.489080
0.020000 0.428194 0.520141
0.020000 0.428194 0.551593
0.020000 0.428194 0.583421
0.020000 0.428194 0.615614
0.020000 0.428194 0.648158
0.020000 0.428194 0.681043
0.020000 0.428194 0.714259
0.020000 0.428194 0.747796
0.020000 0.428194 0.781645
0.020000 0.428194 0.815797
0.020000 0.428194 0.850246
0.020000 0.428194 0.884982
0.020000 0.428194 0.920000
0.020000 0.458425 0.020000
0.020000 0.458425 0.031825
0.020000 0.458425 0.048125
0.020000 0.458425 0.066688
0.020000 0.458425 0.086893
0.020000 0.458425 0.108413
0.020000 0.458425 0.131044
0.020000 0.458425 0.154641
0.020000 0.458425 0.179099
0.020000 0.458425 0.204335
0.020000 0.458425 0.230283
0.020000 0.458425 0.256890
0.020000 0.458425 0.284108
0.020000 0.458425 0.311900
0.020000 0.458425 0.340232
0.020000 0.458425 0.369075
0.020000 0.458425 0.398403
0.020000 0.458425 0.428194
0.020000 0.458425 0.458425
0.020000 0.458425 0.489080
0.020000 0.458425 0.520141
0.020000 0.458425 0.551593
0.020000 0.458425 0.583421
0.020000 0.458425 0.615614
0.020000 0.458425 0.648158
0.020000 0.458425 0.681043
0.020000 0.458425 0.714259
0.020000 0.458425 0.747796
0.020000 0.458425 0.781645
0.020000 0.458425 0.815797
0.020000 0.458425 0.850246
0.020000 0.458425 0.884982
0.020000 0.458425 0.920000
0.020000 0.489080 0.020000
0.020000 0.489080 0.031825
0.020000 0.489080 0.048125
0.020000 0.489080 0.066688
0.020000 0.489080 0.086893
0.020000 0.489080 0.108413
0.020000 0.489080 0.131044
0.020000 0.489080 0.154641
0.020000 0.489080 0.179099
0.020000 0.489080 0.204335
0.020000 0.489080 0.230283
0.020000 0.489080 0.256890
0.020000 0.489080 0.284108
0.020000 0.489080 0.311900
0.020000 0.489080 0.340232
0.020000 0.489080 0.369075
0.020000 0.489080 0.398403
0.020000 0.489080 0.428194
0.020000 0.489080 0.458425
0.020000 0.489080 0.489080
0.020000 0.489080 0.520141
0.020000 0.489080 0.551593
0.020000 0.489080 0.583421
0.020000 0.489080 0.615614
0.020000 0.489080 0.648158
0.020000 0.489080 0.681043
0.020000 0.489080 0.714259
0.020000 0.489080 0.747796
0.020000 0.489080 0.781645
0.020000 0.489080 0.815797
0.020000 0.489080 0.850246
0.020000 0.489080 0.884982
0.020000 0.489080 0.920000
0.020000 0.520141 0.020000
0.020000 0.520141 0.031825
0.020000 0.520141 0.048125
0.020000 0.520141 0.066688
0.020000 0.520141 0.086893
0.020000 0.520141 0.108413
0.020000 0.520141 0.131044
0.020000 0.520141 0.154641
0.020000 0.520141 0.179099
0.020000 0.520141 0.204335
0.020000 0.520141 0.230283
0.020000 0.520141 0.256890
0.020000 0.520141 0.284108
0.020000 0.520141 0.311900
0.020000 0.520141 0.340232
0.020000 0.520141 0.369075
0.020000 0.520141 0.398403
0.020000 0.520141 0.428194
0.020000 0.520141 0.458425
0.020000 0.520141 0.489080
0.020000 0.520141 0.520141
0.020000 0.520141 0.551593
0.020000 0.520141 0.583421
0.020000 0.520141 0.615614
0.020000 0.520141 0.648158
0.020000 0.520141 0.681043
0.020000 0.520141 0.714259
0.020000 0.520141 0.747796
0.020000 0.520141 0.781645
0.020000 0.520141 0.815797
0.020000 0.520141 0.850246
0.020000 0.520141 0.884982
0.020000 0.520141 0.920000
0.020000 0.551593 0.020000
0.020000 0.551593 0.031825
0.020000 0.551593 0.048125
0.020000 0.551593 0.066688
0.020000 0.551593 0.086893
0.020000 0.551593 0.108413
0.020000 0.551593 0.131044
0.020000 0.551593 0.154641
0.020000 0.551593 0.179099
0.020000 0.551593 0.204335
0.020000 0.551593 0.230283
0.020000 0.551593 0.256890
0.020000 0.551593 0.284108
0.020000 0.551593 0.311900
0.020000 0.551593 0.340232
0.020000 0.551593 0.369075
0.020000 0.551593 0.398403
0.020000 0.551593 0.428194
0.020000 0.551593 0.458425
0.020000 0.551593 0.489080
0.020000 0.551593 0.520141
0.020000 0.551593 0.551593
0.020000 0.551593 0.583421
0.020000 0.551593 0.615614
0.020000 0.551593 0.648158
0.020000 0.551593 0.681043
0.020000 0.551593 0.714259
0.020000 0.551593 0.747796
0.020000 0.551593 0.781645
0.020000 0.551593 0.815797
0.020000 0.551593 0.850246
0.020000 0.551593 0.884982
0.020000 0.551593 0.920000
0.020000 0.583421 0.020000
0.020000 0.583421 0.031825
0.020000 0.583421 0.048125
0.020000 0.583421 0.066688
0.020000 0.583421 0.086893
0.020000 0.583421 0.108413
0.020000 0.583421 0.131044
0.020000 0.583421 0.154641
0.020000 0.583421 0.179099
0.020000 0.583421 0.204335
0.020000 0.583421 0.230283
0.020000 0.583421 0.256890
0.020000 0.583421 0.284108
0.020000 0.583421 0.311900
0.020000 0.583421 0.340232
0.020000 0.583421 0.369075
0.020000 0.583421 0.398403
0.020000 0.583421 0.428194
0.020000 0.583421 0.458425
0.020000 0.583421 0.489080
0.020000 0.583421 0.520141
0.020000 0.583421 0.551593
0.020000 0.583421 0.583421
0.020000 0.583421 0.615614
0.020000 0.583421 0.648158
0.020000 0.583421 0.681043
0.020000 0.583421 0.714259
0.020000 0.583421 0.747796
0.020000 0.583421 0.781645
0.020000 0.583421 0.815797
0.020000 0.583421 0.850246
0.020000 0.583421 0.884982
0.020000 0.583421 0.920000
0.020000 0.615614 0.020000
0.020000 0.615614 0.031825
0.020000 0.615614 0.048125
0.020000 0.615614 0.066688
0.020000 0.615614 0.086893
0.020000 0.615614 0.108413
0.020000 0.615614 0.131044
0.020000 0.615614 0.154641
0.020000 0.615614 0.179099
0.020000 0.615614 0.204335
0.020000 0.615614 0.230283
0.020000 0.615614 0.256890
0.020000 0.615614 0.284108
0.020000 0.615614 0.311900
0.020000 0.615614 0.340232
0.020000 0.615614 0.369075
0.020000 0.615614 0.398403
0.020000 0.615614 0.428194
0.020000 0.615614 0.458425
0.020000 0.615614 0.489080
0.020000 0.615614 0.520141
0.020000 0.615614 0.551593
0.020000 0.615614 0.583421
0.020000 0.615614 0.615614
0.020000 0.615614 0.648158
0.020000 0.615614 0.681043
0.020000 0.615614 0.714259
0.020000 0.615614 0.747796
0.020000 0.615614 0.781645
0.020000 0.615614 0.815797
0.020000 0.615614 0.850246
0.020000 0.615614 0.884982
0.020000 0.615614 0.920000
0.020000 0.648158 0.020000
0.020000 0.648158 0.031825
0.020000 0.648158 0.048125
0.020000 0.648158 0.066688
0.020000 0.648158 0.086893
0.020000 0.648158 0.108413
0.020000 0.648158 0.131044
0.020000 0.648158 0.154641
0.020000 0.648158 0.179099
0.020000 0.648158 0.204335
0.020000 0.648158 0.230283
0.020000 0.648158 0.256890
0.020000 0.648158 0.284108
0.020000 0.648158 0.311900
0.020000 0.648158 0.340232
0.020000 0.648158 0.369075
0.020000 0.648158 0.398403
0.020000 0.648158 0.428194
0.020000 0.648158 0.458425
0.020000 0.648158 0.489080
0.020000 0.648158 0.520141
0.020000 0.648158 0.551593
0.020000 0.648158 0.583421
0.020000 0.648158 0.615614
0.020000 0.648158 0.648158
0.020000 0.648158 0.681043
0.020000 0.648158 0.714259
0.020000 0.648158 0.747796
0.020000 0.648158 0.781645
0.020000 0.648158 0.815797
0.020000 0.648158 0.850246
0.020000 0.648158 0.884982
0.020000 0.648158 0.920000
0.020000 0.681043 0.020000
0.020000 0.681043 0.031825
0.020000 0.681043 0.048125
0.020000 0.681043 0.066688
0.020000 0.681043 0.086893
0.020000 0.681043 0.108413
0.020000 0.681043 0.131044
0.020000 0.681043 0.154641
0.020000 0.681043 0.179099
0.020000 0.681043 0.204335
0.020000 0.681043 0.230283
0.020000 0.681043 0.256890
0.020000 0.681043 0.284108
0.020000 0.681043 0.311900
0.020000 0.681043 0.340232
0.020000 0.681043 0.369075
0.020000 0.681043 0.398403
0.020000 0.681043 0.428194
0.020000 0.681043 0.458425
0.020000 0.681043 0.489080
0.020000 0.681043 0.520141
0.020000 0.681043 0.551593
0.020000 0.681043 0.583421
0.020000 0.681043 0.615614
0.020000 0.681043 0.648158
0.020000 0.681043 0.681043
0.020000 0.681043 0.714259
0.020000 0.681043 0.747796
0.020000 0.681043 0.781645
0.020000 0.681043 0.815797
0.020000 0.681043 0.850246
0.020000 0.681043 0.884982
0.020000 0.681043 0.920000
0.020000 0.714259 0.020000
0.020000 0.714259 0.031825
0.020000 0.714259 0.048125
0.020000 0.714259 0.066688
0.020000 0.714259 0.086893
0.020000 0.714259 0.108413
0.020000 0.714259 0.131044
0.020000 0.714259 0.154641
0.020000 0.714259 0.179099
0.020000 0.714259 0.204335
0.020000 0.714259 0.230283
0.020000 0.714259 0.256890
0.020000 0.714259 0.284108
0.020000 0.714259 0.311900
0.020000 0.714259 0.340232
0.020000 0.714259 0.369075
0.020000 0.714259 0.398403
0.020000 0.714259 0.428194
0.020000 0.714259 0.458425
0.020000 0.714259 0.489080
0.020000 0.714259 0.520141
0.020000 0.714259 0.551593
0.020000 0.714259 0.583421
0.020000 0.714259 0.615614
0.020000 0.714259 0.648158
0.020000 0.714259 0.681043
0.020000 0.714259 0.714259
