photo_tools_v13/luts/kodak_2383.cube
TITLE "Kodak 2383"
LUT_3D_SIZE 33
DOMAIN_MIN 0.0 0.0 0.0
DOMAIN_MAX 1.0 1.0 1.0
0.000000 0.000000 0.000000
0.000000 0.000000 0.028750
0.000000 0.000000 0.057500
0.000000 0.000000 0.086250
0.000000 0.000000 0.115000
0.000000 0.000000 0.143750
0.000000 0.000000 0.172500
0.000000 0.000000 0.201250
0.000000 0.000000 0.230000
0.000000 0.000000 0.258750
0.000000 0.000000 0.287500
0.000000 0.000000 0.316250
0.000000 0.000000 0.345000
0.000000 0.000000 0.373750
0.000000 0.000000 0.402500
0.000000 0.000000 0.431250
0.000000 0.000000 0.460000
0.000000 0.000000 0.488750
0.000000 0.000000 0.517500
0.000000 0.000000 0.546250
0.000000 0.000000 0.575000
0.000000 0.000000 0.603750
0.000000 0.000000 0.632500
0.000000 0.000000 0.661250
0.000000 0.000000 0.690000
0.000000 0.000000 0.718750
0.000000 0.000000 0.747500
0.000000 0.000000 0.776250
0.000000 0.000000 0.805000
0.000000 0.000000 0.833750
0.000000 0.000000 0.862500
0.000000 0.000000 0.891250
0.000000 0.000000 0.920000
0.000000 0.031250 0.000000
0.000000 0.031250 0.028750
0.000000 0.031250 0.057500
0.000000 0.031250 0.086250
0.000000 0.031250 0.115000
0.000000 0.031250 0.143750
0.000000 0.031250 0.172500
0.000000 0.031250 0.201250
0.000000 0.031250 0.230000
0.000000 0.031250 0.258750
0.000000 0.031250 0.287500
0.000000 0.031250 0.316250
0.000000 0.031250 0.345000
0.000000 0.031250 0.373750
0.000000 0.031250 0.402500
0.000000 0.031250 0.431250
0.000000 0.031250 0.460000
0.000000 0.031250 0.488750
0.000000 0.031250 0.517500
0.000000 0.031250 0.546250
0.000000 0.031250 0.575000
0.000000 0.031250 0.603750
0.000000 0.031250 0.632500
0.000000 0.031250 0.661250
0.000000 0.031250 0.690000
0.000000 0.031250 0.718750
0.000000 0.031250 0.747500
0.000000 0.031250 0.776250
0.000000 0.031250 0.805000
0.000000 0.031250 0.833750
0.000000 0.031250 0.862500
0.000000 0.031250 0.891250
0.000000 0.031250 0.920000
0.000000 0.062500 0.000000
0.000000 0.062500 0.028750
0.000000 0.062500 0.057500
0.000000 0.062500 0.086250
0.000000 0.062500 0.115000
0.000000 0.062500 0.143750
0.000000 0.062500 0.172500
0.000000 0.062500 0.201250
0.000000 0.062500 0.230000
0.000000 0.062500 0.258750
0.000000 0.062500 0.287500
0.000000 0.062500 0.316250
0.000000 0.062500 0.345000
0.000000 0.062500 0.373750
0.000000 0.062500 0.402500
0.000000 0.062500 0.431250
0.000000 0.062500 0.460000
0.000000 0.062500 0.488750
0.000000 0.062500 0.517500
0.000000 0.062500 0.546250
0.000000 0.062500 0.575000
0.000000 0.062500 0.603750
0.000000 0.062500 0.632500
0.000000 0.062500 0.661250
0.000000 0.062500 0.690000
0.000000 0.062500 0.718750
0.000000 0.062500 0.747500
0.000000 0.062500 0.776250
0.000000 0.062500 0.805000
0.000000 0.062500 0.833750
0.000000 0.062500 0.862500
0.000000 0.062500 0.891250
0.000000 0.062500 0.920000
0.000000 0.093750 0.000000
0.000000 0.093750 0.028750
0.000000 0.093750 0.057500
0.000000 0.093750 0.086250
0.000000 0.093750 0.115000
0.000000 0.093750 0.143750
0.000000 0.093750 0.172500
0.000000 0.093750 0.201250
0.000000 0.093750 0.230000
0.000000 0.093750 0.258750
0.000000 0.093750 0.287500
0.000000 0.093750 0.316250
0.000000 0.093750 0.345000
0.000000 0.093750 0.373750
0.000000 0.093750 0.402500
0.000000 0.093750 0.431250
0.000000 0.093750 0.460000
0.000000 0.093750 0.488750
0.000000 0.093750 0.517500
0.000000 0.093750 0.546250
0.000000 0.093750 0.575000
0.000000 0.093750 0.603750
0.000000 0.093750 0.632500
0.000000 0.093750 0.661250
0.000000 0.093750 0.690000
0.000000 0.093750 0.718750
0.000000 0.093750 0.747500
0.000000 0.093750 0.776250
0.000000 0.093750 0.805000
0.000000 0.093750 0.833750
0.000000 0.093750 0.862500
0.000000 0.093750 0.891250
0.000000 0.093750 0.920000
0.000000 0.125000 0.000000
0.000000 0.125000 0.028750
0.000000 0.125000 0.057500
0.000000 0.125000 0.086250
0.000000 0.125000 0.115000
0.000000 0.125000 0.143750
0.000000 0.125000 0.172500
0.000000 0.125000 0.201250
0.000000 0.125000 0.230000
0.000000 0.125000 0.258750
0.000000 0.125000 0.287500
0.000000 0.125000 0.316250
0.000000 0.125000 0.345000
0.000000 0.125000 0.373750
0.000000 0.125000 0.402500
0.000000 0.125000 0.431250
0.000000 0.125000 0.460000
0.000000 0.125000 0.488750
0.000000 0.125000 0.517500
0.000000 0.125000 0.546250
0.000000 0.125000 0.575000
0.000000 0.125000 0.603750
0.000000 0.125000 0.632500
0.000000 0.125000 0.661250
0.000000 0.125000 0.690000
0.000000 0.125000 0.718750
0.000000 0.125000 0.747500
0.000000 0.125000 0.776250
0.000000 0.125000 0.805000
0.000000 0.125000 0.833750
0.000000 0.125000 0.862500
0.000000 0.125000 0.891250
0.000000 0.125000 0.920000
0.000000 0.156250 0.000000
0.000000 0.156250 0.028750
0.000000 0.156250 0.057500
0.000000 0.156250 0.086250
0.000000 0.156250 0.115000
0.000000 0.156250 0.143750
0.000000 0.156250 0.172500
0.000000 0.156250 0.201250
0.000000 0.156250 0.230000
0.000000 0.156250 0.258750
0.000000 0.156250 0.287500
0.000000 0.156250 0.316250
0.000000 0.156250 0.345000
0.000000 0.156250 0.373750
0.000000 0.156250 0.402500
0.000000 0.156250 0.431250
0.000000 0.156250 0.460000
0.000000 0.156250 0.488750
0.000000 0.156250 0.517500
0.000000 0.156250 0.546250
0.000000 0.156250 0.575000
0.000000 0.156250 0.603750
0.000000 0.156250 0.632500
0.000000 0.156250 0.661250
0.000000 0.156250 0.690000
0.000000 0.156250 0.718750
0.000000 0.156250 0.747500
0.000000 0.156250 0.776250
0.000000 0.156250 0.805000
0.000000 0.156250 0.833750
0.000000 0.156250 0.862500
0.000000 0.156250 0.891250
0.000000 0.156250 0.920000
0.000000 0.187500 0.000000
0.000000 0.187500 0.028750
0.000000 0.187500 0.057500
0.000000 0.187500 0.086250
0.000000 0.187500 0.115000
0.000000 0.187500 0.143750
0.000000 0.187500 0.172500
0.000000 0.187500 0.201250
0.000000 0.187500 0.230000
0.000000 0.187500 0.258750
0.000000 0.187500 0.287500
0.000000 0.187500 0.316250
0.000000 0.187500 0.345000
0.000000 0.187500 0.373750
0.000000 0.187500 0.402500
0.000000 0.187500 0.431250
0.000000 0.187500 0.460000
0.000000 0.187500 0.488750
0.000000 0.187500 0.517500
0.000000 0.187500 0.546250
0.000000 0.187500 0.575000
0.000000 0.187500 0.603750
0.000000 0.187500 0.632500
0.000000 0.187500 0.661250
0.000000 0.187500 0.690000
0.000000 0.187500 0.718750
0.000000 0.187500 0.747500
0.000000 0.187500 0.776250
0.000000 0.187500 0.805000
0.000000 0.187500 0.833750
0.000000 0.187500 0.862500
0.000000 0.187500 0.891250
0.000000 0.187500 0.920000
0.000000 0.218750 0.000000
0.000000 0.218750 0.028750
0.000000 0.218750 0.057500
0.000000 0.218750 0.086250
0.000000 0.218750 0.115000
0.000000 0.218750 0.143750
0.000000 0.218750 0.172500
0.000000 0.218750 0.201250
0.000000 0.218750 0.230000
0.000000 0.218750 0.258750
0.000000 0.218750 0.287500
0.000000 0.218750 0.316250
0.000000 0.218750 0.345000
0.000000 0.218750 0.373750
0.000000 0.218750 0.402500
0.000000 0.218750 0.431250
0.000000 0.218750 0.460000
0.000000 0.218750 0.488750
0.000000 0.218750 0.517500
0.000000 0.218750 0.546250
0.000000 0.218750 0.575000
0.000000 0.218750 0.603750
0.000000 0.218750 0.632500
0.000000 0.218750 0.661250
0.000000 0.218750 0.690000
0.000000 0.218750 0.718750
0.000000 0.218750 0.747500
0.000000 0.218750 0.776250
0.000000 0.218750 0.805000
0.000000 0.218750 0.833750
0.000000 0.218750 0.862500
0.000000 0.218750 0.891250
0.000000 0.218750 0.920000
0.000000 0.250000 0.000000
0.000000 0.250000 0.028750
0.000000 0.250000 0.057500
0.000000 0.250000 0.086250
0.000000 0.250000 0.115000
0.000000 0.250000 0.143750
0.000000 0.250000 0.172500
0.000000 0.250000 0.201250
0.000000 0.250000 0.230000
0.000000 0.250000 0.258750
0.000000 0.250000 0.287500
0.000000 0.250000 0.316250
0.000000 0.250000 0.345000
0.000000 0.250000 0.373750
0.000000 0.250000 0.402500
0.000000 0.250000 0.431250
0.000000 0.250000 0.460000
0.000000 0.250000 0.488750
0.000000 0.250000 0.517500
0.000000 0.250000 0.546250
0.000000 0.250000 0.575000
0.000000 0.250000 0.603750
0.000000 0.250000 0.632500
0.000000 0.250000 0.661250
0.000000 0.250000 0.690000
0.000000 0.250000 0.718750
0.000000 0.250000 0.747500
0.000000 0.250000 0.776250
0.000000 0.250000 0.805000
0.000000 0.250000 0.833750
0.000000 0.250000 0.862500
0.000000 0.250000 0.891250
0.000000 0.250000 0.920000
0.000000 0.281250 0.000000
0.000000 0.281250 0.028750
0.000000 0.281250 0.057500
0.000000 0.281250 0.086250
0.000000 0.281250 0.115000
0.000000 0.281250 0.143750
0.000000 0.281250 0.172500
0.000000 0.281250 0.201250
0.000000 0.281250 0.230000
0.000000 0.281250 0.258750
0.000000 0.281250 0.287500
0.000000 0.281250 0.316250
0.000000 0.281250 0.345000
0.000000 0.281250 0.373750
0.000000 0.281250 0.402500
0.000000 0.281250 0.431250
0.000000 0.281250 0.460000
0.000000 0.281250 0.488750
0.000000 0.281250 0.517500
0.000000 0.281250 0.546250
0.000000 0.281250 0.575000
0.000000 0.281250 0.603750
0.000000 0.281250 0.632500
0.000000 0.281250 0.661250
0.000000 0.281250 0.690000
0.000000 0.281250 0.718750
0.000000 0.281250 0.747500
0.000000 0.281250 0.776250
0.000000 0.281250 0.805000
0.000000 0.281250 0.833750
0.000000 0.281250 0.862500
0.000000 0.281250 0.891250
0.000000 0.281250 0.920000
0.000000 0.312500 0.000000
0.000000 0.312500 0.028750
0.000000 0.312500 0.057500
0.000000 0.312500 0.086250
0.000000 0.312500 0.115000
0.000000 0.312500 0.143750
0.000000 0.312500 0.172500
0.000000 0.312500 0.201250
0.000000 0.312500 0.230000
0.000000 0.312500 0.258750
0.000000 0.312500 0.287500
0.000000 0.312500 0.316250
0.000000 0.312500 0.345000
0.000000 0.312500 0.373750
0.000000 0.312500 0.402500
0.000000 0.312500 0.431250
0.000000 0.312500 0.460000
0.000000 0.312500 0.488750
0.000000 0.312500 0.517500
0.000000 0.312500 0.546250
0.000000 0.312500 0.575000
0.000000 0.312500 0.603750
0.000000 0.312500 0.632500
0.000000 0.312500 0.661250
0.000000 0.312500 0.690000
0.000000 0.312500 0.718750
0.000000 0.312500 0.747500
0.000000 0.312500 0.776250
0.000000 0.312500 0.805000
0.000000 0.312500 0.833750
0.000000 0.312500 0.862500
0.000000 0.312500 0.891250
0.000000 0.312500 0.920000
0.000000 0.343750 0.000000
0.000000 0.343750 0.028750
0.000000 0.343750 0.057500
0.000000 0.343750 0.086250
0.000000 0.343750 0.115000
0.000000 0.343750 0.143750
0.000000 0.343750 0.172500
0.000000 0.343750 0.201250
0.000000 0.343750 0.230000
0.000000 0.343750 0.258750
0.000000 0.343750 0.287500
0.000000 0.343750 0.316250
0.000000 0.343750 0.345000
0.000000 0.343750 0.373750
0.000000 0.343750 0.402500
0.000000 0.343750 0.431250
0.000000 0.343750 0.460000
0.000000 0.343750 0.488750
0.000000 0.343750 0.517500
0.000000 0.343750 0.546250
0.000000 0.343750 0.575000
0.000000 0.343750 0.603750
0.000000 0.343750 0.632500
0.000000 0.343750 0.661250
0.000000 0.343750 0.690000
0.000000 0.343750 0.718750
0.000000 0.343750 0.747500
0.000000 0.343750 0.776250
0.000000 0.343750 0.805000
0.000000 0.343750 0.833750
0.000000 0.343750 0.862500
0.000000 0.343750 0.891250
0.000000 0.343750 0.920000
0.000000 0.375000 0.000000
0.000000 0.375000 0.028750
0.000000 0.375000 0.057500
0.000000 0.375000 0.086250
0.000000 0.375000 0.115000
0.000000 0.375000 0.143750
0.000000 0.375000 0.172500
0.000000 0.375000 0.201250
0.000000 0.375000 0.230000
0.000000 0.375000 0.258750
0.000000 0.375000 0.287500
0.000000 0.375000 0.316250
0.000000 0.375000 0.345000
0.000000 0.375000 0.373750
0.000000 0.375000 0.402500
0.000000 0.375000 0.431250
0.000000 0.375000 0.460000
0.000000 0.375000 0.488750
0.000000 0.375000 0.517500
0.000000 0.375000 0.546250
0.000000 0.375000 0.575000
0.000000 0.375000 0.603750
0.000000 0.375000 0.632500
0.000000 0.375000 0.661250
0.000000 0.375000 0.690000
0.000000 0.375000 0.718750
0.000000 0.375000 0.747500
0.000000 0.375000 0.776250
0.000000 0.375000 0.805000
0.000000 0.375000 0.833750
0.000000 0.375000 0.862500
0.000000 0.375000 0.891250
0.000000 0.375000 0.920000
0.000000 0.406250 0.000000
0.000000 0.406250 0.028750
0.000000 0.406250 0.057500
0.000000 0.406250 0.086250
0.000000 0.406250 0.115000
0.000000 0.406250 0.143750
0.000000 0.406250 0.172500
0.000000 0.406250 0.201250
0.000000 0.406250 0.230000
0.000000 0.406250 0.258750
0.000000 0.406250 0.287500
0.000000 0.406250 0.316250
0.000000 0.406250 0.345000
0.000000 0.406250 0.373750
0.000000 0.406250 0.402500
0.000000 0.406250 0.431250
0.000000 0.406250 0.460000
0.000000 0.406250 0.488750
0.000000 0.406250 0.517500
0.000000 0.406250 0.546250
0.000000 0.406250 0.575000
0.000000 0.406250 0.603750
0.000000 0.406250 0.632500
0.000000 0.406250 0.661250
0.000000 0.406250 0.690000
0.000000 0.406250 0.718750
0.000000 0.406250 0.747500
0.000000 0.406250 0.776250
0.000000 0.406250 0.805000
0.000000 0.406250 0.833750
0.000000 0.406250 0.862500
0.000000 0.406250 0.891250
0.000000 0.406250 0.920000
0.000000 0.437500 0.000000
0.000000 0.437500 0.028750
0.000000 0.437500 0.057500
0.000000 0.437500 0.086250
0.000000 0.437500 0.115000
0.000000 0.437500 0.143750
0.000000 0.437500 0.172500
0.000000 0.437500 0.201250
0.000000 0.437500 0.230000
0.000000 0.437500 0.258750
0.000000 0.437500 0.287500
0.000000 0.437500 0.316250
0.000000 0.437500 0.345000
0.000000 0.437500 0.373750
0.000000 0.437500 0.402500
0.000000 0.437500 0.431250
0.000000 0.437500 0.460000
0.000000 0.437500 0.488750
0.000000 0.437500 0.517500
0.000000 0.437500 0.546250
0.000000 0.437500 0.575000
0.000000 0.437500 0.603750
0.000000 0.437500 0.632500
0.000000 0.437500 0.661250
0.000000 0.437500 0.690000
0.000000 0.437500 0.718750
0.000000 0.437500 0.747500
0.000000 0.437500 0.776250
0.000000 0.437500 0.805000
0.000000 0.437500 0.833750
0.000000 0.437500 0.862500
0.000000 0.437500 0.891250
0.000000 0.437500 0.920000
0.000000 0.468750 0.000000
0.000000 0.468750 0.028750
0.000000 0.468750 0.057500
0.000000 0.468750 0.086250
0.000000 0.468750 0.115000
0.000000 0.468750 0.143750
0.000000 0.468750 0.172500
0.000000 0.468750 0.201250
0.000000 0.468750 0.230000
0.000000 0.468750 0.258750
0.000000 0.468750 0.287500
0.000000 0.468750 0.316250
0.000000 0.468750 0.345000
0.000000 0.468750 0.373750
0.000000 0.468750 0.402500
0.000000 0.468750 0.431250
0.000000 0.468750 0.460000
0.000000 0.468750 0.488750
0.000000 0.468750 0.517500
0.000000 0.468750 0.546250
0.000000 0.468750 0.575000
0.000000 0.468750 0.603750
0.000000 0.468750 0.632500
0.000000 0.468750 0.661250
0.000000 0.468750 0.690000
0.000000 0.468750 0.718750
0.000000 0.468750 0.747500
0.000000 0.468750 0.776250
0.000000 0.468750 0.805000
0.000000 0.468750 0.833750
0.000000 0.468750 0.862500
0.000000 0.468750 0.891250
0.000000 0.468750 0.920000
0.000000 0.500000 0.000000
0.000000 0.500000 0.028750
0.000000 0.500000 0.057500
0.000000 0.500000 0.086250
0.000000 0.500000 0.115000
0.000000 0.500000 0.143750
0.000000 0.500000 0.172500
0.000000 0.500000 0.201250
0.000000 0.500000 0.230000
0.000000 0.500000 0.258750
0.000000 0.500000 0.287500
0.000000 0.500000 0.316250
0.000000 0.500000 0.345000
0.000000 0.500000 0.373750
0.000000 0.500000 0.402500
0.000000 0.500000 0.431250
0.000000 0.500000 0.460000
0.000000 0.500000 0.488750
0.000000 0.500000 0.517500
0.000000 0.500000 0.546250
0.000000 0.500000 0.575000
0.000000 0.500000 0.603750
0.000000 0.500000 0.632500
0.000000 0.500000 0.661250
0.000000 0.500000 0.690000
0.000000 0.500000 0.718750
0.000000 0.500000 0.747500
0.000000 0.500000 0.776250
0.000000 0.500000 0.805000
0.000000 0.500000 0.833750
0.000000 0.500000 0.862500
0.000000 0.500000 0.891250
0.000000 0.500000 0.920000
0.000000 0.531250 0.000000
0.000000 0.531250 0.028750
0.000000 0.531250 0.057500
0.000000 0.531250 0.086250
0.000000 0.531250 0.115000
0.000000 0.531250 0.143750
0.000000 0.531250 0.172500
0.000000 0.531250 0.201250
0.000000 0.531250 0.230000
0.000000 0.531250 0.258750
0.000000 0.531250 0.287500
0.000000 0.531250 0.316250
0.000000 0.531250 0.345000
0.000000 0.531250 0.373750
0.000000 0.531250 0.402500
0.000000 0.531250 0.431250
0.000000 0.531250 0.460000
0.000000 0.531250 0.488750
0.000000 0.531250 0.517500
0.000000 0.531250 0.546250
0.000000 0.531250 0.575000
0.000000 0.531250 0.603750
0.000000 0.531250 0.632500
0.000000 0.531250 0.661250
0.000000 0.531250 0.690000
0.000000 0.531250 0.718750
0.000000 0.531250 0.747500
0.000000 0.531250 0.776250
0.000000 0.531250 0.805000
0.000000 0.531250 0.833750
0.000000 0.531250 0.862500
0.000000 0.531250 0.891250
0.000000 0.531250 0.920000
0.000000 0.562500 0.000000
0.000000 0.562500 0.028750
0.000000 0.562500 0.057500
0.000000 0.562500 0.086250
0.000000 0.562500 0.115000
0.000000 0.562500 0.143750
0.000000 0.562500 0.172500
0.000000 0.562500 0.201250
0.000000 0.562500 0.230000
0.000000 0.562500 0.258750
0.000000 0.562500 0.287500
0.000000 0.562500 0.316250
0.000000 0.562500 0.345000
0.000000 0.562500 0.373750
0.000000 0.562500 0.402500
0.000000 0.562500 0.431250
0.000000 0.562500 0.460000
0.000000 0.562500 0.488750
0.000000 0.562500 0.517500
0.000000 0.562500 0.546250
0.000000 0.562500 0.575000
0.000000 0.562500 0.603750
0.000000 0.562500 0.632500
0.000000 0.562500 0.661250
0.000000 0.562500 0.690000
0.000000 0.562500 0.718750
0.000000 0.562500 0.747500
0.000000 0.562500 0.776250
0.000000 0.562500 0.805000
0.000000 0.562500 0.833750
0.000000 0.562500 0.862500
0.000000 0.562500 0.891250
0.000000 0.562500 0.920000
0.000000 0.593750 0.000000
0.000000 0.593750 0.028750
0.000000 0.593750 0.057500
0.000000 0.593750 0.086250
0.000000 0.593750 0.115000
0.000000 0.593750 0.143750
0.000000 0.593750 0.172500
0.000000 0.593750 0.201250
0.000000 0.593750 0.230000
0.000000 0.593750 0.258750
0.000000 0.593750 0.287500
0.000000 0.593750 0.316250
0.000000 0.593750 0.345000
0.000000 0.593750 0.373750
0.000000 0.593750 0.402500
0.000000 0.593750 0.431250
0.000000 0.593750 0.460000
0.000000 0.593750 0.488750
0.000000 0.593750 0.517500
0.000000 0.593750 0.546250
0.000000 0.593750 0.575000
0.000000 0.593750 0.603750
0.000000 0.593750 0.632500
0.000000 0.593750 0.661250
0.000000 0.593750 0.690000
0.000000 0.593750 0.718750
0.000000 0.593750 0.747500
0.000000 0.593750 0.776250
0.000000 0.593750 0.805000
0.000000 0.593750 0.833750
0.000000 0.593750 0.862500
0.000000 0.593750 0.891250
0.000000 0.593750 0.920000
0.000000 0.625000 0.000000
0.000000 0.625000 0.028750
0.000000 0.625000 0.057500
0.000000 0.625000 0.086250
0.000000 0.625000 0.115000
0.000000 0.625000 0.143750
0.000000 0.625000 0.172500
0.000000 0.625000 0.201250
0.000000 0.625000 0.230000
0.000000 0.625000 0.258750
0.000000 0.625000 0.287500
0.000000 0.625000 0.316250
0.000000 0.625000 0.345000
0.000000 0.625000 0.373750
0.000000 0.625000 0.402500
0.000000 0.625000 0.431250
0.000000 0.625000 0.460000
0.000000 0.625000 0.488750
0.000000 0.625000 0.517500
0.000000 0.625000 0.546250
0.000000 0.625000 0.575000
0.000000 0.625000 0.603750
0.000000 0.625000 0.632500
0.000000 0.625000 0.661250
0.000000 0.625000 0.690000
0.000000 0.625000 0.718750
0.000000 0.625000 0.747500
0.000000 0.625000 0.776250
0.000000 0.625000 0.805000
0.000000 0.625000 0.833750
0.000000 0.625000 0.862500
0.000000 0.625000 0.891250
0.000000 0.625000 0.920000
0.000000 0.656250 0.000000
0.000000 0.656250 0.028750
0.000000 0.656250 0.057500
0.000000 0.656250 0.086250
0.000000 0.656250 0.115000
0.000000 0.656250 0.143750
0.000000 0.656250 0.172500
0.000000 0.656250 0.201250
0.000000 0.656250 0.230000
0.000000 0.656250 0.258750
0.000000 0.656250 0.287500
0.000000 0.656250 0.316250
0.000000 0.656250 0.345000
0.000000 0.656250 0.373750
0.000000 0.656250 0.402500
0.000000 0.656250 0.431250
0.000000 0.656250 0.460000
0.000000 0.656250 0.488750
0.000000 0.656250 0.517500
0.000000 0.656250 0.546250
0.000000 0.656250 0.575000
0.000000 0.656250 0.603750
0.000000 0.656250 0.632500
0.000000 0.656250 0.661250
0.000000 0.656250 0.690000
0.000000 0.656250 0.718750
0.000000 0.656250 0.747500
0.000000 0.656250 0.776250
0.000000 0.656250 0.805000
0.000000 0.656250 0.833750
0.000000 0.656250 0.862500
0.000000 0.656250 0.891250
0.000000 0.656250 0.920000
0.000000 0.687500 0.000000
0.000000 0.687500 0.028750
0.000000 0.687500 0.057500
0.000000 0.687500 0.086250
0.000000 0.687500 0.115000
0.000000 0.687500 0.143750
0.000000 0.687500 0.172500
0.000000 0.687500 0.201250
0.000000 0.687500 0.230000
0.000000 0.687500 0.258750
0.000000 0.687500 0.287500
0.000000 0.687500 0.316250
0.000000 0.687500 0.345000
0.000000 0.687500 0.373750
0.000000 0.687500 0.402500
0.000000 0.687500 0.431250
0.000000 0.687500 0.460000
0.000000 0.687500 0.488750
0.000000 0.687500 0.517500
0.000000 0.687500 0.546250
0.000000 0.687500 0.575000
0.000000 0.687500 0.603750
0.000000 0.687500 0.632500
0.000000 0.687500 0.661250
0.000000 0.687500 0.690000
0.000000 0.687500 0.718750
0.000000 0.687500 0.747500
0.000000 0.687500 0.776250
0.000000 0.687500 0.805000
0.000000 0.687500 0.833750
0.000000 0.687500 0.862500
0.000000 0.687500 0.891250
0.000000 0.687500 0.920000
0.000000 0.718750 0.000000
0.000000 0.718750 0.028750
0.000000 0.718750 0.057500
0.000000 0.718750 0.086250
0.000000 0.718750 0.115000
0.000000 0.718750 0.143750
0.000000 0.718750 0.172500
0.000000 0.718750 0.201250
0.000000 0.718750 0.230000
0.000000 0.718750 0.258750
0.000000 0.718750 0.287500
0.000000 0.718750 0.316250
0.000000 0.718750 0.345000
0.000000 0.718750 0.373750
0.000000 0.718750 0.402500
0.000000 0.718750 0.431250
0.000000 0.718750 0.460000
0.000000 0.718750 0.488750
0.000000 0.718750 0.517500
0.000000 0.718750 0.546250
0.000000 0.718750 0.575000
0.000000 0.718750 0.603750
0.000000 0.718750 0.632500
0.000000 0.718750 0.661250
0.000000 0.718750 0.690000
0.000000 0.718750 0.718750
0.000000 0.718750 0.747500
0.000000 0.718750 0.776250
0.000000 0.718750 0.805000
0.000000 0.718750 0.833750
0.000000 0.718750 0.862500
0.000000 0.718750 0.891250
0.000000 0.718750 0.920000
0.000000 0.750000 0.000000
0.000000 0.750000 0.028750
0.000000 0.750000 0.057500
0.000000 0.750000 0.086250
0.000000 0.750000 0.115000
0.000000 0.750000 0.143750
0.000000 0.750000 0.172500
0.000000 0.750000 0.201250
0.000000 0.750000 0.230000
0.000000 0.750000 0.258750
0.000000 0.750000 0.287500
0.000000 0.750000 0.316250
0.000000 0.750000 0.345000
0.000000 0.750000 0.373750
0.000000 0.750000 0.402500
0.000000 0.750000 0.431250
0.000000 0.750000 0.460000
0.000000 0.750000 0.488750
0.000000 0.750000 0.517500
0.000000 0.750000 0.546250
0.000000 0.750000 0.575000
0.000000 0.750000 0.603750
0.000000 0.750000 0.632500
0.000000 0.750000 0.661250
0.000000 0.750000 0.690000
0.000000 0.750000 0.718750
0.000000 0.750000 0.747500
0.000000 0.750000 0.776250
0.000000 0.750000 0.805000
0.000000 0.750000 0.833750
0.000000 0.750000 0.862500
0.000000 0.750000 0.891250
0.000000 0.750000 0.920000
0.000000 0.781250 0.000000
0.000000 0.781250 0.028750
0.000000 0.781250 0.057500
0.000000 0.781250 0.086250
0.000000 0.781250 0.115000
0.000000 0.781250 0.143750
0.000000 0.781250 0.172500
0.000000 0.781250 0.201250
0.000000 0.781250 0.230000
0.000000 0.781250 0.258750
0.000000 0.781250 0.287500
0.000000 0.781250 0.316250
0.000000 0.781250 0.345000
0.000000 0.781250 0.373750
0.000000 0.781250 0.402500
0.000000 0.781250 0.431250
0.000000 0.781250 0.460000
0.000000 0.781250 0.488750
0.000000 0.781250 0.517500
0.000000 0.781250 0.546250
0.000000 0.781250 0.575000
0.000000 0.781250 0.603750
0.000000 0.781250 0.632500
0.000000 0.781250 0.661250
0.000000 0.781250 0.690000
0.000000 0.781250 0.718750
0.000000 0.781250 0.747500
0.000000 0.781250 0.776250
0.000000 0.781250 0.805000
0.000000 0.781250 0.833750
0.000000 0.781250 0.862500
0.000000 0.781250 0.891250
0.000000 0.781250 0.920000
0.000000 0.812500 0.000000
0.000000 0.812500 0.028750
0.000000 0.812500 0.057500
0.000000 0.812500 0.086250
0.000000 0.812500 0.115000
0.000000 0.812500 0.143750
0.000000 0.812500 0.172500
0.000000 0.812500 0.201250
0.000000 0.812500 0.230000
0.000000 0.812500 0.258750
0.000000 0.812500 0.287500
0.000000 0.812500 0.316250
0.000000 0.812500 0.345000
0.000000 0.812500 0.373750
0.000000 0.812500 0.402500
0.000000 0.812500 0.431250
0.000000 0.812500 0.460000
0.000000 0.812500 0.488750
0.000000 0.812500 0.517500
0.000000 0.812500 0.546250
0.000000 0.812500 0.575000
0.000000 0.812500 0.603750
0.000000 0.812500 0.632500
0.000000 0.812500 0.661250
0.000000 0.812500 0.690000
0.000000 0.812500 0.718750
0.000000 0.812500 0.747500
