photo_tools_v13/luts/kodak_2383.cube
TITLE "Kodak 2383"
LUT_3D_SIZE 5
DOMAIN_MIN 0.0 0.0 0.0
DOMAIN_MAX 1.0 1.0 1.0
0.000000 0.000000 0.000000
0.000000 0.000000 0.230000
0.000000 0.000000 0.460000
0.000000 0.000000 0.690000
0.000000 0.000000 0.920000
0.000000 0.250000 0.000000
0.000000 0.250000 0.230000
0.000000 0.250000 0.460000
0.000000 0.250000 0.690000
0.000000 0.250000 0.920000
0.000000 0.500000 0.000000
0.000000 0.500000 0.230000
0.000000 0.500000 0.460000
0.000000 0.500000 0.690000
0.000000 0.500000 0.920000
0.000000 0.750000 0.000000
0.000000 0.750000 0.230000
0.000000 0.750000 0.460000
0.000000 0.750000 0.690000
0.000000 0.750000 0.920000
0.000000 1.000000 0.000000
0.000000 1.000000 0.230000
0.000000 1.000000 0.460000
0.000000 1.000000 0.690000
0.000000 1.000000 0.920000
0.280000 0.000000 0.000000
0.280000 0.000000 0.230000
0.280000 0.000000 0.460000
0.280000 0.000000 0.690000
0.280000 0.000000 0.920000
0.280000 0.250000 0.000000
0.280000 0.250000 0.230000
0.280000 0.250000 0.460000
0.280000 0.250000 0.690000
0.280000 0.250000 0.920000
0.280000 0.500000 0.000000
0.280000 0.500000 0.230000
0.280000 0.500000 0.460000
0.280000 0.500000 0.690000
0.280000 0.500000 0.920000
0.280000 0.750000 0.000000
0.280000 0.750000 0.230000
0.280000 0.750000 0.460000
0.280000 0.750000 0.690000
0.280000 0.750000 0.920000
0.280000 1.000000 0.000000
0.280000 1.000000 0.230000
0.280000 1.000000 0.460000
0.280000 1.000000 0.690000
0.280000 1.000000 0.920000
0.560000 0.000000 0.000000
0.560000 0.000000 0.230000
0.560000 0.000000 0.460000
0.560000 0.000000 0.690000
0.560000 0.000000 0.920000
0.560000 0.250000 0.000000
0.560000 0.250000 0.230000
0.560000 0.250000 0.460000
0.560000 0.250000 0.690000
0.560000 0.250000 0.920000
0.560000 0.500000 0.000000
0.560000 0.500000 0.230000
0.560000 0.500000 0.460000
0.560000 0.500000 0.690000
0.560000 0.500000 0.920000
0.560000 0.750000 0.000000
0.560000 0.750000 0.230000
0.560000 0.750000 0.460000
0.560000 0.750000 0.690000
0.560000 0.750000 0.920000
0.560000 1.000000 0.000000
0.560000 1.000000 0.230000
0.560000 1.000000 0.460000
0.560000 1.000000 0.690000
0.560000 1.000000 0.920000
0.840000 0.000000 0.000000
0.840000 0.000000 0.230000
0.840000 0.000000 0.460000
0.840000 0.000000 0.690000
0.840000 0.000000 0.920000
0.840000 0.250000 0.000000
0.840000 0.250000 0.230000
0.840000 0.250000 0.460000
0.840000 0.250000 0.690000
0.840000 0.250000 0.920000
0.840000 0.500000 0.000000
0.840000 0.500000 0.230000
0.840000 0.500000 0.460000
0.840000 0.500000 0.690000
0.840000 0.500000 0.920000
0.840000 0.750000 0.000000
0.840000 0.750000 0.230000
0.840000 0.750000 0.460000
0.840000 0.750000 0.690000
0.840000 0.750000 0.920000
0.840000 1.000000 0.000000
0.840000 1.000000 0.230000
0.840000 1.000000 0.460000
0.840000 1.000000 0.690000
0.840000 1.000000 0.920000
1.000000 0.000000 0.000000
1.000000 0.000000 0.230000
1.000000 0.000000 0.460000
1.000000 0.000000 0.690000
1.000000 0.000000 0.920000
1.000000 0.250000 0.000000
1.000000 0.250000 0.230000
1.000000 0.250000 0.460000
1.000000 0.250000 0.690000
1.000000 0.250000 0.920000
1.000000 0.500000 0.000000
1.000000 0.500000 0.230000
1.000000 0.500000 0.460000
1.000000 0.500000 0.690000
1.000000 0.500000 0.920000
1.000000 0.750000 0.000000
1.000000 0.750000 0.230000
1.000000 0.750000 0.460000
1.000000 0.750000 0.690000
1.000000 0.750000 0.920000
1.000000 1.000000 0.000000
1.000000 1.000000 0.230000
1.000000 1.000000 0.460000
1.000000 1.000000 0.690000
1.000000 1.000000 0.920000
